; generated by Slic3r 1.0.0RC2 on 2014-06-08 at 17:57:19

; layer_height = 0.24
; perimeters = 2
; top_solid_layers = 4
; bottom_solid_layers = 3
; fill_density = 0.3
; perimeter_speed = 20
; infill_speed = 20
; travel_speed = 60
; nozzle_diameter = 0.5
; filament_diameter = 1.75
; extrusion_multiplier = 1
; perimeters extrusion width = 0.50mm
; infill extrusion width = 0.87mm
; solid infill extrusion width = 0.85mm
; top infill extrusion width = 0.85mm

G21 ; set units to millimeters
G90 ; use absolute coordinates
M83 ; use relative distances for extrusion
M140 S65; Set bed temperature
G28 ; Home all axes
G1 Z5 F200 ; lift nozzle
G1 X2 Y50 F2000; Go to wait for warm position
M116; Wait for all temperatures
G10 P1 S185 R0 ; Set extruder temperature
T0; Select extruder
M116; Wait for all temperatures
G1 F1800.000 E-4.00000
G1 Z0.240 F3600.000
G1 X102.414 Y73.882 F3600.000
G1 E4.00000 F1800.000
G1 X103.224 Y72.782 E0.06815 F600.000
G1 X103.344 Y72.652 E0.00883
G1 X119.014 Y56.872 E1.10949
G1 X120.004 Y56.052 E0.06413
G1 X121.144 Y55.442 E0.06451
G1 X122.374 Y55.072 E0.06408
G1 X123.654 Y54.952 E0.06414
G1 X138.454 Y55.022 E0.73838
G1 X139.714 Y55.152 E0.06320
G1 X140.934 Y55.522 E0.06360
G1 X142.054 Y56.132 E0.06363
G1 X143.034 Y56.932 E0.06311
G1 X143.834 Y57.922 E0.06350
G1 X144.434 Y59.042 E0.06339
G1 X144.804 Y60.252 E0.06313
G1 X144.924 Y61.522 E0.06364
G1 X144.954 Y106.372 E2.23758
G1 X144.834 Y107.632 E0.06315
G1 X144.464 Y108.852 E0.06360
G1 X143.864 Y109.982 E0.06383
G1 X143.054 Y110.962 E0.06343
G1 X110.954 Y143.132 E2.26730
G1 X109.964 Y143.952 E0.06413
G1 X108.834 Y144.552 E0.06383
G1 X107.604 Y144.922 E0.06408
G1 X106.324 Y145.042 E0.06414
G1 X105.044 Y144.912 E0.06419
G1 X103.824 Y144.532 E0.06375
G1 X102.694 Y143.912 E0.06430
G1 X101.714 Y143.092 E0.06375
G1 X99.224 Y140.552 E0.17746
G1 X96.734 Y137.822 E0.18434
G1 X95.924 Y136.712 E0.06856
G1 X95.354 Y135.442 E0.06945
G1 X95.074 Y134.092 E0.06879
G1 X95.084 Y132.712 E0.06885
G1 X101.544 Y76.452 E2.82527
G1 X101.844 Y75.122 E0.06802
G1 X102.382 Y73.951 E0.06435
G1 F1800.000 E-4.00000
G1 X109.031 Y77.232 F3600.000
G1 E4.00000 F1800.000
G1 X123.944 Y62.204 E1.05625 F600.000
G1 X137.681 Y62.275 E0.68537
G1 X137.706 Y106.069 E2.18487
G1 X106.363 Y137.480 E2.21384
G1 X104.418 Y135.488 E0.13888
G1 X102.583 Y133.484 E0.13555
G1 X123.739 Y112.515 E1.48607
G1 X132.339 Y93.655 E1.03412
G1 X132.322 Y76.240 E0.86882
G1 X127.983 Y70.587 E0.35555
G1 X122.699 Y72.338 E0.27770
G1 X113.532 Y81.855 E0.65925
G1 X111.015 Y79.514 E0.17149
G1 X109.080 Y77.288 E0.14712
G1 X108.349 Y77.209 F3600.000
G1 X123.737 Y61.703 E1.08989 F420.000
G1 X138.181 Y61.778 E0.72064
G1 X138.206 Y106.276 E2.22000
G1 X106.359 Y138.192 E2.24944
G1 X104.055 Y135.831 E0.16456
G1 X101.890 Y133.467 E0.15993
G1 X123.323 Y112.225 E1.50549
G1 X131.838 Y93.547 E1.02413
G1 X131.822 Y76.410 E0.85493
G1 X127.802 Y71.174 E0.32936
G1 X122.973 Y72.773 E0.25381
G1 X113.551 Y82.556 E0.67761
G1 X110.655 Y79.862 E0.19733
G1 X108.398 Y77.266 E0.17162
G1 X108.834 Y77.090 F3600.000
G1 X113.785 Y81.030 F3600.000
G1 X109.782 Y77.028 E0.45114 F600.000
G1 X110.345 Y76.461 E0.06366
G1 X114.339 Y80.455 E0.45019
G1 X114.893 Y79.880 E0.06367
G1 X110.908 Y75.894 E0.44924
G1 X111.470 Y75.327 E0.06366
G1 X115.448 Y79.304 E0.44829
G1 X116.002 Y78.729 E0.06367
G1 X112.033 Y74.760 E0.44734
G1 X112.596 Y74.193 E0.06366
G1 X116.556 Y78.153 E0.44639
G1 X117.110 Y77.578 E0.06367
G1 X113.158 Y73.626 E0.44543
G1 X113.721 Y73.059 E0.06366
G1 X117.664 Y77.003 E0.44448
G1 X118.219 Y76.427 E0.06367
G1 X114.283 Y72.492 E0.44353
G1 X114.846 Y71.925 E0.06366
G1 X118.773 Y75.852 E0.44258
G1 X119.327 Y75.277 E0.06367
G1 X115.409 Y71.358 E0.44163
G1 X115.971 Y70.791 E0.06366
G1 X119.881 Y74.701 E0.44068
G1 X120.435 Y74.126 E0.06367
G1 X116.534 Y70.224 E0.43973
G1 X117.098 Y69.659 E0.06366
G1 X120.990 Y73.550 E0.43864
G1 X121.544 Y72.975 E0.06367
G1 X117.663 Y69.094 E0.43745
G1 X118.227 Y68.529 E0.06366
G1 X122.098 Y72.400 E0.43625
G1 X122.741 Y71.913 E0.06427
G1 X118.792 Y67.964 E0.44507
G1 X119.357 Y67.399 E0.06366
G1 X123.590 Y71.632 E0.47705
G1 X124.438 Y71.351 E0.07124
G1 X119.922 Y66.835 E0.50903
G1 X120.487 Y66.270 E0.06366
G1 X125.287 Y71.070 E0.54100
G1 X126.135 Y70.789 E0.07124
G1 X121.051 Y65.705 E0.57298
G1 X121.616 Y65.140 E0.06366
G1 X126.983 Y70.508 E0.60495
G1 X127.832 Y70.227 F3600.000
G1 X122.181 Y64.575 E0.63693 F600.000
G1 X122.746 Y64.011 E0.06366
G1 X137.301 Y78.566 E1.64051
G1 X137.300 Y77.436 E0.09008
G1 X123.311 Y63.446 E1.57678
G1 X123.875 Y62.881 E0.06366
G1 X137.300 Y76.305 E1.51305
G1 X137.299 Y75.175 E0.09008
G1 X124.722 Y62.598 E1.41760
G1 X125.857 Y62.604 E0.09050
G1 X137.298 Y74.045 E1.28955
G1 X137.298 Y72.915 E0.09008
G1 X126.993 Y62.610 E1.16149
G1 X128.128 Y62.615 E0.09050
G1 X137.297 Y71.784 E1.03344
G1 X137.296 Y70.654 E0.09008
G1 X129.263 Y62.621 E0.90539
G1 X130.399 Y62.627 E0.09050
G1 X137.296 Y69.524 E0.77734
G1 X137.295 Y68.394 E0.09008
G1 X131.534 Y62.633 E0.64928
G1 X132.670 Y62.639 E0.09050
G1 X137.294 Y67.263 E0.52123
G1 X137.294 Y66.133 E0.09008
G1 X133.805 Y62.645 E0.39318
G1 X134.941 Y62.651 E0.09050
G1 X137.293 Y65.003 E0.26513
G1 X137.292 Y63.873 E0.09008
G1 X136.076 Y62.657 E0.13707
G1 X137.212 Y62.663 E0.09050
G1 X137.292 Y62.743 E0.00902
G1 X129.402 Y71.797 F3600.000
G1 X137.301 Y79.696 E0.89031 F600.000
G1 X137.302 Y80.826 E0.09008
G1 X132.712 Y76.236 E0.51741
G1 X132.713 Y77.366 E0.09011
G1 X137.303 Y81.956 E0.51736
G1 X137.303 Y83.087 E0.09008
G1 X132.714 Y78.497 E0.51731
G1 X132.715 Y79.628 E0.09011
G1 X137.304 Y84.217 E0.51726
G1 X137.305 Y85.347 E0.09008
G1 X132.716 Y80.758 E0.51721
G1 X132.717 Y81.889 E0.09011
G1 X137.305 Y86.477 E0.51716
G1 X137.306 Y87.608 E0.09008
G1 X132.718 Y83.020 E0.51711
G1 X132.719 Y84.150 E0.09011
G1 X137.307 Y88.738 E0.51707
G1 X137.307 Y89.868 E0.09008
G1 X132.720 Y85.281 E0.51702
G1 X132.721 Y86.412 E0.09011
G1 X137.308 Y90.998 E0.51697
G1 X137.309 Y92.129 E0.09008
G1 X132.722 Y87.542 E0.51692
G1 X132.723 Y88.673 E0.09011
G1 X137.309 Y93.259 E0.51687
G1 X137.310 Y94.389 E0.09008
G1 X132.725 Y89.804 E0.51682
G1 X132.726 Y90.934 E0.09011
G1 X137.311 Y95.519 E0.51677
G1 X137.311 Y96.650 E0.09008
G1 X132.727 Y92.065 E0.51672
G1 X132.728 Y93.196 E0.09011
G1 X137.312 Y97.780 E0.51667
G1 X137.312 Y98.910 E0.09008
G1 X132.545 Y94.142 E0.53738
G1 X132.191 Y94.918 E0.06796
G1 X137.313 Y100.040 E0.57732
G1 X137.314 Y101.170 E0.09008
G1 X131.837 Y95.694 E0.61726
G1 X131.483 Y96.470 E0.06796
G1 X137.314 Y102.301 E0.65721
G1 X137.315 Y103.431 E0.09008
G1 X131.130 Y97.246 E0.69715
G1 X130.776 Y98.021 E0.06796
G1 X137.316 Y104.561 E0.73709
G1 X137.316 Y105.691 E0.09008
G1 X130.422 Y98.797 E0.77704
G1 X130.069 Y99.573 E0.06796
G1 X136.860 Y106.365 E0.76551
G1 X136.296 Y106.930 E0.06366
G1 X129.715 Y100.349 E0.74179
G1 X129.361 Y101.125 E0.06796
G1 X135.732 Y107.496 E0.71807
G1 X135.168 Y108.061 E0.06366
G1 X129.007 Y101.901 E0.69435
G1 X128.654 Y102.677 E0.06796
G1 X134.604 Y108.627 E0.67063
G1 X134.039 Y109.192 E0.06366
G1 X128.300 Y103.452 E0.64691
G1 X127.946 Y104.228 E0.06796
G1 X133.475 Y109.757 E0.62319
G1 X132.911 Y110.323 E0.06366
G1 X127.592 Y105.004 E0.59947
G1 X127.239 Y105.780 E0.06796
G1 X132.347 Y110.888 E0.57571
G1 X131.782 Y111.453 E0.06366
G1 X126.885 Y106.556 E0.55192
G1 X126.531 Y107.332 E0.06796
G1 X131.217 Y112.017 E0.52814
G1 X130.652 Y112.582 E0.06366
G1 X126.177 Y108.107 E0.50435
G1 X125.824 Y108.883 E0.06796
G1 X130.087 Y113.147 E0.48056
G1 X129.523 Y113.712 E0.06366
G1 X125.470 Y109.659 E0.45677
G1 X125.116 Y110.435 E0.06796
G1 X128.958 Y114.277 E0.43298
G1 X128.393 Y114.841 E0.06366
G1 X124.762 Y111.211 E0.40920
G1 X124.409 Y111.987 E0.06796
G1 X127.828 Y115.406 E0.38541
G1 X127.263 Y115.971 E0.06366
G1 X124.049 Y112.757 E0.36226
G1 X123.482 Y113.319 E0.06366
G1 X126.699 Y116.536 E0.36255
G1 X126.134 Y117.101 E0.06366
G1 X122.915 Y113.881 E0.36283
G1 X122.347 Y114.444 E0.06366
G1 X125.569 Y117.665 E0.36311
G1 X125.004 Y118.230 E0.06366
G1 X121.780 Y115.006 E0.36340
G1 X121.213 Y115.568 E0.06366
G1 X124.439 Y118.795 E0.36368
G1 X123.875 Y119.360 E0.06366
G1 X120.645 Y116.131 E0.36396
G1 X120.078 Y116.693 E0.06366
G1 X123.310 Y119.924 E0.36425
G1 X122.745 Y120.489 E0.06366
G1 X119.511 Y117.255 E0.36453
G1 X118.944 Y117.817 E0.06366
G1 X122.180 Y121.054 E0.36481
G1 X121.615 Y121.619 E0.06366
G1 X118.376 Y118.380 E0.36510
G1 X117.809 Y118.942 E0.06366
G1 X121.051 Y122.184 E0.36538
G1 X120.486 Y122.748 E0.06366
G1 X117.242 Y119.504 E0.36566
G1 X116.674 Y120.066 E0.06366
G1 X119.921 Y123.313 E0.36595
G1 X119.356 Y123.878 E0.06366
G1 X116.107 Y120.629 E0.36623
G1 X115.540 Y121.191 E0.06366
G1 X118.792 Y124.443 E0.36651
G1 X118.227 Y125.008 E0.06366
G1 X114.972 Y121.753 E0.36680
G1 X114.405 Y122.316 E0.06366
G1 X117.662 Y125.572 E0.36708
G1 X117.097 Y126.137 E0.06366
G1 X113.838 Y122.878 E0.36736
G1 X113.271 Y123.440 E0.06366
G1 X116.532 Y126.702 E0.36764
G1 X115.968 Y127.267 E0.06366
G1 X112.703 Y124.002 E0.36793
G1 X112.136 Y124.565 E0.06366
G1 X115.403 Y127.832 E0.36821
G1 X114.838 Y128.396 E0.06366
G1 X111.569 Y125.127 E0.36849
G1 X111.001 Y125.689 E0.06366
G1 X114.273 Y128.961 E0.36878
G1 X113.708 Y129.526 E0.06366
G1 X110.434 Y126.252 E0.36906
G1 X109.867 Y126.814 E0.06366
G1 X113.144 Y130.091 E0.36934
G1 X112.579 Y130.656 E0.06366
G1 X109.299 Y127.376 E0.36963
G1 X108.732 Y127.938 E0.06366
G1 X112.014 Y131.220 E0.36991
G1 X111.449 Y131.785 E0.06366
G1 X108.165 Y128.501 E0.37019
G1 X107.597 Y129.063 E0.06366
G1 X110.884 Y132.350 E0.37048
G1 X110.320 Y132.915 E0.06366
G1 X107.030 Y129.625 E0.37076
G1 X106.463 Y130.188 E0.06366
G1 X109.755 Y133.480 E0.37104
G1 X109.190 Y134.044 E0.06366
G1 X105.896 Y130.750 E0.37133
G1 X105.328 Y131.312 E0.06366
G1 X108.625 Y134.609 E0.37161
G1 X108.060 Y135.174 E0.06366
G1 X104.761 Y131.874 E0.37189
G1 X104.194 Y132.437 E0.06366
G1 X107.496 Y135.739 E0.37218
G1 X106.931 Y136.303 E0.06366
G1 X103.626 Y132.999 E0.37246
G1 X104.524 Y135.026 F3600.000
G1 X106.366 Y136.868 E0.20767 F600.000
G1 F1800.000 E-4.00000
G1 Z0.480 F3600.000
G1 X106.596 Y137.246 F3600.000
G1 E4.00000 F1800.000
G1 X106.363 Y137.480 E0.01650 F1200
G1 X104.418 Y135.488 E0.13888
G1 X102.583 Y133.484 E0.13555
G1 X123.739 Y112.515 E1.48607
G1 X132.339 Y93.655 E1.03412
G1 X132.322 Y76.240 E0.86882
G1 X127.983 Y70.587 E0.35555
G1 X122.699 Y72.338 E0.27770
G1 X113.532 Y81.855 E0.65925
G1 X111.015 Y79.514 E0.17149
G1 X109.031 Y77.232 E0.15087
G1 X123.944 Y62.204 E1.05625
G1 X137.681 Y62.275 E0.68537
G1 X137.706 Y106.069 E2.18488
G1 X106.649 Y137.193 E2.19360
G1 X106.950 Y137.599 F3600.000
G1 X106.359 Y138.192 E0.04178 F840
G1 X104.055 Y135.831 E0.16456
G1 X101.890 Y133.467 E0.15993
G1 X123.323 Y112.225 E1.50549
G1 X131.838 Y93.547 E1.02413
G1 X131.822 Y76.410 E0.85493
G1 X127.802 Y71.174 E0.32936
G1 X122.973 Y72.773 E0.25381
G1 X113.551 Y82.556 E0.67761
G1 X110.655 Y79.862 E0.19733
G1 X108.349 Y77.209 E0.17536
G1 X123.737 Y61.703 E1.08989
G1 X138.181 Y61.778 E0.72064
G1 X138.206 Y106.276 E2.22000
G1 X107.003 Y137.546 E2.20392
G1 X106.467 Y137.470 F3600.000
G1 X124.357 Y112.100 F3600.000
G1 X137.313 Y99.144 E1.46018 F1200
G1 X137.313 Y100.273 E0.08997
G1 X103.585 Y134.001 E3.80139
G1 X104.125 Y134.591 E0.06372
G1 X137.314 Y101.402 E3.74061
G1 X137.315 Y102.531 E0.08997
G1 X104.672 Y135.174 E3.67910
G1 X105.237 Y135.739 E0.06366
G1 X137.315 Y103.660 E3.61552
G1 X137.316 Y104.789 E0.08997
G1 X105.801 Y136.303 E3.55194
G1 X106.366 Y136.868 E0.06366
G1 X132.647 Y110.587 E2.96209
G1 X126.250 Y107.948 F3600.000
G1 X137.311 Y96.887 E1.24666 F1200
G1 X137.312 Y98.015 E0.08997
G1 X125.304 Y110.024 E1.35342
G1 X127.197 Y105.871 F3600.000
G1 X137.311 Y95.758 E1.13990 F1200
G1 X137.310 Y94.629 E0.08997
G1 X128.144 Y103.795 E1.03314
G1 X129.090 Y101.719 F3600.000
G1 X137.309 Y93.500 E0.92637 F1200
G1 X137.309 Y92.371 E0.08997
G1 X130.037 Y99.643 E0.81961
G1 X130.983 Y97.567 F3600.000
G1 X137.308 Y91.242 E0.71285 F1200
G1 X137.307 Y90.113 E0.08997
G1 X131.930 Y95.491 E0.60609
G1 X132.728 Y93.563 F3600.000
G1 X137.307 Y88.984 E0.51605 F1200
G1 X137.306 Y87.855 E0.08997
G1 X132.727 Y92.434 E0.51610
G1 X132.726 Y91.306 E0.08994
G1 X137.306 Y86.726 E0.51615
G1 X137.305 Y85.597 E0.08997
G1 X132.725 Y90.177 E0.51620
G1 X132.724 Y89.049 E0.08994
G1 X137.304 Y84.469 E0.51625
G1 X137.304 Y83.340 E0.08997
G1 X132.723 Y87.920 E0.51630
G1 X132.722 Y86.792 E0.08994
G1 X137.303 Y82.211 E0.51635
G1 X137.302 Y81.082 E0.08997
G1 X132.721 Y85.663 E0.51640
G1 X132.719 Y84.535 E0.08994
G1 X137.302 Y79.953 E0.51644
G1 X137.301 Y78.824 E0.08997
G1 X132.718 Y83.407 E0.51649
G1 X132.717 Y82.278 E0.08994
G1 X137.300 Y77.695 E0.51654
G1 X137.300 Y76.566 E0.08997
G1 X132.716 Y81.150 E0.51659
G1 X132.715 Y80.021 E0.08994
G1 X137.299 Y75.437 E0.51664
G1 X137.298 Y74.308 E0.08997
G1 X132.714 Y78.893 E0.51669
G1 X132.713 Y77.764 E0.08994
G1 X137.298 Y73.179 E0.51674
G1 X137.297 Y72.050 E0.08997
G1 X132.712 Y76.636 E0.51679
G1 X132.450 Y75.768 E0.07224
G1 X137.296 Y70.922 E0.54621
G1 X137.296 Y69.793 E0.08997
G1 X131.960 Y75.129 E0.60142
G1 X131.469 Y74.490 E0.06420
G1 X137.295 Y68.664 E0.65663
G1 X137.295 Y67.535 E0.08997
G1 X130.979 Y73.851 E0.71184
G1 X130.488 Y73.212 E0.06420
G1 X137.294 Y66.406 E0.76705
G1 X137.293 Y65.277 E0.08997
G1 X129.998 Y72.573 E0.82226
G1 X129.507 Y71.933 E0.06420
G1 X137.293 Y64.148 E0.87747
G1 X137.292 Y63.019 E0.08997
G1 X129.017 Y71.294 E0.93269
G1 X128.526 Y70.655 E0.06420
G1 X136.523 Y62.659 E0.90126
G1 X135.399 Y62.653 E0.08956
G1 X127.822 Y70.230 E0.85395
G1 X126.133 Y70.789 E0.14181
G1 X134.275 Y62.647 E0.91767
G1 X133.151 Y62.641 E0.08956
G1 X124.444 Y71.349 E0.98140
G1 X122.755 Y71.908 E0.14181
G1 X132.028 Y62.636 E1.04512
G1 X130.904 Y62.630 E0.08956
G1 X112.848 Y80.686 E2.03508
G1 X113.433 Y81.230 E0.06370
G1 X117.764 Y76.899 E0.48814
G1 X112.263 Y80.142 F3600.000
G1 X129.780 Y62.624 E1.97438 F1200
G1 X128.656 Y62.618 E0.08956
G1 X111.677 Y79.597 E1.91368
G1 X111.113 Y79.032 E0.06366
G1 X127.533 Y62.612 E1.85063
G1 X126.409 Y62.607 E0.08956
G1 X110.588 Y78.428 E1.78320
G1 X110.062 Y77.824 E0.06381
G1 X125.285 Y62.601 E1.71576
G1 X124.162 Y62.595 E0.08956
G1 X116.773 Y69.984 E0.83280
G1 F1800.000 E-4.00000
G1 Z0.720 F3600.000
G1 X122.188 Y72.868 F3600.000
G1 E4.00000 F1800.000
G1 X113.532 Y81.855 E0.62254 F1200
G1 X111.015 Y79.514 E0.17149
G1 X109.031 Y77.232 E0.15087
G1 X123.944 Y62.204 E1.05625
G1 X137.681 Y62.275 E0.68537
G1 X137.706 Y106.069 E2.18487
G1 X106.363 Y137.480 E2.21384
G1 X104.418 Y135.488 E0.13888
G1 X102.583 Y133.484 E0.13555
G1 X123.739 Y112.515 E1.48607
G1 X132.339 Y93.655 E1.03412
G1 X132.322 Y76.240 E0.86882
G1 X127.983 Y70.587 E0.35555
G1 X122.699 Y72.338 E0.27770
G1 X122.240 Y72.814 E0.03297
G1 X122.548 Y73.214 F3600.000
G1 X113.551 Y82.556 E0.64705 F840
G1 X110.655 Y79.862 E0.19733
G1 X108.349 Y77.209 E0.17536
G1 X123.737 Y61.703 E1.08989
G1 X138.181 Y61.778 E0.72064
G1 X138.206 Y106.276 E2.22000
G1 X106.359 Y138.192 E2.24944
G1 X104.055 Y135.831 E0.16456
G1 X101.890 Y133.467 E0.15993
G1 X123.323 Y112.225 E1.50549
G1 X131.838 Y93.547 E1.02413
G1 X131.822 Y76.410 E0.85493
G1 X127.802 Y71.174 E0.32936
G1 X122.973 Y72.773 E0.25381
G1 X122.600 Y73.160 E0.02681
G1 X122.063 Y73.094 F3600.000
G1 X126.983 Y70.508 F3600.000
G1 X121.616 Y65.140 E0.60496 F1200
G1 X121.051 Y65.705 E0.06366
G1 X126.135 Y70.789 E0.57298
G1 X125.287 Y71.070 E0.07124
G1 X120.487 Y66.270 E0.54100
G1 X119.922 Y66.835 E0.06366
G1 X124.438 Y71.351 E0.50903
G1 X123.590 Y71.632 E0.07124
G1 X119.357 Y67.399 E0.47705
G1 X118.792 Y67.964 E0.06366
G1 X122.741 Y71.913 E0.44507
G1 X122.098 Y72.400 E0.06427
G1 X118.227 Y68.529 E0.43625
G1 X117.663 Y69.094 E0.06366
G1 X121.544 Y72.975 E0.43745
G1 X120.990 Y73.550 E0.06367
G1 X117.098 Y69.659 E0.43864
G1 X116.534 Y70.224 E0.06366
G1 X120.435 Y74.126 E0.43973
G1 X119.881 Y74.701 E0.06367
G1 X115.971 Y70.791 E0.44068
G1 X115.409 Y71.358 E0.06366
G1 X119.327 Y75.277 E0.44163
G1 X118.773 Y75.852 E0.06367
G1 X114.846 Y71.925 E0.44258
G1 X114.283 Y72.492 E0.06366
G1 X118.219 Y76.427 E0.44353
