; generated by Slic3r 1.0.0RC2 on 2014-06-06 at 19:18:00

; layer_height = 0.24
; perimeters = 2
; top_solid_layers = 4
; bottom_solid_layers = 3
; fill_density = 0.3
; perimeter_speed = 20
; infill_speed = 20
; travel_speed = 60
; nozzle_diameter = 0.5
; filament_diameter = 1.75
; extrusion_multiplier = 1
; perimeters extrusion width = 0.50mm
; infill extrusion width = 0.87mm
; solid infill extrusion width = 0.85mm
; top infill extrusion width = 0.85mm

G21 ; set units to millimeters
G90 ; use absolute coordinates
M83 ; use relative distances for extrusion
M140 S65; Set bed temperature
G28 ; Home all axes
G1 Z5 F200 ; lift nozzle
G1 X2 Y50 F2000; Go to wait for warm position
M116; Wait for all temperatures
G10 P1 S185 R0 ; Set extruder temperature
T0; Select extruder
M116; Wait for all temperatures
G1 F1800.000 E-4.00000
G1 Z0.240 F3600.000
G1 X67.330 Y45.320 F3600.000
G1 E4.00000 F1800.000
G1 X68.130 Y44.200 E0.06867 F600.000
G1 X69.140 Y43.270 E0.06850
G1 X70.330 Y42.580 E0.06863
G1 X71.630 Y42.150 E0.06831
G1 X73.000 Y42.000 E0.06876
G1 X163.000 Y42.000 E4.49012
G1 X164.400 Y42.150 E0.07025
G1 X165.730 Y42.600 E0.07005
G1 X166.940 Y43.330 E0.07050
G1 X167.960 Y44.300 E0.07022
G1 X178.960 Y57.300 E0.84960
G1 X179.800 Y58.570 E0.07597
G1 X180.320 Y59.990 E0.07544
G1 X180.500 Y61.500 E0.07587
G1 X180.500 Y69.500 E0.39912
G1 X180.380 Y70.770 E0.06364
G1 X180.010 Y71.990 E0.06360
G1 X179.400 Y73.110 E0.06363
G1 X178.600 Y74.100 E0.06350
G1 X96.600 Y156.100 E5.78554
G1 X95.610 Y156.900 E0.06350
G1 X94.490 Y157.510 E0.06363
G1 X93.270 Y157.880 E0.06360
G1 X92.000 Y158.000 E0.06364
G1 X84.000 Y158.000 E0.39912
G1 X82.630 Y157.850 E0.06876
G1 X81.330 Y157.430 E0.06816
G1 X80.140 Y156.730 E0.06888
G1 X62.140 Y143.460 E1.11568
G1 X61.040 Y142.430 E0.07518
G1 X60.200 Y141.160 E0.07597
G1 X59.680 Y139.740 E0.07544
G1 X59.500 Y138.230 E0.07587
G1 X59.500 Y128.510 E0.48493
G1 X59.520 Y127.940 E0.02845
G1 X66.520 Y47.930 E4.00696
G1 X66.790 Y46.580 E0.06869
G1 X67.300 Y45.389 E0.06465
G1 F1800.000 E-4.00000
G1 X84.750 Y62.250 F3600.000
G1 E4.00000 F1800.000
G1 X173.250 Y62.250 E4.41528 F600.000
G1 X173.250 Y68.750 E0.32429
G1 X93.250 Y68.750 E3.99122
G1 X93.250 Y70.750 E0.09978
G1 X91.250 Y70.750 E0.09978
G1 X91.250 Y150.750 E3.99122
G1 X84.750 Y150.750 E0.32429
G1 X84.750 Y62.325 E4.41154
G1 X84.250 Y61.750 F3600.000
G1 X173.750 Y61.750 E4.46517 F420.000
G1 X173.750 Y69.250 E0.37418
G1 X93.750 Y69.250 E3.99122
G1 X93.750 Y71.250 E0.09978
G1 X91.750 Y71.250 E0.09978
G1 X91.750 Y151.250 E3.99122
G1 X84.250 Y151.250 E0.37418
G1 X84.250 Y61.825 E4.46143
G1 X84.683 Y62.000 F3600.000
G1 X172.860 Y62.719 F3600.000
G1 X172.780 Y62.640 E0.00901 F600.000
G1 X171.650 Y62.640 E0.09023
G1 X172.860 Y63.850 E0.13661
G1 X172.860 Y64.981 E0.09023
G1 X170.519 Y62.640 E0.26421
G1 X169.388 Y62.640 E0.09023
G1 X172.860 Y66.112 E0.39181
G1 X172.860 Y67.243 E0.09023
G1 X168.257 Y62.640 E0.51941
G1 X167.126 Y62.640 E0.09023
G1 X172.814 Y68.327 E0.64175
G1 X171.716 Y68.360 E0.08761
G1 X165.995 Y62.640 E0.64550
G1 X164.865 Y62.640 E0.09023
G1 X170.585 Y68.360 E0.64550
G1 X169.454 Y68.360 E0.09023
G1 X163.734 Y62.640 E0.64550
G1 X162.603 Y62.640 E0.09023
G1 X168.324 Y68.360 E0.64550
G1 X167.193 Y68.360 E0.09023
G1 X161.472 Y62.640 E0.64550
G1 X160.341 Y62.640 E0.09023
G1 X166.062 Y68.360 E0.64550
G1 X164.931 Y68.360 E0.09023
G1 X159.210 Y62.640 E0.64550
G1 X158.079 Y62.640 E0.09023
G1 X163.800 Y68.360 E0.64550
G1 X162.669 Y68.360 E0.09023
G1 X156.949 Y62.640 E0.64550
G1 X155.818 Y62.640 E0.09023
G1 X161.538 Y68.360 E0.64550
G1 X160.408 Y68.360 E0.09023
G1 X154.687 Y62.640 E0.64550
G1 X153.556 Y62.640 E0.09023
G1 X159.277 Y68.360 E0.64550
G1 X158.146 Y68.360 E0.09023
G1 X152.425 Y62.640 E0.64550
G1 X151.294 Y62.640 E0.09023
G1 X157.015 Y68.360 E0.64550
G1 X155.884 Y68.360 E0.09023
G1 X150.164 Y62.640 E0.64550
G1 X149.033 Y62.640 E0.09023
G1 X154.753 Y68.360 E0.64550
G1 X153.623 Y68.360 E0.09023
G1 X147.902 Y62.640 E0.64550
G1 X146.771 Y62.640 E0.09023
G1 X152.492 Y68.360 E0.64550
G1 X151.361 Y68.360 E0.09023
G1 X145.640 Y62.640 E0.64550
G1 X144.509 Y62.640 E0.09023
G1 X150.230 Y68.360 E0.64550
G1 X149.099 Y68.360 E0.09023
G1 X143.378 Y62.640 E0.64550
G1 X142.248 Y62.640 E0.09023
G1 X147.968 Y68.360 E0.64550
G1 X146.837 Y68.360 E0.09023
G1 X141.117 Y62.640 E0.64550
G1 X139.986 Y62.640 E0.09023
G1 X145.707 Y68.360 E0.64550
G1 X144.576 Y68.360 E0.09023
G1 X138.855 Y62.640 E0.64550
G1 X137.724 Y62.640 E0.09023
G1 X143.445 Y68.360 E0.64550
G1 X142.314 Y68.360 E0.09023
G1 X136.593 Y62.640 E0.64550
G1 X135.462 Y62.640 E0.09023
G1 X141.183 Y68.360 E0.64550
G1 X140.052 Y68.360 E0.09023
G1 X134.332 Y62.640 E0.64550
G1 X133.201 Y62.640 E0.09023
G1 X138.921 Y68.360 E0.64550
G1 X137.791 Y68.360 E0.09023
G1 X132.070 Y62.640 E0.64550
G1 X130.939 Y62.640 E0.09023
G1 X136.660 Y68.360 E0.64550
G1 X135.529 Y68.360 E0.09023
G1 X129.808 Y62.640 E0.64550
G1 X128.677 Y62.640 E0.09023
G1 X134.398 Y68.360 E0.64550
G1 X133.267 Y68.360 E0.09023
G1 X127.547 Y62.640 E0.64550
G1 X126.416 Y62.640 E0.09023
G1 X132.136 Y68.360 E0.64550
G1 X131.006 Y68.360 E0.09023
G1 X125.285 Y62.640 E0.64550
G1 X124.154 Y62.640 E0.09023
G1 X129.875 Y68.360 E0.64550
G1 X128.744 Y68.360 E0.09023
G1 X123.023 Y62.640 E0.64550
G1 X121.892 Y62.640 E0.09023
G1 X127.613 Y68.360 E0.64550
G1 X126.482 Y68.360 E0.09023
G1 X120.761 Y62.640 E0.64550
G1 X119.631 Y62.640 E0.09023
G1 X125.351 Y68.360 E0.64550
G1 X124.220 Y68.360 E0.09023
G1 X118.500 Y62.640 E0.64550
G1 X117.369 Y62.640 E0.09023
G1 X123.090 Y68.360 E0.64550
G1 X121.959 Y68.360 E0.09023
G1 X116.238 Y62.640 E0.64550
G1 X115.107 Y62.640 E0.09023
G1 X120.828 Y68.360 E0.64550
G1 X119.697 Y68.360 E0.09023
G1 X113.976 Y62.640 E0.64550
G1 X112.846 Y62.640 E0.09023
G1 X118.566 Y68.360 E0.64550
G1 X117.435 Y68.360 E0.09023
G1 X111.715 Y62.640 E0.64550
G1 X110.584 Y62.640 E0.09023
G1 X116.304 Y68.360 E0.64550
G1 X115.174 Y68.360 E0.09023
G1 X109.453 Y62.640 E0.64550
G1 X108.322 Y62.640 E0.09023
G1 X114.043 Y68.360 E0.64550
G1 X112.912 Y68.360 E0.09023
G1 X107.191 Y62.640 E0.64550
G1 X106.060 Y62.640 E0.09023
G1 X111.781 Y68.360 E0.64550
G1 X110.650 Y68.360 E0.09023
G1 X104.930 Y62.640 E0.64550
G1 X103.799 Y62.640 E0.09023
G1 X109.519 Y68.360 E0.64550
G1 X108.389 Y68.360 E0.09023
G1 X102.668 Y62.640 E0.64550
G1 X101.537 Y62.640 E0.09023
G1 X107.258 Y68.360 E0.64550
G1 X106.127 Y68.360 E0.09023
G1 X100.406 Y62.640 E0.64550
G1 X99.275 Y62.640 E0.09023
G1 X104.996 Y68.360 E0.64550
G1 X103.865 Y68.360 E0.09023
G1 X98.144 Y62.640 E0.64550
G1 X97.014 Y62.640 E0.09023
G1 X102.734 Y68.360 E0.64550
G1 X101.603 Y68.360 E0.09023
G1 X95.883 Y62.640 E0.64550
G1 X94.752 Y62.640 E0.09023
G1 X100.473 Y68.360 E0.64550
G1 X99.342 Y68.360 E0.09023
G1 X93.621 Y62.640 E0.64550
G1 X92.490 Y62.640 E0.09023
G1 X98.211 Y68.360 E0.64550
G1 X97.080 Y68.360 E0.09023
G1 X91.359 Y62.640 E0.64550
G1 X90.229 Y62.640 E0.09023
G1 X95.949 Y68.360 E0.64550
G1 X94.818 Y68.360 E0.09023
G1 X89.098 Y62.640 E0.64550
G1 X87.967 Y62.640 E0.09023
G1 X93.688 Y68.360 E0.64550
G1 X92.860 Y68.664 E0.07031
G1 X86.836 Y62.640 E0.67977
G1 X85.705 Y62.640 E0.09023
G1 X92.860 Y69.795 E0.80737
G1 X92.295 Y70.360 E0.06380
G1 X85.140 Y63.205 E0.80738
G1 X85.140 Y64.336 E0.09023
G1 X91.164 Y70.360 E0.67978
G1 X90.860 Y71.187 E0.07030
G1 X85.140 Y65.467 E0.64550
G1 X85.140 Y66.598 E0.09023
G1 X90.860 Y72.318 E0.64550
G1 X90.860 Y73.449 E0.09023
G1 X85.140 Y67.728 E0.64550
G1 X85.140 Y68.859 E0.09023
G1 X90.860 Y74.580 E0.64550
G1 X90.860 Y75.711 E0.09023
G1 X85.140 Y69.990 E0.64550
G1 X85.140 Y71.121 E0.09023
G1 X90.860 Y76.842 E0.64550
G1 X90.860 Y77.972 E0.09023
G1 X85.140 Y72.252 E0.64550
G1 X85.140 Y73.383 E0.09023
G1 X90.860 Y79.103 E0.64550
G1 X90.860 Y80.234 E0.09023
G1 X85.140 Y74.514 E0.64550
G1 X85.140 Y75.644 E0.09023
G1 X90.860 Y81.365 E0.64550
G1 X90.860 Y82.496 E0.09023
G1 X85.140 Y76.775 E0.64550
G1 X85.140 Y77.906 E0.09023
G1 X90.860 Y83.627 E0.64550
G1 X90.860 Y84.758 E0.09023
G1 X85.140 Y79.037 E0.64550
G1 X85.140 Y80.168 E0.09023
G1 X90.860 Y85.888 E0.64550
G1 X90.860 Y87.019 E0.09023
G1 X85.140 Y81.299 E0.64550
G1 X85.140 Y82.429 E0.09023
G1 X90.860 Y88.150 E0.64550
G1 X90.860 Y89.281 E0.09023
G1 X85.140 Y83.560 E0.64550
G1 X85.140 Y84.691 E0.09023
G1 X90.860 Y90.412 E0.64550
G1 X90.860 Y91.543 E0.09023
G1 X85.140 Y85.822 E0.64550
G1 X85.140 Y86.953 E0.09023
G1 X90.860 Y92.674 E0.64550
G1 X90.860 Y93.804 E0.09023
G1 X85.140 Y88.084 E0.64550
G1 X85.140 Y89.215 E0.09023
G1 X90.860 Y94.935 E0.64550
G1 X90.860 Y96.066 E0.09023
G1 X85.140 Y90.345 E0.64550
G1 X85.140 Y91.476 E0.09023
G1 X90.860 Y97.197 E0.64550
G1 X90.860 Y98.328 E0.09023
G1 X85.140 Y92.607 E0.64550
G1 X85.140 Y93.738 E0.09023
G1 X90.860 Y99.459 E0.64550
G1 X90.860 Y100.589 E0.09023
G1 X85.140 Y94.869 E0.64550
G1 X85.140 Y96.000 E0.09023
G1 X90.860 Y101.720 E0.64550
G1 X90.860 Y102.851 E0.09023
G1 X85.140 Y97.130 E0.64550
G1 X85.140 Y98.261 E0.09023
G1 X90.860 Y103.982 E0.64550
G1 X90.860 Y105.113 E0.09023
G1 X85.140 Y99.392 E0.64550
G1 X85.140 Y100.523 E0.09023
G1 X90.860 Y106.244 E0.64550
G1 X90.860 Y107.375 E0.09023
G1 X85.140 Y101.654 E0.64550
G1 X85.140 Y102.785 E0.09023
G1 X90.860 Y108.505 E0.64550
G1 X90.860 Y109.636 E0.09023
G1 X85.140 Y103.916 E0.64550
G1 X85.140 Y105.046 E0.09023
G1 X90.860 Y110.767 E0.64550
G1 X90.860 Y111.898 E0.09023
G1 X85.140 Y106.177 E0.64550
G1 X85.140 Y107.308 E0.09023
G1 X90.860 Y113.029 E0.64550
G1 X90.860 Y114.160 E0.09023
G1 X85.140 Y108.439 E0.64550
G1 X85.140 Y109.570 E0.09023
G1 X90.860 Y115.291 E0.64550
G1 X90.860 Y116.421 E0.09023
G1 X85.140 Y110.701 E0.64550
G1 X85.140 Y111.832 E0.09023
G1 X90.860 Y117.552 E0.64550
G1 X90.860 Y118.683 E0.09023
G1 X85.140 Y112.962 E0.64550
G1 X85.140 Y114.093 E0.09023
G1 X90.860 Y119.814 E0.64550
G1 X90.860 Y120.945 E0.09023
G1 X85.140 Y115.224 E0.64550
G1 X85.140 Y116.355 E0.09023
G1 X90.860 Y122.076 E0.64550
G1 X90.860 Y123.206 E0.09023
G1 X85.140 Y117.486 E0.64550
G1 X85.140 Y118.617 E0.09023
G1 X90.860 Y124.337 E0.64550
G1 X90.860 Y125.468 E0.09023
G1 X85.140 Y119.747 E0.64550
G1 X85.140 Y120.878 E0.09023
G1 X90.860 Y126.599 E0.64550
G1 X90.860 Y127.730 E0.09023
G1 X85.140 Y122.009 E0.64550
G1 X85.140 Y123.140 E0.09023
G1 X90.860 Y128.861 E0.64550
G1 X90.860 Y129.992 E0.09023
G1 X85.140 Y124.271 E0.64550
G1 X85.140 Y125.402 E0.09023
G1 X90.860 Y131.122 E0.64550
G1 X90.860 Y132.253 E0.09023
G1 X85.140 Y126.533 E0.64550
G1 X85.140 Y127.663 E0.09023
G1 X90.860 Y133.384 E0.64550
G1 X90.860 Y134.515 E0.09023
G1 X85.140 Y128.794 E0.64550
G1 X85.140 Y129.925 E0.09023
G1 X90.860 Y135.646 E0.64550
G1 X90.860 Y136.777 E0.09023
G1 X85.140 Y131.056 E0.64550
G1 X85.140 Y132.187 E0.09023
G1 X90.860 Y137.907 E0.64550
G1 X90.860 Y139.038 E0.09023
G1 X85.140 Y133.318 E0.64550
G1 X85.140 Y134.448 E0.09023
G1 X90.860 Y140.169 E0.64550
G1 X90.860 Y141.300 E0.09023
G1 X85.140 Y135.579 E0.64550
G1 X85.140 Y136.710 E0.09023
G1 X90.860 Y142.431 E0.64550
G1 X90.860 Y143.562 E0.09023
G1 X85.140 Y137.841 E0.64550
G1 X85.140 Y138.972 E0.09023
G1 X90.860 Y144.693 E0.64550
G1 X90.860 Y145.823 E0.09023
G1 X85.140 Y140.103 E0.64550
G1 X85.140 Y141.234 E0.09023
G1 X90.860 Y146.954 E0.64550
G1 X90.860 Y148.085 E0.09023
G1 X85.140 Y142.364 E0.64550
G1 X85.140 Y143.495 E0.09023
G1 X90.860 Y149.216 E0.64550
G1 X90.827 Y150.314 E0.08762
G1 X85.140 Y144.626 E0.64175
G1 X85.140 Y145.757 E0.09023
G1 X89.743 Y150.360 E0.51943
G1 X88.612 Y150.360 E0.09023
G1 X85.140 Y146.888 E0.39183
G1 X85.140 Y148.019 E0.09023
G1 X87.481 Y150.360 E0.26423
G1 X86.350 Y150.360 E0.09023
G1 X85.140 Y149.150 E0.13662
G1 X85.140 Y150.280 E0.09023
G1 X85.220 Y150.360 E0.00902
G1 F1800.000 E-4.00000
G1 X106.273 Y86.719 F3600.000
G1 E4.00000 F1800.000
G1 X105.823 Y86.519 E0.02455 F600.000
G1 X105.425 Y86.230 E0.02455
G1 X105.095 Y85.864 E0.02455
G1 X104.849 Y85.438 E0.02455
G1 X104.697 Y84.970 E0.02455
G1 X104.646 Y84.480 E0.02455
G1 X104.697 Y83.991 E0.02455
G1 X104.849 Y83.523 E0.02455
G1 X105.095 Y83.097 E0.02455
G1 X105.425 Y82.731 E0.02455
G1 X105.823 Y82.442 E0.02455
G1 X106.273 Y82.241 E0.02455
G1 X106.754 Y82.139 E0.02455
G1 X107.246 Y82.139 E0.02455
G1 X107.727 Y82.241 E0.02455
G1 X108.177 Y82.442 E0.02455
G1 X108.575 Y82.731 E0.02455
G1 X108.905 Y83.097 E0.02455
G1 X109.151 Y83.523 E0.02455
G1 X109.303 Y83.991 E0.02455
G1 X109.354 Y84.480 E0.02456
G1 X109.303 Y84.970 E0.02455
G1 X109.151 Y85.438 E0.02455
G1 X108.905 Y85.864 E0.02455
G1 X108.575 Y86.230 E0.02455
G1 X108.177 Y86.519 E0.02455
G1 X107.727 Y86.719 E0.02455
G1 X107.246 Y86.822 E0.02455
G1 X106.754 Y86.822 E0.02455
G1 X106.346 Y86.735 E0.02081
G1 X106.428 Y86.241 F3600.000
G1 X106.074 Y86.084 E0.01931 F600.000
G1 X105.761 Y85.856 E0.01931
G1 X105.502 Y85.568 E0.01931
G1 X105.309 Y85.233 E0.01931
G1 X105.189 Y84.865 E0.01931
G1 X105.149 Y84.480 E0.01931
G1 X105.189 Y84.095 E0.01931
G1 X105.309 Y83.727 E0.01931
G1 X105.502 Y83.392 E0.01931
G1 X105.761 Y83.104 E0.01931
G1 X106.074 Y82.877 E0.01931
G1 X106.428 Y82.720 E0.01931
G1 X106.806 Y82.639 E0.01931
G1 X107.194 Y82.639 E0.01931
G1 X107.572 Y82.720 E0.01931
G1 X107.926 Y82.877 E0.01931
G1 X108.239 Y83.104 E0.01931
G1 X108.498 Y83.392 E0.01931
G1 X108.691 Y83.727 E0.01931
G1 X108.811 Y84.095 E0.01931
G1 X108.851 Y84.480 E0.01931
G1 X108.811 Y84.865 E0.01931
G1 X108.691 Y85.233 E0.01931
G1 X108.498 Y85.568 E0.01931
G1 X108.239 Y85.856 E0.01931
G1 X107.926 Y86.084 E0.01931
G1 X107.572 Y86.241 E0.01931
G1 X107.194 Y86.322 E0.01931
G1 X106.806 Y86.322 E0.01931
G1 X106.501 Y86.257 E0.01557
G1 X106.131 Y86.490 F3600.000
G1 X103.062 Y92.849 F3600.000
G1 X102.044 Y92.289 E0.05794 F600.000
G1 X101.105 Y91.606 E0.05794
G1 X100.258 Y90.811 E0.05794
G1 X99.518 Y89.916 E0.05794
G1 X98.895 Y88.936 E0.05794
G1 X98.401 Y87.885 E0.05794
G1 X98.042 Y86.780 E0.05794
G1 X97.824 Y85.639 E0.05795
G1 X97.751 Y84.480 E0.05794
G1 X97.824 Y83.321 E0.05794
G1 X98.042 Y82.180 E0.05794
G1 X98.401 Y81.076 E0.05794
G1 X98.895 Y80.025 E0.05794
G1 X99.518 Y79.044 E0.05794
G1 X100.258 Y78.149 E0.05794
G1 X101.105 Y77.354 E0.05794
G1 X102.044 Y76.671 E0.05794
G1 X103.062 Y76.112 E0.05794
G1 X104.142 Y75.684 E0.05795
G1 X105.267 Y75.396 E0.05794
G1 X106.419 Y75.250 E0.05794
G1 X107.581 Y75.250 E0.05794
G1 X108.733 Y75.396 E0.05794
G1 X109.858 Y75.684 E0.05794
G1 X110.938 Y76.112 E0.05794
G1 X111.956 Y76.671 E0.05794
G1 X112.895 Y77.354 E0.05794
G1 X113.742 Y78.149 E0.05794
G1 X114.482 Y79.044 E0.05794
G1 X115.105 Y80.025 E0.05794
G1 X115.599 Y81.076 E0.05794
G1 X115.958 Y82.180 E0.05794
G1 X116.176 Y83.321 E0.05795
G1 X116.249 Y84.480 E0.05794
G1 X116.176 Y85.639 E0.05794
G1 X115.958 Y86.780 E0.05794
G1 X115.599 Y87.885 E0.05794
G1 X115.105 Y88.936 E0.05794
G1 X114.482 Y89.916 E0.05794
G1 X113.742 Y90.811 E0.05794
G1 X112.895 Y91.606 E0.05794
G1 X111.956 Y92.289 E0.05794
G1 X110.938 Y92.849 E0.05794
G1 X109.858 Y93.276 E0.05794
G1 X108.733 Y93.565 E0.05794
G1 X107.581 Y93.711 E0.05794
G1 X106.419 Y93.711 E0.05794
G1 X105.267 Y93.565 E0.05794
G1 X104.142 Y93.276 E0.05794
G1 X103.132 Y92.876 E0.05420
G1 X102.849 Y93.302 F3600.000
G1 X101.776 Y92.712 E0.06108 F420.000
G1 X100.785 Y91.992 E0.06108
G1 X99.893 Y91.154 E0.06108
G1 X99.112 Y90.211 E0.06108
G1 X98.456 Y89.177 E0.06108
G1 X97.935 Y88.069 E0.06108
G1 X97.557 Y86.905 E0.06108
G1 X97.327 Y85.702 E0.06108
G1 X97.250 Y84.480 E0.06108
G1 X97.327 Y83.258 E0.06108
G1 X97.557 Y82.056 E0.06108
G1 X97.935 Y80.891 E0.06108
G1 X98.456 Y79.783 E0.06108
G1 X99.112 Y78.750 E0.06108
G1 X99.893 Y77.806 E0.06108
G1 X100.785 Y76.968 E0.06108
G1 X101.758 Y76.261 E0.05999
G1 X102.849 Y75.659 E0.06217
G1 X103.987 Y75.208 E0.06108
G1 X105.144 Y74.911 E0.05959
G1 X106.388 Y74.750 E0.06257
G1 X107.612 Y74.750 E0.06108
G1 X108.827 Y74.903 E0.06108
G1 X110.013 Y75.208 E0.06108
G1 X111.151 Y75.659 E0.06108
G1 X112.224 Y76.248 E0.06108
G1 X113.215 Y76.968 E0.06108
G1 X114.107 Y77.806 E0.06108
G1 X114.888 Y78.750 E0.06108
G1 X115.544 Y79.783 E0.06108
G1 X116.065 Y80.891 E0.06108
G1 X116.443 Y82.056 E0.06108
G1 X116.673 Y83.258 E0.06108
G1 X116.750 Y84.480 E0.06108
