; generated by Slic3r 1.0.0RC2 on 2014-06-08 at 18:01:47

; layer_height = 0.24
; perimeters = 2
; top_solid_layers = 4
; bottom_solid_layers = 3
; fill_density = 0.3
; perimeter_speed = 20
; infill_speed = 20
; travel_speed = 60
; nozzle_diameter = 0.5
; filament_diameter = 1.75
; extrusion_multiplier = 1
; perimeters extrusion width = 0.50mm
; infill extrusion width = 0.87mm
; solid infill extrusion width = 0.85mm
; top infill extrusion width = 0.85mm

G21 ; set units to millimeters
G90 ; use absolute coordinates
M83 ; use relative distances for extrusion
M140 S65; Set bed temperature
G28 ; Home all axes
G1 Z5 F200 ; lift nozzle
G1 X2 Y50 F2000; Go to wait for warm position
M116; Wait for all temperatures
G10 P1 S185 R0 ; Set extruder temperature
T0; Select extruder
M116; Wait for all temperatures
G1 F1800.000 E-4.00000
G1 Z0.240 F3600.000
G1 X100.956 Y77.238 F3600.000
G1 E4.00000 F1800.000
G1 X101.376 Y76.718 E0.03335 F600.000
G1 X103.476 Y74.388 E0.15649
G1 X103.956 Y73.908 E0.03387
G1 X104.476 Y73.488 E0.03335
G1 X106.936 Y71.688 E0.15208
G1 X107.546 Y71.278 E0.03667
G1 X108.206 Y70.948 E0.03681
G1 X111.076 Y69.678 E0.15658
G1 X111.706 Y69.438 E0.03363
G1 X112.356 Y69.258 E0.03365
G1 X115.416 Y68.608 E0.15607
G1 X116.076 Y68.508 E0.03330
G1 X116.746 Y68.468 E0.03349
G1 X140.336 Y68.388 E1.17692
G1 X141.676 Y68.528 E0.06722
G1 X142.966 Y68.938 E0.06753
G1 X144.136 Y69.608 E0.06726
G1 X145.136 Y70.508 E0.06712
G1 X145.936 Y71.598 E0.06746
G1 X146.496 Y72.828 E0.06743
G1 X146.796 Y74.138 E0.06705
G1 X149.636 Y98.668 E1.23198
G1 X149.666 Y99.678 E0.05041
G1 X149.556 Y100.678 E0.05019
G1 X149.186 Y102.558 E0.09559
G1 X149.006 Y103.248 E0.03558
G1 X148.756 Y103.928 E0.03615
G1 X146.286 Y109.518 E0.30490
G1 X145.796 Y110.408 E0.05069
G1 X145.186 Y111.218 E0.05059
G1 X130.926 Y127.198 E1.06852
G1 X129.496 Y128.398 E0.09313
G1 X127.786 Y129.138 E0.09296
G1 X119.566 Y131.378 E0.42505
G1 X118.066 Y131.608 E0.07571
G1 X116.546 Y131.478 E0.07611
G1 X115.106 Y130.998 E0.07573
G1 X104.236 Y125.928 E0.59840
G1 X102.856 Y125.058 E0.08139
G1 X101.736 Y123.868 E0.08153
G1 X92.406 Y111.068 E0.79023
G1 X92.086 Y110.588 E0.02878
G1 X91.816 Y110.088 E0.02835
G1 X90.976 Y108.368 E0.09550
G1 X90.466 Y106.898 E0.07763
G1 X90.316 Y105.348 E0.07769
G1 X90.366 Y103.438 E0.09532
G1 X90.496 Y102.318 E0.05625
G1 X90.816 Y101.238 E0.05620
G1 X98.586 Y81.408 E1.06256
G1 X99.016 Y80.518 E0.04931
G1 X100.586 Y77.808 E0.15625
G1 X100.915 Y77.301 E0.03016
G1 F1800.000 E-4.00000
G1 X116.896 Y86.837 F3600.000
G1 E4.00000 F1800.000
G1 X117.791 Y86.187 E0.05515 F600.000
G1 X118.896 Y86.187 E0.05515
G1 X119.569 Y86.676 E0.04151
G1 X119.790 Y86.837 E0.01364
G1 X120.132 Y87.888 E0.05515
G1 X119.790 Y88.939 E0.05515
G1 X118.896 Y89.589 E0.05515
G1 X117.790 Y89.589 E0.05515
G1 X116.896 Y88.939 E0.05515
G1 X116.555 Y87.888 E0.05515
G1 X116.873 Y86.908 E0.05141
G1 X117.322 Y87.146 F3600.000
G1 X117.953 Y86.687 E0.03894 F600.000
G1 X118.733 Y86.687 E0.03894
G1 X119.275 Y87.081 E0.03341
G1 X119.365 Y87.146 E0.00553
G1 X119.606 Y87.888 E0.03894
G1 X119.365 Y88.630 E0.03894
G1 X118.733 Y89.089 E0.03894
G1 X117.953 Y89.089 E0.03894
G1 X117.322 Y88.630 E0.03894
G1 X117.080 Y87.888 E0.03894
G1 X117.298 Y87.217 E0.03520
G1 X117.167 Y86.670 F3600.000
G1 X117.791 Y91.187 F3600.000
G1 X118.896 Y91.187 E0.05515 F600.000
G1 X119.790 Y91.837 E0.05515
G1 X120.132 Y92.888 E0.05515
G1 X119.790 Y93.939 E0.05515
G1 X118.896 Y94.589 E0.05515
G1 X117.790 Y94.589 E0.05515
G1 X116.896 Y93.939 E0.05515
G1 X116.555 Y92.888 E0.05515
G1 X116.896 Y91.837 E0.05515
G1 X117.730 Y91.231 E0.05141
G1 X117.953 Y91.687 F3600.000
G1 X118.733 Y91.687 E0.03894 F600.000
G1 X119.275 Y92.081 E0.03341
G1 X119.365 Y92.146 E0.00553
G1 X119.606 Y92.888 E0.03894
G1 X119.365 Y93.630 E0.03894
G1 X118.733 Y94.089 E0.03894
G1 X117.953 Y94.089 E0.03894
G1 X117.322 Y93.630 E0.03894
G1 X117.080 Y92.888 E0.03894
G1 X117.322 Y92.146 E0.03894
G1 X117.892 Y91.731 E0.03520
G1 X118.107 Y91.211 F3600.000
G1 F1800.000 E-4.00000
G1 X117.791 Y96.187 F3600.000
G1 E4.00000 F1800.000
G1 X118.896 Y96.187 E0.05515 F600.000
G1 X119.790 Y96.837 E0.05515
G1 X120.132 Y97.888 E0.05515
G1 X119.790 Y98.939 E0.05515
G1 X118.896 Y99.589 E0.05515
G1 X117.790 Y99.589 E0.05515
G1 X116.896 Y98.939 E0.05515
G1 X116.555 Y97.888 E0.05515
G1 X116.896 Y96.837 E0.05515
G1 X117.730 Y96.231 E0.05141
G1 X117.953 Y96.687 F3600.000
G1 X118.733 Y96.687 E0.03894 F600.000
G1 X119.365 Y97.146 E0.03894
G1 X119.606 Y97.888 E0.03894
G1 X119.365 Y98.630 E0.03894
G1 X118.733 Y99.089 E0.03894
G1 X117.953 Y99.089 E0.03894
G1 X117.322 Y98.630 E0.03894
G1 X117.080 Y97.888 E0.03894
G1 X117.322 Y97.146 E0.03894
G1 X117.892 Y96.731 E0.03520
G1 X118.107 Y96.211 F3600.000
G1 F1800.000 E-4.00000
G1 X117.637 Y103.171 F3600.000
G1 E4.00000 F1800.000
G1 X119.049 Y103.171 E0.07044 F600.000
G1 X120.430 Y103.464 E0.07045
G1 X121.720 Y104.039 E0.07044
G1 X122.863 Y104.869 E0.07045
G1 X123.807 Y105.918 E0.07044
G1 X124.513 Y107.141 E0.07044
G1 X125.015 Y108.683 E0.08091
G1 X123.922 Y109.314 E0.06296
G1 X123.192 Y108.503 E0.05443
G1 X121.966 Y107.613 E0.07557
G1 X120.582 Y106.997 E0.07557
G1 X119.101 Y106.682 E0.07557
G1 X117.586 Y106.682 E0.07557
G1 X116.104 Y106.997 E0.07557
G1 X114.720 Y107.613 E0.07557
G1 X113.495 Y108.503 E0.07557
G1 X112.765 Y109.314 E0.05443
G1 X111.672 Y108.683 E0.06296
G1 X112.173 Y107.141 E0.08091
G1 X112.879 Y105.918 E0.07044
G1 X113.824 Y104.869 E0.07044
G1 X114.966 Y104.039 E0.07044
G1 X116.256 Y103.464 E0.07044
G1 X117.564 Y103.186 E0.06670
G1 X117.690 Y103.671 F3600.000
G1 X118.997 Y103.671 E0.06520 F600.000
G1 X120.190 Y103.925 E0.06089
G1 X120.275 Y103.943 E0.00431
G1 X121.469 Y104.474 E0.06520
G1 X122.526 Y105.242 E0.06520
G1 X123.401 Y106.214 E0.06520
G1 X124.054 Y107.345 E0.06520
G1 X124.414 Y108.453 E0.05808
G1 X124.022 Y108.679 E0.02256
G1 X123.528 Y108.130 E0.03686
G1 X122.218 Y107.177 E0.08082
G1 X120.738 Y106.519 E0.08082
G1 X119.153 Y106.182 E0.08082
G1 X117.533 Y106.182 E0.08082
G1 X115.949 Y106.519 E0.08082
G1 X114.469 Y107.177 E0.08082
G1 X113.158 Y108.130 E0.08082
G1 X112.664 Y108.679 E0.03686
G1 X112.273 Y108.453 E0.02256
G1 X112.632 Y107.345 E0.05808
G1 X113.286 Y106.214 E0.06520
G1 X114.160 Y105.242 E0.06520
G1 X115.218 Y104.474 E0.06520
G1 X116.411 Y103.943 E0.06520
G1 X117.616 Y103.686 E0.06146
G1 X117.909 Y103.221 F3600.000
G1 F1800.000 E-4.00000
G1 X121.136 Y109.711 F3600.000
G1 E4.00000 F1800.000
G1 X122.550 Y109.711 E0.07057 F600.000
G1 X123.462 Y110.373 E0.05619
G1 X123.695 Y110.543 E0.01438
G1 X124.132 Y111.888 E0.07057
G1 X123.695 Y113.233 E0.07057
G1 X122.550 Y114.065 E0.07057
G1 X121.136 Y114.065 E0.07057
G1 X119.992 Y113.233 E0.07057
G1 X119.555 Y111.888 E0.07057
G1 X119.992 Y110.543 E0.07057
G1 X121.075 Y109.755 E0.06682
G1 X121.298 Y110.211 F3600.000
G1 X122.388 Y110.211 E0.05436 F600.000
G1 X123.168 Y110.778 E0.04808
G1 X123.269 Y110.852 E0.00627
G1 X123.606 Y111.888 E0.05436
G1 X123.269 Y112.924 E0.05436
G1 X122.388 Y113.565 E0.05436
G1 X121.298 Y113.565 E0.05436
G1 X120.417 Y112.924 E0.05436
G1 X120.080 Y111.888 E0.05436
G1 X120.417 Y110.852 E0.05436
G1 X121.238 Y110.255 E0.05061
G1 X121.453 Y109.736 F3600.000
G1 X117.043 Y111.614 F3600.000
G1 X117.132 Y111.888 E0.01438 F600.000
G1 X116.695 Y113.233 E0.07057
G1 X115.550 Y114.065 E0.07057
G1 X114.136 Y114.065 E0.07057
G1 X112.992 Y113.233 E0.07057
G1 X112.555 Y111.888 E0.07057
G1 X112.992 Y110.543 E0.07057
G1 X114.136 Y109.711 E0.07057
G1 X115.550 Y109.711 E0.07057
G1 X116.695 Y110.543 E0.07057
G1 X117.020 Y111.543 E0.05245
G1 X116.567 Y111.768 F3600.000
G1 X116.606 Y111.888 E0.00627 F600.000
G1 X116.269 Y112.924 E0.05436
G1 X115.388 Y113.565 E0.05436
G1 X114.298 Y113.565 E0.05436
G1 X113.417 Y112.924 E0.05436
G1 X113.080 Y111.888 E0.05436
G1 X113.417 Y110.852 E0.05436
G1 X114.298 Y110.211 E0.05436
G1 X115.388 Y110.211 E0.05436
G1 X116.269 Y110.852 E0.05436
G1 X116.544 Y111.697 E0.04434
G1 X116.690 Y111.795 F3600.000
G1 X116.598 Y120.989 F3600.000
G1 X117.305 Y121.319 E0.03894 F600.000
G1 X117.684 Y122.002 E0.03894
G1 X117.588 Y122.777 E0.03894
G1 X117.056 Y123.347 E0.03894
G1 X116.290 Y123.496 E0.03894
G1 X115.583 Y123.166 E0.03894
G1 X115.204 Y122.484 E0.03894
G1 X115.299 Y121.709 E0.03894
G1 X115.832 Y121.138 E0.03894
G1 X116.524 Y121.004 E0.03520
G1 X116.939 Y120.624 F3600.000
G1 X116.662 Y120.468 F3600.000
G1 X115.577 Y120.679 E0.05515 F600.000
G1 X114.823 Y121.487 E0.05515
G1 X114.663 Y122.791 E0.06557
G1 X107.985 Y119.678 E0.36757
G1 X110.310 Y114.693 E0.27440
G1 X104.419 Y111.946 E0.32429
G1 X105.053 Y110.587 E0.07484
G1 X109.383 Y112.606 E0.23837
G1 X109.097 Y109.888 E0.13634
G1 X109.299 Y107.966 E0.09643
G1 X109.897 Y106.127 E0.09643
G1 X110.863 Y104.453 E0.09643
G1 X112.948 Y102.138 E0.15544
G1 X111.100 Y102.138 E0.09219
G1 X109.034 Y100.637 E0.12743
G1 X103.899 Y104.945 E0.33439
G1 X103.541 Y106.248 E0.06743
G1 X102.486 Y107.377 E0.07707
G1 X101.027 Y107.885 E0.07707
G1 X99.499 Y107.658 E0.07707
G1 X98.252 Y106.747 E0.07707
G1 X97.571 Y105.360 E0.07707
G1 X97.612 Y103.816 E0.07707
G1 X98.367 Y102.468 E0.07707
G1 X99.661 Y101.625 E0.07707
G1 X101.007 Y101.498 E0.06743
G1 X106.180 Y97.157 E0.33693
G1 X105.329 Y95.682 E0.08494
G1 X104.409 Y92.850 E0.14858
G1 X104.097 Y89.888 E0.14858
G1 X104.409 Y86.926 E0.14858
G1 X105.329 Y84.094 E0.14858
G1 X106.818 Y81.514 E0.14858
G1 X108.811 Y79.301 E0.14858
G1 X111.220 Y77.551 E0.14858
G1 X113.941 Y76.339 E0.14858
G1 X116.854 Y75.720 E0.14858
G1 X119.832 Y75.720 E0.14858
G1 X122.745 Y76.339 E0.14858
G1 X125.466 Y77.551 E0.14858
G1 X127.876 Y79.301 E0.14858
G1 X129.868 Y81.514 E0.14858
G1 X131.357 Y84.094 E0.14858
G1 X132.278 Y86.926 E0.14858
G1 X132.589 Y89.888 E0.14858
G1 X132.278 Y92.850 E0.14858
G1 X131.981 Y93.765 E0.04798
G1 X138.094 Y96.615 E0.33652
G1 X139.093 Y96.446 E0.05057
G1 X139.093 Y75.638 E1.03811
G1 X139.593 Y75.638 E0.02495
G1 X139.593 Y96.444 E1.03801
G1 X140.895 Y96.869 E0.06832
G1 X141.973 Y97.976 E0.07707
G1 X142.412 Y99.457 E0.07707
G1 X142.113 Y100.972 E0.07707
G1 X141.144 Y102.175 E0.07707
G1 X139.593 Y102.849 E0.08437
G1 X139.593 Y106.138 E0.16411
G1 X139.093 Y106.138 E0.02495
G1 X139.093 Y102.744 E0.16935
G1 X138.187 Y102.676 E0.04534
G1 X136.876 Y101.860 E0.07707
G1 X136.192 Y100.694 E0.06743
G1 X130.196 Y97.898 E0.33007
G1 X127.876 Y100.475 E0.17301
G1 X125.586 Y102.138 E0.14117
G1 X123.738 Y102.138 E0.09219
G1 X125.823 Y104.453 E0.15544
G1 X126.790 Y106.127 E0.09643
G1 X127.387 Y107.966 E0.09643
G1 X127.589 Y109.888 E0.09643
G1 X127.387 Y111.810 E0.09643
G1 X126.790 Y113.649 E0.09643
G1 X125.823 Y115.323 E0.09643
G1 X124.530 Y116.759 E0.09643
G1 X122.090 Y118.531 E0.15044
G1 X126.351 Y120.518 E0.23454
G1 X125.717 Y121.878 E0.07484
G1 X119.826 Y119.131 E0.32429
G1 X118.381 Y122.229 E0.17057
G1 X117.664 Y120.935 E0.07383
G1 X116.730 Y120.499 E0.05141
G1 X119.851 Y120.261 F3600.000
G1 X117.743 Y124.780 E0.24875 F420.000
G1 X107.321 Y119.920 E0.57374
G1 X109.645 Y114.935 E0.27440
G1 X103.754 Y112.188 E0.32429
G1 X104.811 Y109.922 E0.12473
G1 X108.793 Y111.779 E0.21923
G1 X108.595 Y109.888 E0.09487
G1 X108.808 Y107.861 E0.10168
G1 X109.437 Y105.923 E0.10168
G1 X110.456 Y104.158 E0.10168
G1 X111.825 Y102.638 E0.10204
G1 X110.938 Y102.638 E0.04427
G1 X109.056 Y101.271 E0.11604
G1 X104.340 Y105.228 E0.30713
G1 X103.990 Y106.500 E0.06581
G1 X102.767 Y107.808 E0.08937
G1 X101.075 Y108.398 E0.08937
G1 X99.304 Y108.135 E0.08937
G1 X97.857 Y107.078 E0.08937
G1 X97.068 Y105.470 E0.08937
G1 X97.116 Y103.679 E0.08937
G1 X97.991 Y102.116 E0.08937
G1 X99.492 Y101.138 E0.08937
G1 X100.805 Y101.015 E0.06581
G1 X105.537 Y97.043 E0.30823
G1 X104.870 Y95.887 E0.06663
G1 X103.917 Y92.954 E0.15383
G1 X103.595 Y89.888 E0.15383
G1 X103.917 Y86.822 E0.15383
G1 X104.870 Y83.889 E0.15383
G1 X106.411 Y81.219 E0.15383
G1 X108.474 Y78.928 E0.15383
G1 X110.969 Y77.115 E0.15383
G1 X113.672 Y75.912 E0.14763
G1 X113.786 Y75.861 E0.00620
G1 X116.802 Y75.220 E0.15383
G1 X119.885 Y75.220 E0.15383
G1 X122.901 Y75.861 E0.15383
G1 X125.718 Y77.115 E0.15383
G1 X128.212 Y78.928 E0.15383
G1 X130.275 Y81.219 E0.15383
G1 X131.817 Y83.889 E0.15383
G1 X132.770 Y86.822 E0.15383
G1 X133.092 Y89.888 E0.15383
G1 X132.770 Y92.954 E0.15383
G1 X132.593 Y93.498 E0.02854
G1 X138.164 Y96.096 E0.30667
G1 X138.593 Y96.023 E0.02173
G1 X138.593 Y75.138 E1.04198
G1 X140.093 Y75.138 E0.07484
G1 X140.093 Y96.081 E1.04486
G1 X141.167 Y96.432 E0.05637
G1 X142.417 Y97.715 E0.08937
G1 X142.927 Y99.432 E0.08937
G1 X142.580 Y101.190 E0.08937
G1 X141.457 Y102.585 E0.08937
G1 X140.093 Y103.177 E0.07415
G1 X140.093 Y106.638 E0.17268
G1 X138.593 Y106.638 E0.07484
G1 X138.593 Y103.208 E0.17113
G1 X138.027 Y103.166 E0.02833
G1 X136.507 Y102.219 E0.08937
G1 X135.839 Y101.081 E0.06581
G1 X130.320 Y98.507 E0.30383
G1 X128.212 Y100.848 E0.15717
G1 X125.749 Y102.638 E0.15190
G1 X124.861 Y102.638 E0.04427
G1 X126.230 Y104.158 E0.10204
G1 X127.249 Y105.923 E0.10168
G1 X127.879 Y107.861 E0.10168
G1 X128.092 Y109.888 E0.10168
G1 X127.879 Y111.915 E0.10168
G1 X127.249 Y113.853 E0.10168
G1 X126.230 Y115.618 E0.10168
G1 X124.866 Y117.133 E0.10168
G1 X123.071 Y118.437 E0.11071
G1 X127.015 Y120.276 E0.21713
G1 X125.959 Y122.542 E0.12473
G1 X120.068 Y119.795 E0.32429
G1 X119.882 Y120.193 E0.02190
G1 X119.353 Y120.305 F3600.000
G1 X123.266 Y117.196 F3600.000
G1 X117.341 Y111.270 E0.66942 F600.000
G1 X117.366 Y112.428 E0.09249
G1 X122.610 Y117.672 E0.59248
G1 X123.922 Y116.719 E0.12952
G1 X121.657 Y114.454 E0.25590
G1 X122.742 Y114.407 E0.08677
G1 X124.521 Y116.186 E0.20103
G1 X125.058 Y115.591 E0.06405
G1 X123.398 Y113.931 E0.18754
G1 X124.038 Y113.438 E0.06450
G1 X125.574 Y114.975 E0.17359
G1 X125.989 Y114.257 E0.06622
G1 X124.315 Y112.584 E0.18904
G1 X124.440 Y111.576 E0.08110
G1 X126.403 Y113.539 E0.22177
G1 X126.690 Y112.694 E0.07130
G1 X125.317 Y111.320 E0.15518
G1 X126.968 Y111.839 E0.13827
G1 X124.537 Y109.409 E0.27462
G1 X125.255 Y108.994 E0.06622
G1 X127.098 Y110.837 E0.20818
G1 X127.187 Y109.794 E0.08358
G1 X125.110 Y107.717 E0.23467
G1 X123.068 Y109.072 F3600.000
G1 X122.422 Y108.425 E0.07303 F600.000
G1 X121.936 Y109.072 E0.06460
G1 X120.172 Y107.308 E0.19929
G1 X118.803 Y107.071 E0.11096
G1 X120.856 Y109.124 E0.23193
G1 X120.200 Y109.601 E0.06476
G1 X117.671 Y107.071 E0.28575
G1 X116.729 Y107.262 E0.07674
G1 X119.544 Y110.077 E0.31803
G1 X119.409 Y111.074 E0.08039
G1 X115.865 Y107.530 E0.40046
G1 X115.081 Y107.879 E0.06851
G1 X119.171 Y111.968 E0.46206
G1 X115.392 Y109.322 F3600.000
G1 X114.399 Y108.328 E0.11225 F600.000
G1 X113.743 Y108.805 E0.06476
G1 X114.010 Y109.072 E0.03018
G1 X111.352 Y110.943 F3600.000
G1 X109.566 Y109.157 E0.20182 F600.000
G1 X109.674 Y108.132 E0.08230
G1 X112.008 Y110.467 E0.26374
G1 X112.298 Y109.624 E0.07118
G1 X109.937 Y107.264 E0.26669
G1 X110.215 Y106.409 E0.07178
G1 X111.563 Y107.757 E0.15232
G1 X111.853 Y106.915 E0.07115
G1 X110.610 Y105.672 E0.14051
G1 X111.024 Y104.954 E0.06622
G1 X112.268 Y106.197 E0.14051
G1 X112.718 Y105.515 E0.06530
G1 X111.515 Y104.312 E0.13590
G1 X112.051 Y103.716 E0.06405
G1 X113.254 Y104.919 E0.13590
G1 X113.841 Y104.374 E0.06401
G1 X112.588 Y103.120 E0.14166
G1 X113.124 Y102.525 E0.06405
G1 X114.497 Y103.898 E0.15514
G1 X115.228 Y103.496 E0.06660
G1 X104.932 Y93.201 E1.16314
G1 X104.693 Y91.829 E0.11121
G1 X116.011 Y103.147 E1.27867
G1 X116.921 Y102.925 E0.07483
G1 X104.560 Y90.564 E1.39651
G1 X104.539 Y89.411 E0.09214
G1 X117.910 Y102.781 E1.51057
G1 X119.042 Y102.781 E0.09045
G1 X104.647 Y88.386 E1.62633
G1 X104.755 Y87.362 E0.08230
G1 X120.467 Y103.074 E1.77514
G1 X123.045 Y104.519 F3600.000
G1 X118.504 Y99.979 E0.51300 F600.000
G1 X119.378 Y99.720 E0.07281
G1 X126.667 Y107.009 E0.82345
G1 X127.055 Y108.529 E0.12534
G1 X123.323 Y104.797 E0.42162
G1 X125.551 Y104.761 E0.17806
G1 X120.034 Y99.244 E0.62335
G1 X120.362 Y98.440 E0.06937
G1 X123.670 Y101.748 E0.37377
G1 X124.803 Y101.748 E0.09045
G1 X120.349 Y97.294 E0.50323
G1 X118.852 Y95.797 F3600.000
G1 X118.033 Y94.979 E0.09249 F600.000
G1 X117.719 Y95.797 E0.07004
G1 X105.866 Y83.943 E1.33923
G1 X106.280 Y83.226 E0.06622
