; generated by Slic3r 1.0.0RC2 on 2014-06-08 at 18:08:50

; layer_height = 0.24
; perimeters = 2
; top_solid_layers = 4
; bottom_solid_layers = 3
; fill_density = 0.3
; perimeter_speed = 20
; infill_speed = 20
; travel_speed = 60
; nozzle_diameter = 0.5
; filament_diameter = 1.75
; extrusion_multiplier = 1
; perimeters extrusion width = 0.50mm
; infill extrusion width = 0.87mm
; solid infill extrusion width = 0.85mm
; top infill extrusion width = 0.85mm

G21 ; set units to millimeters
G90 ; use absolute coordinates
M83 ; use relative distances for extrusion
M140 S65; Set bed temperature
G28 ; Home all axes
G1 Z5 F200 ; lift nozzle
G1 X2 Y50 F2000; Go to wait for warm position
M116; Wait for all temperatures
G10 P1 S185 R0 ; Set extruder temperature
T0; Select extruder
M116; Wait for all temperatures
G1 F1800.000 E-4.00000
G1 Z0.240 F3600.000
G1 X100.357 Y87.431 F3600.000
G1 E4.00000 F1800.000
G1 X100.987 Y86.751 E0.04625 F600.000
G1 X101.407 Y86.341 E0.02928
G1 X102.317 Y85.521 E0.06111
G1 X102.737 Y85.181 E0.02696
G1 X103.697 Y84.451 E0.06017
G1 X104.197 Y84.101 E0.03045
G1 X105.197 Y83.481 E0.05870
G1 X105.747 Y83.181 E0.03126
G1 X107.317 Y82.421 E0.08702
G1 X108.397 Y82.001 E0.05781
G1 X109.057 Y81.791 E0.03455
G1 X110.167 Y81.491 E0.05737
G1 X110.737 Y81.361 E0.02917
G1 X111.867 Y81.161 E0.05725
G1 X112.537 Y81.081 E0.03366
G1 X113.677 Y81.001 E0.05701
G1 X114.137 Y80.981 E0.02297
G1 X115.417 Y81.001 E0.06387
G1 X116.027 Y81.041 E0.03050
G1 X117.197 Y81.171 E0.05873
G1 X117.837 Y81.271 E0.03232
G1 X119.007 Y81.521 E0.05969
G1 X119.507 Y81.651 E0.02577
G1 X120.847 Y82.071 E0.07006
G1 X122.127 Y82.581 E0.06874
G1 X123.307 Y83.131 E0.06495
G1 X123.867 Y83.421 E0.03146
G1 X124.967 Y84.071 E0.06374
G1 X125.397 Y84.351 E0.02560
G1 X148.337 Y100.471 E1.39879
G1 X149.487 Y101.511 E0.07736
G1 X150.367 Y102.791 E0.07750
G1 X150.907 Y104.251 E0.07766
G1 X151.097 Y105.791 E0.07741
G1 X151.097 Y112.511 E0.33526
G1 X150.977 Y113.781 E0.06364
G1 X150.607 Y115.001 E0.06360
G1 X149.997 Y116.121 E0.06363
G1 X149.197 Y117.111 E0.06350
G1 X148.207 Y117.911 E0.06350
G1 X147.087 Y118.521 E0.06363
G1 X145.867 Y118.891 E0.06360
G1 X144.597 Y119.011 E0.06364
G1 X114.597 Y119.011 E1.49671
G1 X113.107 Y118.951 E0.07440
G1 X112.447 Y118.891 E0.03306
G1 X110.687 Y118.621 E0.08883
G1 X109.537 Y118.351 E0.05893
G1 X108.967 Y118.191 E0.02954
G1 X107.857 Y117.821 E0.05837
G1 X107.257 Y117.581 E0.03224
G1 X106.207 Y117.111 E0.05739
G1 X105.647 Y116.831 E0.03124
G1 X104.647 Y116.261 E0.05743
G1 X104.127 Y115.931 E0.03073
G1 X103.187 Y115.271 E0.05730
G1 X102.707 Y114.901 E0.03024
G1 X101.827 Y114.151 E0.05769
G1 X101.337 Y113.681 E0.03387
G1 X100.537 Y112.841 E0.05787
G1 X100.157 Y112.401 E0.02901
G1 X99.427 Y111.481 E0.05859
G1 X99.067 Y110.981 E0.03074
G1 X98.417 Y109.981 E0.05950
G1 X98.167 Y109.571 E0.02396
G1 X97.727 Y108.771 E0.04555
G1 X97.507 Y108.321 E0.02499
G1 X97.127 Y107.481 E0.04600
G1 X96.937 Y107.011 E0.02529
G1 X96.517 Y105.851 E0.06155
G1 X96.337 Y105.271 E0.03030
G1 X96.037 Y104.111 E0.05978
G1 X95.907 Y103.521 E0.03014
G1 X95.717 Y102.351 E0.05914
G1 X95.657 Y101.751 E0.03008
G1 X95.577 Y100.581 E0.05851
G1 X95.557 Y99.971 E0.03045
G1 X95.587 Y98.811 E0.05789
G1 X95.637 Y98.181 E0.03153
G1 X95.777 Y97.051 E0.05681
G1 X95.897 Y96.381 E0.03396
G1 X96.157 Y95.261 E0.05736
G1 X96.297 Y94.761 E0.02590
G1 X96.647 Y93.661 E0.05759
G1 X96.897 Y93.001 E0.03521
G1 X97.617 Y91.421 E0.08663
G1 X98.187 Y90.391 E0.05873
G1 X98.537 Y89.831 E0.03295
G1 X99.487 Y88.491 E0.08195
G1 X100.308 Y87.488 E0.06467
G1 F1800.000 E-4.00000
G1 X105.698 Y92.350 F3600.000
G1 E4.00000 F1800.000
G1 X106.292 Y91.714 E0.04339 F600.000
G1 X107.152 Y90.928 E0.05816
G1 X108.057 Y90.243 E0.05659
G1 X109.002 Y89.657 E0.05550
G1 X109.984 Y89.171 E0.05467
G1 X110.997 Y88.784 E0.05410
G1 X112.036 Y88.498 E0.05378
G1 X113.097 Y88.313 E0.05372
G1 X114.175 Y88.231 E0.05391
G1 X115.264 Y88.253 E0.05435
G1 X116.360 Y88.379 E0.05505
G1 X117.463 Y88.613 E0.05623
G1 X118.281 Y88.857 E0.04259
G1 X119.094 Y89.162 E0.04334
G1 X120.211 Y89.689 E0.06163
G1 X121.242 Y90.304 E0.05987
G1 X122.187 Y91.004 E0.05868
G1 X123.044 Y91.784 E0.05780
G1 X123.810 Y92.637 E0.05723
G1 X124.483 Y93.560 E0.05696
G1 X125.057 Y94.547 E0.05699
G1 X125.532 Y95.594 E0.05732
G1 X125.902 Y96.695 E0.05796
G1 X126.163 Y97.841 E0.05863
G1 X126.499 Y100.770 E0.14710
G1 X126.782 Y101.989 E0.06245
G1 X127.111 Y102.973 E0.05175
G1 X127.436 Y103.702 E0.03982
G1 X127.832 Y104.387 E0.03947
G1 X128.153 Y104.827 E0.02717
G1 X128.514 Y105.231 E0.02703
G1 X128.922 Y105.597 E0.02736
G1 X129.379 Y105.917 E0.02784
G1 X129.887 Y106.180 E0.02851
G1 X130.442 Y106.377 E0.02939
G1 X131.041 Y106.502 E0.03054
G1 X131.663 Y106.549 E0.03110
G1 X143.853 Y106.549 E0.60816
G1 X143.853 Y111.769 E0.26047
G1 X114.620 Y111.769 E1.45844
G1 X113.442 Y111.716 E0.05879
G1 X112.319 Y111.561 E0.05659
G1 X111.236 Y111.307 E0.05550
G1 X110.197 Y110.957 E0.05467
G1 X109.208 Y110.514 E0.05410
G1 X108.270 Y109.981 E0.05379
G1 X107.390 Y109.361 E0.05372
G1 X106.570 Y108.657 E0.05391
G1 X105.815 Y107.872 E0.05435
G1 X105.129 Y107.007 E0.05505
G1 X104.515 Y106.062 E0.05623
G1 X104.109 Y105.311 E0.04259
G1 X103.749 Y104.520 E0.04339
G1 X103.352 Y103.424 E0.05816
G1 X103.066 Y102.326 E0.05659
G1 X102.886 Y101.228 E0.05550
G1 X102.812 Y100.135 E0.05467
G1 X102.843 Y99.051 E0.05410
G1 X102.976 Y97.981 E0.05379
G1 X103.212 Y96.930 E0.05372
G1 X103.548 Y95.904 E0.05391
G1 X103.985 Y94.905 E0.05435
G1 X104.521 Y93.941 E0.05505
G1 X105.159 Y93.012 E0.05623
G1 X105.650 Y92.408 E0.03885
G1 X105.321 Y92.021 F3600.000
G1 X105.940 Y91.358 E0.04524 F420.000
G1 X106.832 Y90.543 E0.06029
G1 X107.773 Y89.831 E0.05891
G1 X108.759 Y89.220 E0.05785
G1 X109.783 Y88.712 E0.05705
G1 X110.841 Y88.308 E0.05649
G1 X111.927 Y88.009 E0.05618
G1 X113.035 Y87.817 E0.05612
G1 X114.161 Y87.731 E0.05631
G1 X115.298 Y87.753 E0.05674
G1 X116.441 Y87.885 E0.05742
G1 X117.586 Y88.128 E0.05842
G1 X118.440 Y88.383 E0.04446
G1 X119.289 Y88.701 E0.04522
G1 X120.447 Y89.247 E0.06387
G1 X121.519 Y89.888 E0.06233
G1 X122.505 Y90.617 E0.06117
G1 X123.399 Y91.431 E0.06032
G1 X124.199 Y92.322 E0.05976
G1 X124.902 Y93.286 E0.05950
G1 X125.502 Y94.318 E0.05953
G1 X125.998 Y95.410 E0.05986
G1 X126.384 Y96.559 E0.06047
G1 X126.657 Y97.757 E0.06130
G1 X126.992 Y100.685 E0.14701
G1 X127.264 Y101.853 E0.05985
G1 X127.577 Y102.792 E0.04936
G1 X127.882 Y103.474 E0.03729
G1 X128.252 Y104.113 E0.03684
G1 X128.542 Y104.512 E0.02462
G1 X128.868 Y104.877 E0.02442
G1 X129.233 Y105.205 E0.02446
G1 X129.639 Y105.488 E0.02468
G1 X130.087 Y105.720 E0.02517
G1 X130.577 Y105.895 E0.02599
G1 X131.111 Y106.006 E0.02719
G1 X131.681 Y106.049 E0.02854
G1 X144.353 Y106.049 E0.63218
G1 X144.353 Y112.269 E0.31036
G1 X114.608 Y112.269 E1.48395
G1 X113.397 Y112.215 E0.06050
G1 X112.227 Y112.053 E0.05891
G1 X111.098 Y111.788 E0.05785
G1 X110.015 Y111.423 E0.05704
G1 X108.981 Y110.960 E0.05649
G1 X108.002 Y110.404 E0.05619
G1 X107.082 Y109.756 E0.05612
G1 X106.226 Y109.021 E0.05631
G1 X105.438 Y108.201 E0.05674
G1 X104.723 Y107.300 E0.05741
G1 X104.085 Y106.318 E0.05842
G1 X103.661 Y105.534 E0.04446
G1 X103.286 Y104.708 E0.04523
G1 X102.874 Y103.572 E0.06029
G1 X102.576 Y102.430 E0.05891
G1 X102.389 Y101.286 E0.05785
G1 X102.312 Y100.145 E0.05705
G1 X102.344 Y99.013 E0.05649
G1 X102.483 Y97.895 E0.05618
G1 X102.729 Y96.798 E0.05612
G1 X103.080 Y95.725 E0.05631
G1 X103.536 Y94.683 E0.05674
G1 X104.096 Y93.678 E0.05741
G1 X104.758 Y92.712 E0.05842
G1 X105.273 Y92.079 E0.04072
G1 X105.810 Y92.123 F3600.000
G1 X117.401 Y89.000 F3600.000
G1 X125.623 Y97.223 E0.94287 F600.000
G1 X125.859 Y98.608 E0.11396
G1 X115.978 Y88.727 E1.13314
G1 X114.733 Y88.631 E0.10121
G1 X126.008 Y99.906 E1.29292
G1 X126.213 Y101.261 E0.11107
G1 X113.616 Y88.664 E1.44450
G1 X112.598 Y88.795 E0.08324
G1 X126.662 Y102.859 E1.61272
G1 X125.073 Y95.523 F3600.000
G1 X119.185 Y89.635 E0.67518 F600.000
G1 X122.649 Y91.950 F3600.000
G1 X122.863 Y92.164 E0.02455 F600.000
G1 X104.166 Y104.496 F3600.000
G1 X110.202 Y110.532 E0.69215 F600.000
G1 X111.876 Y111.057 E0.14228
G1 X103.582 Y102.763 E0.95114
G1 X103.297 Y101.329 E0.11858
G1 X113.267 Y111.299 E1.14333
G1 X114.491 Y111.374 E0.09945
G1 X103.203 Y100.086 E1.29447
G1 X103.244 Y98.977 E0.08992
G1 X115.647 Y111.380 E1.42226
G1 X116.796 Y111.380 E0.09318
G1 X103.379 Y97.963 E1.53856
G1 X103.590 Y97.025 E0.07797
G1 X117.945 Y111.380 E1.64614
G1 X119.095 Y111.380 E0.09318
G1 X103.874 Y96.159 E1.74539
G1 X104.214 Y95.351 E0.07114
G1 X120.244 Y111.380 E1.83809
G1 X121.393 Y111.380 E0.09318
G1 X104.604 Y94.592 E1.92516
G1 X105.038 Y93.876 E0.06785
G1 X122.542 Y111.380 E2.00724
G1 X123.691 Y111.380 E0.09318
G1 X105.509 Y93.198 E2.08497
G1 X106.037 Y92.577 E0.06611
G1 X124.841 Y111.380 E2.15621
G1 X125.990 Y111.380 E0.09318
G1 X106.612 Y92.002 E2.22210
G1 X107.186 Y91.428 E0.06589
G1 X127.139 Y111.380 E2.28799
G1 X128.288 Y111.380 E0.09318
G1 X107.819 Y90.911 E2.34722
G1 X108.490 Y90.432 E0.06680
G1 X129.438 Y111.380 E2.40211
G1 X130.587 Y111.380 E0.09318
G1 X109.200 Y89.993 E2.45245
G1 X109.968 Y89.613 E0.06954
G1 X131.736 Y111.380 E2.49612
G1 X132.885 Y111.380 E0.09318
G1 X110.786 Y89.281 E2.53415
G1 X111.659 Y89.005 E0.07427
G1 X134.035 Y111.380 E2.56578
G1 X135.184 Y111.380 E0.09318
G1 X130.614 Y106.811 E0.52399
G1 X131.890 Y106.938 E0.10397
G1 X136.333 Y111.380 E0.50946
G1 X137.482 Y111.380 E0.09318
G1 X133.039 Y106.938 E0.50946
G1 X134.189 Y106.938 E0.09318
G1 X138.631 Y111.380 E0.50946
G1 X139.781 Y111.380 E0.09318
G1 X135.338 Y106.938 E0.50946
G1 X136.487 Y106.938 E0.09318
G1 X140.930 Y111.380 E0.50946
G1 X142.079 Y111.380 E0.09318
G1 X137.636 Y106.938 E0.50946
G1 X138.786 Y106.938 E0.09318
G1 X143.228 Y111.380 E0.50946
G1 X143.464 Y110.466 E0.07652
G1 X139.935 Y106.938 E0.40466
G1 X141.084 Y106.938 E0.09318
G1 X143.464 Y109.317 E0.27288
G1 X143.464 Y108.168 E0.09318
G1 X142.233 Y106.938 E0.14110
G1 X143.382 Y106.938 E0.09318
G1 X143.464 Y107.019 E0.00932
G1 X107.243 Y108.723 F3600.000
G1 X106.001 Y107.480 E0.14252 F600.000
G1 F1800.000 E-4.00000
G1 Z0.480 F3600.000
G1 X105.815 Y107.872 F3600.000
G1 E4.00000 F1800.000
G1 X105.129 Y107.007 E0.05505 F1200
G1 X104.515 Y106.062 E0.05623
G1 X104.109 Y105.311 E0.04259
G1 X103.749 Y104.520 E0.04339
G1 X103.352 Y103.424 E0.05816
G1 X103.066 Y102.326 E0.05659
G1 X102.886 Y101.228 E0.05550
G1 X102.812 Y100.135 E0.05467
G1 X102.843 Y99.051 E0.05411
G1 X102.976 Y97.981 E0.05378
G1 X103.212 Y96.930 E0.05372
G1 X103.548 Y95.904 E0.05391
G1 X103.985 Y94.905 E0.05435
G1 X104.521 Y93.941 E0.05505
G1 X105.159 Y93.012 E0.05623
G1 X105.698 Y92.350 E0.04259
G1 X106.292 Y91.714 E0.04339
G1 X107.152 Y90.928 E0.05816
G1 X108.057 Y90.243 E0.05659
G1 X109.002 Y89.657 E0.05550
G1 X109.984 Y89.171 E0.05467
G1 X110.997 Y88.784 E0.05410
G1 X112.036 Y88.498 E0.05378
G1 X113.097 Y88.313 E0.05372
G1 X114.175 Y88.231 E0.05391
G1 X115.264 Y88.253 E0.05436
G1 X116.360 Y88.379 E0.05505
G1 X117.463 Y88.613 E0.05623
G1 X118.281 Y88.857 E0.04259
G1 X119.094 Y89.162 E0.04334
G1 X120.211 Y89.689 E0.06163
G1 X121.242 Y90.304 E0.05987
G1 X122.187 Y91.004 E0.05868
G1 X123.044 Y91.784 E0.05780
G1 X123.810 Y92.637 E0.05723
G1 X124.483 Y93.560 E0.05696
G1 X125.057 Y94.547 E0.05699
G1 X125.532 Y95.594 E0.05732
G1 X125.902 Y96.695 E0.05796
G1 X126.163 Y97.841 E0.05863
G1 X126.499 Y100.770 E0.14710
G1 X126.782 Y101.989 E0.06245
G1 X127.111 Y102.973 E0.05175
G1 X127.436 Y103.702 E0.03981
G1 X127.832 Y104.387 E0.03948
G1 X128.153 Y104.827 E0.02717
G1 X128.514 Y105.231 E0.02703
G1 X128.922 Y105.597 E0.02736
G1 X129.379 Y105.917 E0.02784
G1 X129.887 Y106.180 E0.02851
G1 X130.442 Y106.377 E0.02939
G1 X131.041 Y106.502 E0.03054
G1 X131.663 Y106.549 E0.03111
G1 X143.853 Y106.549 E0.60815
G1 X143.853 Y111.769 E0.26047
G1 X114.620 Y111.769 E1.45844
G1 X113.442 Y111.716 E0.05879
G1 X112.319 Y111.561 E0.05659
G1 X111.236 Y111.307 E0.05550
G1 X110.197 Y110.957 E0.05467
G1 X109.208 Y110.514 E0.05410
G1 X108.270 Y109.981 E0.05379
G1 X107.390 Y109.361 E0.05372
G1 X106.570 Y108.657 E0.05391
G1 X105.867 Y107.926 E0.05061
G1 X105.438 Y108.201 F3600.000
G1 X104.723 Y107.300 E0.05741 F840
G1 X104.085 Y106.318 E0.05842
G1 X103.661 Y105.534 E0.04446
G1 X103.286 Y104.708 E0.04524
G1 X102.874 Y103.572 E0.06029
G1 X102.576 Y102.430 E0.05891
G1 X102.389 Y101.286 E0.05785
G1 X102.313 Y100.120 E0.05827
G1 X102.344 Y99.013 E0.05526
G1 X102.483 Y97.895 E0.05619
G1 X102.729 Y96.798 E0.05612
G1 X103.080 Y95.725 E0.05631
G1 X103.536 Y94.683 E0.05674
G1 X104.096 Y93.678 E0.05741
G1 X104.758 Y92.712 E0.05842
G1 X105.321 Y92.021 E0.04446
G1 X105.940 Y91.358 E0.04524
G1 X106.832 Y90.543 E0.06029
G1 X107.773 Y89.831 E0.05891
G1 X108.759 Y89.220 E0.05785
G1 X109.783 Y88.712 E0.05705
G1 X110.841 Y88.308 E0.05649
G1 X111.927 Y88.009 E0.05618
G1 X113.035 Y87.817 E0.05612
G1 X114.161 Y87.731 E0.05631
G1 X115.298 Y87.753 E0.05674
G1 X116.441 Y87.885 E0.05741
G1 X117.586 Y88.128 E0.05842
G1 X118.440 Y88.383 E0.04446
G1 X119.289 Y88.701 E0.04522
G1 X120.447 Y89.247 E0.06387
G1 X121.519 Y89.888 E0.06233
G1 X122.505 Y90.617 E0.06117
G1 X123.399 Y91.431 E0.06032
G1 X124.199 Y92.322 E0.05976
G1 X124.902 Y93.286 E0.05950
G1 X125.502 Y94.318 E0.05953
G1 X125.998 Y95.410 E0.05986
G1 X126.384 Y96.559 E0.06047
G1 X126.657 Y97.757 E0.06130
G1 X126.992 Y100.685 E0.14701
G1 X127.264 Y101.853 E0.05986
G1 X127.577 Y102.792 E0.04936
G1 X127.882 Y103.474 E0.03728
G1 X128.252 Y104.113 E0.03685
G1 X128.542 Y104.512 E0.02462
G1 X128.868 Y104.877 E0.02442
G1 X129.233 Y105.205 E0.02446
G1 X129.639 Y105.488 E0.02468
G1 X130.087 Y105.720 E0.02517
G1 X130.577 Y105.895 E0.02598
G1 X131.111 Y106.006 E0.02719
G1 X131.681 Y106.049 E0.02854
G1 X144.353 Y106.049 E0.63218
G1 X144.353 Y112.269 E0.31036
G1 X114.608 Y112.269 E1.48395
G1 X113.397 Y112.215 E0.06050
G1 X112.227 Y112.053 E0.05891
G1 X111.098 Y111.788 E0.05785
G1 X110.015 Y111.423 E0.05705
G1 X108.981 Y110.960 E0.05649
G1 X108.002 Y110.404 E0.05619
G1 X107.082 Y109.756 E0.05612
G1 X106.226 Y109.021 E0.05631
G1 X105.490 Y108.255 E0.05300
G1 X105.607 Y107.731 F3600.000
G1 X104.064 Y95.696 F3600.000
G1 X110.289 Y89.471 E0.71181 F1200
G1 X111.992 Y88.914 E0.14486
G1 X103.505 Y97.401 E0.97039
G1 X103.268 Y98.783 E0.11341
G1 X113.369 Y88.683 E1.15487
G1 X114.569 Y88.628 E0.09716
G1 X103.206 Y99.992 E1.29930
G1 X103.266 Y101.077 E0.08790
G1 X115.654 Y88.689 E1.41642
G1 X116.651 Y88.839 E0.08148
G1 X103.418 Y102.071 E1.51297
G1 X103.642 Y102.993 E0.07671
G1 X117.581 Y89.054 E1.59373
G1 X118.446 Y89.335 E0.07355
G1 X103.923 Y103.858 E1.66050
G1 X104.249 Y104.678 E0.07136
G1 X119.257 Y89.670 E1.71606
G1 X120.036 Y90.037 E0.06958
G1 X104.625 Y105.448 E1.76200
G1 X105.049 Y106.170 E0.06769
G1 X120.753 Y90.466 E1.79559
G1 X121.434 Y90.931 E0.06666
G1 X105.507 Y106.858 E1.82104
G1 X106.015 Y107.495 E0.06592
G1 X122.079 Y91.432 E1.83664
G1 X122.679 Y91.978 E0.06558
G1 X106.588 Y108.068 E1.83975
G1 X107.161 Y108.641 E0.06551
G1 X123.230 Y92.573 E1.83720
G1 X123.743 Y93.205 E0.06586
G1 X107.785 Y109.163 E1.82460
G1 X108.457 Y109.637 E0.06649
G1 X124.217 Y93.877 E1.80190
G1 X124.639 Y94.601 E0.06775
G1 X109.186 Y110.054 E1.76680
G1 X109.961 Y110.425 E0.06947
G1 X125.007 Y95.379 E1.72030
G1 X125.327 Y96.205 E0.07163
G1 X110.787 Y110.745 E1.66243
G1 X111.669 Y111.009 E0.07443
G1 X125.592 Y97.086 E1.59191
G1 X125.793 Y98.030 E0.07809
G1 X112.615 Y111.209 E1.50680
G1 X113.634 Y111.335 E0.08307
G1 X125.911 Y99.059 E1.40369
G1 X126.029 Y100.087 E0.08366
G1 X114.735 Y111.380 E1.29130
G1 X115.881 Y111.380 E0.09264
G1 X126.173 Y101.088 E1.17679
G1 X126.389 Y102.018 E0.07719
G1 X117.027 Y111.380 E1.07045
G1 X118.173 Y111.380 E0.09264
G1 X126.670 Y102.883 E0.97157
G1 X127.006 Y103.693 E0.07091
G1 X119.319 Y111.380 E0.87891
G1 X120.465 Y111.380 E0.09264
G1 X127.410 Y104.435 E0.79414
G1 X127.883 Y105.108 E0.06651
G1 X121.611 Y111.380 E0.71714
G1 X122.756 Y111.380 E0.09264
G1 X128.445 Y105.692 E0.65040
G1 X129.092 Y106.191 E0.06606
G1 X123.902 Y111.380 E0.59337
G1 X125.048 Y111.380 E0.09264
G1 X129.849 Y106.579 E0.54891
