; generated by Slic3r 1.1.7 on 2015-01-30 at 14:07:33

; perimeters extrusion width = 0.40mm
; infill extrusion width = 0.53mm
; solid infill extrusion width = 0.53mm
; top infill extrusion width = 0.53mm

G21 ; set units to millimeters
M107
M104 S195 ; set temperature
; layer_height = 0.25
G21 ; set units to millimeters
G90 ; use absolute coordinates
M83 ; use relative distances for extrusion
G1 Z10 F500 ; lift nozzle
G1 X-85 Y0 F4000; Go to wait for warm position
T0
M116; Wait for all temperatures
G1 E4 F500
M109 S195 ; wait for temperature to be reached
G90 ; use absolute coordinates
M83 ; use relative distances for extrusion
G1 F2700.000 E-4.00000
G1 Z0.250 F6000.000
G1 X-24.680 Y-8.019 F6000.000
G1 E4.00000 F2700.000
G1 X-21.458 Y-17.935 E0.43346 F1500.000
G1 X-20.148 Y-20.678 E0.12638
G1 X-18.170 Y-22.986 E0.12638
G1 X-15.661 Y-24.701 E0.12638
G1 X-12.792 Y-25.706 E0.12638
G1 X-10.426 Y-25.950 E0.09890
G1 X10.426 Y-25.950 E0.86692
G1 X13.439 Y-25.552 E0.12638
G1 X16.246 Y-24.384 E0.12638 F1500.000
G1 X18.653 Y-22.528 E0.12638
G1 X20.495 Y-20.110 E0.12638
G1 X21.458 Y-17.935 E0.09890
G1 X27.902 Y1.898 E0.86697
G1 X28.454 Y4.887 E0.12638
G1 X28.211 Y7.917 E0.12638
G1 X27.189 Y10.780 E0.12638
G1 X25.458 Y13.279 E0.12638
G1 X23.688 Y14.866 E0.09885
G1 X6.818 Y27.123 E0.86695
G1 X4.145 Y28.572 E0.12638
G1 X1.189 Y29.277 E0.12638
G1 X-1.850 Y29.189 E0.12638
G1 X-4.761 Y28.315 E0.12638
G1 X-6.818 Y27.122 E0.09886
G1 X-23.688 Y14.866 E0.86692
G1 X-25.892 Y12.772 E0.12638
G1 X-27.476 Y10.178 E0.12638
G1 X-28.332 Y7.261 E0.12638
G1 X-28.401 Y4.222 E0.12638
G1 X-27.902 Y1.897 E0.09890
G1 X-24.698 Y-7.962 E0.43096
G1 X-24.318 Y-7.838 F6000.000
G1 X-21.078 Y-17.811 E0.43595 F1500.000
G1 X-19.784 Y-20.503 E0.12417
G1 X-17.825 Y-22.758 E0.12417
G1 X-15.340 Y-24.414 E0.12417
G1 X-12.506 Y-25.355 E0.12417
G1 X-10.426 Y-25.550 E0.08685
G1 X10.426 Y-25.550 E0.86692
G1 X13.386 Y-25.152 E0.12417
G1 X16.135 Y-23.985 E0.12417 F1500.000
G1 X18.479 Y-22.134 E0.12417
G1 X20.250 Y-19.729 E0.12417
G1 X21.078 Y-17.811 E0.08685
G1 X27.522 Y2.021 E0.86697
G1 X28.057 Y4.960 E0.12417
G1 X27.797 Y7.935 E0.12417
G1 X26.760 Y10.736 E0.12417
G1 X25.020 Y13.163 E0.12417
G1 X23.453 Y14.542 E0.08680
G1 X6.583 Y26.799 E0.86695
G1 X3.954 Y28.217 E0.12417
G1 X1.044 Y28.889 E0.12417
G1 X-1.940 Y28.768 E0.12417
G1 X-4.787 Y27.863 E0.12417
G1 X-6.583 Y26.799 E0.08682
G1 X-23.453 Y14.542 E0.86692
G1 X-25.613 Y12.480 E0.12417
G1 X-27.152 Y9.921 E0.12417
G1 X-27.960 Y7.045 E0.12417
G1 X-27.979 Y4.059 E0.12417
G1 X-27.521 Y2.020 E0.08685
G1 X-24.337 Y-7.781 E0.42847
G1 X-23.956 Y-7.658 F6000.000
G1 X-20.697 Y-17.687 E0.43845 F1500.000
G1 X-19.421 Y-20.328 E0.12192
G1 X-17.481 Y-22.527 E0.12192
G1 X-15.021 Y-24.124 E0.12192
G1 X-12.223 Y-25.000 E0.12192
G1 X-10.426 Y-25.150 E0.07496
G1 X10.426 Y-25.150 E0.86692
G1 X13.331 Y-24.752 E0.12192
G1 X16.023 Y-23.587 E0.12192 F1500.000
G1 X18.301 Y-21.741 E0.12192
G1 X19.999 Y-19.350 E0.12192
G1 X20.697 Y-17.687 E0.07496
G1 X27.141 Y2.145 E0.86696
G1 X27.660 Y5.031 E0.12192
G1 X27.383 Y7.951 E0.12192
G1 X26.331 Y10.688 E0.12192
G1 X24.582 Y13.042 E0.12192
G1 X23.218 Y14.219 E0.07491
G1 X6.347 Y26.475 E0.86695
G1 X3.763 Y27.861 E0.12192
G1 X0.901 Y28.500 E0.12192
G1 X-2.028 Y28.345 E0.12192
G1 X-4.807 Y27.409 E0.12192
G1 X-6.348 Y26.475 E0.07493
G1 X-23.218 Y14.219 E0.86692
G1 X-25.334 Y12.189 E0.12192
G1 X-26.826 Y9.664 E0.12192
G1 X-27.585 Y6.831 E0.12192
G1 X-27.553 Y3.899 E0.12192
G1 X-27.141 Y2.144 E0.07496
G1 X-23.975 Y-7.601 E0.42597
G1 X-23.594 Y-7.477 F6000.000
G1 X-20.317 Y-17.564 E0.44094 F1500.000
G1 X-19.058 Y-20.151 E0.11963
G1 X-17.138 Y-22.294 E0.11963
G1 X-14.704 Y-23.829 E0.11963
G1 X-11.942 Y-24.639 E0.11963
G1 X-10.426 Y-24.750 E0.06322
G1 X10.426 Y-24.750 E0.86692
G1 X13.276 Y-24.352 E0.11963
G1 X15.907 Y-23.188 E0.11963 F1500.000
G1 X18.119 Y-21.348 E0.11963
G1 X19.742 Y-18.972 E0.11963
G1 X20.317 Y-17.564 E0.06322
G1 X26.761 Y2.269 E0.86696
G1 X27.263 Y5.102 E0.11963
G1 X26.969 Y7.964 E0.11963
G1 X25.902 Y10.637 E0.11963
G1 X24.143 Y12.914 E0.11963
G1 X22.982 Y13.895 E0.06317
G1 X6.112 Y26.152 E0.86695
G1 X3.573 Y27.505 E0.11963
G1 X0.760 Y28.110 E0.11963
G1 X-2.112 Y27.921 E0.11963
G1 X-4.821 Y26.952 E0.11963
G1 X-6.113 Y26.151 E0.06319
G1 X-22.982 Y13.895 E0.86692
G1 X-25.054 Y11.898 E0.11963
G1 X-26.499 Y9.409 E0.11963
G1 X-27.207 Y6.620 E0.11963
G1 X-27.123 Y3.744 E0.11963
G1 X-26.760 Y2.267 E0.06322
G1 X-23.613 Y-7.420 E0.42348
G1 X-23.042 Y-7.235 F6000.000
G1 X-18.763 Y-20.406 E0.57579 F1500.000
G1 X-13.610 Y-24.150 E0.26481
G1 X13.607 Y-24.151 E1.13157
G1 X18.762 Y-20.408 E0.26486
G1 X27.174 Y5.482 E1.13175 F1500.000
G1 X25.206 Y11.538 E0.26475
G1 X3.184 Y27.538 E1.13169
G1 X-3.184 Y27.537 E0.26475
G1 X-25.206 Y11.538 E1.13166
G1 X-27.174 Y5.481 E0.26478
G1 X-23.061 Y-7.177 E0.55337
G1 X-22.680 Y-7.054 F6000.000
G1 X-18.423 Y-20.159 E0.57288 F1500.000
G1 X-13.480 Y-23.750 E0.25400
G1 X13.478 Y-23.751 E1.12077
G1 X18.422 Y-20.160 E0.25405 F1500.000
G1 X26.753 Y5.482 E1.12094
G1 X24.865 Y11.291 E0.25394
G1 X3.054 Y27.138 E1.12088
G1 X-3.054 Y27.137 E0.25395
G1 X-24.865 Y11.291 E1.12086
G1 X-26.753 Y5.481 E0.25397
G1 X-22.699 Y-6.997 E0.54548
G1 X-22.318 Y-6.873 F6000.000
G1 X-18.082 Y-19.912 E0.56997 F1500.000
G1 X-13.350 Y-23.350 E0.24319
G1 X13.348 Y-23.351 E1.10997
G1 X18.082 Y-19.913 E0.24324
G1 X26.333 Y5.482 E1.11013 F1500.000
G1 X24.525 Y11.044 E0.24313
G1 X2.924 Y26.738 E1.11007
G1 X-2.924 Y26.737 E0.24314
G1 X-24.525 Y11.044 E1.11005
G1 X-26.333 Y5.481 E0.24316
G1 X-22.337 Y-6.816 E0.53758
G1 X-21.957 Y-6.692 F6000.000
G1 X-17.742 Y-19.665 E0.56707 F1500.000
G1 X-13.220 Y-22.950 E0.23238
G1 X13.218 Y-22.951 E1.09917
G1 X17.741 Y-19.666 E0.23243 F1500.000
G1 X25.912 Y5.482 E1.09932
G1 X24.185 Y10.797 E0.23233
G1 X2.794 Y26.338 E1.09927
G1 X-2.794 Y26.337 E0.23233
G1 X-24.185 Y10.797 E1.09924
G1 X-25.912 Y5.481 E0.23236
G1 X-21.975 Y-6.635 E0.52968
G1 X-21.595 Y-6.512 F6000.000
G1 X-17.402 Y-19.417 E0.56416 F1500.000
G1 X-13.090 Y-22.550 E0.22157
G1 X13.088 Y-22.551 E1.08836
G1 X17.401 Y-19.419 E0.22161
G1 X25.491 Y5.482 E1.08852 F1500.000
G1 X23.845 Y10.549 E0.22152
G1 X2.664 Y25.938 E1.08846
G1 X-2.664 Y25.937 E0.22153
G1 X-23.845 Y10.549 E1.08844
G1 X-25.491 Y5.481 E0.22155
G1 X-21.613 Y-6.455 E0.52178
G1 X-21.233 Y-6.331 F6000.000
G1 X-17.061 Y-19.170 E0.56125 F1500.000
G1 X-12.960 Y-22.150 E0.21077
G1 X12.958 Y-22.151 E1.07756
G1 X17.061 Y-19.171 E0.21080 F1500.000
G1 X25.071 Y5.482 E1.07771
G1 X23.504 Y10.302 E0.21072
G1 X2.534 Y25.538 E1.07765
G1 X-2.535 Y25.537 E0.21072
G1 X-23.504 Y10.302 E1.07763
G1 X-25.071 Y5.481 E0.21074
G1 X-21.251 Y-6.274 E0.51388
G1 X-20.871 Y-6.150 F6000.000
G1 X-16.721 Y-18.923 E0.55834 F1500.000
G1 X-12.830 Y-21.750 E0.19996
G1 X12.828 Y-21.751 E1.06676
G1 X16.721 Y-18.924 E0.19999
G1 X24.650 Y5.482 E1.06690 F1500.000
G1 X23.164 Y10.055 E0.19991
G1 X2.404 Y25.138 E1.06685
G1 X-2.405 Y25.137 E0.19992
G1 X-23.164 Y10.055 E1.06683
G1 X-24.650 Y5.481 E0.19993
G1 X-20.889 Y-6.093 E0.50599
G1 X-20.509 Y-5.970 F6000.000
G1 X-16.381 Y-18.676 E0.55544 F1500.000
G1 X-12.700 Y-21.350 E0.18915
G1 X12.698 Y-21.351 E1.05596
G1 X16.380 Y-18.677 E0.18918 F1500.000
G1 X24.230 Y5.482 E1.05609
G1 X22.824 Y9.808 E0.18910
G1 X2.274 Y24.738 E1.05604
G1 X-2.275 Y24.737 E0.18911
G1 X-22.824 Y9.808 E1.05602
G1 X-24.230 Y5.481 E0.18913
G1 X-20.528 Y-5.913 E0.49809
G1 X-20.147 Y-5.789 F6000.000
G1 X-16.041 Y-18.429 E0.55253 F1500.000
G1 X-12.570 Y-20.950 E0.17834
G1 X12.569 Y-20.951 E1.04515
G1 X16.040 Y-18.430 E0.17837
G1 X23.809 Y5.482 E1.04528 F1500.000
G1 X22.484 Y9.560 E0.17830
G1 X2.144 Y24.338 E1.04523
G1 X-2.145 Y24.337 E0.17830
G1 X-22.484 Y9.560 E1.04521
G1 X-23.809 Y5.481 E0.17832
G1 X-20.166 Y-5.732 E0.49019
G1 X-19.785 Y-5.608 F6000.000
G1 X-15.700 Y-18.181 E0.54962 F1500.000
G1 X-12.440 Y-20.550 E0.16753
G1 X12.439 Y-20.551 E1.03435
G1 X15.700 Y-18.182 E0.16756 F1500.000
G1 X23.388 Y5.482 E1.03447
G1 X22.143 Y9.313 E0.16749
G1 X2.014 Y23.938 E1.03443
G1 X-2.015 Y23.938 E0.16750
G1 X-22.143 Y9.313 E1.03441
G1 X-23.389 Y5.481 E0.16751
G1 X-19.804 Y-5.551 E0.48229
G1 X-19.423 Y-5.428 F6000.000
G1 X-15.360 Y-17.934 E0.54671 F1500.000
G1 X-12.310 Y-20.150 E0.15672
G1 X12.309 Y-20.151 E1.02355
G1 X15.360 Y-17.935 E0.15675
G1 X22.968 Y5.482 E1.02366 F1500.000
G1 X21.803 Y9.066 E0.15669
G1 X1.884 Y23.538 E1.02362
G1 X-1.885 Y23.538 E0.15669
G1 X-21.803 Y9.066 E1.02360
G1 X-22.968 Y5.481 E0.15671
G1 X-19.442 Y-5.371 E0.47439
G1 X-19.061 Y-5.247 F6000.000
G1 X-15.020 Y-17.687 E0.54381 F1500.000
G1 X-12.180 Y-19.750 E0.14591
G1 X12.179 Y-19.751 E1.01275
G1 X15.019 Y-17.688 E0.14594 F1500.000
G1 X22.547 Y5.482 E1.01285
G1 X21.463 Y8.819 E0.14588
G1 X1.754 Y23.138 E1.01281
G1 X-1.755 Y23.138 E0.14588
G1 X-21.463 Y8.819 E1.01280
G1 X-22.547 Y5.481 E0.14590
G1 X-19.080 Y-5.190 E0.46649
G1 X-18.700 Y-5.066 F6000.000
G1 X-14.679 Y-17.440 E0.54090 F1500.000
G1 X-12.050 Y-19.350 E0.13511
G1 X12.049 Y-19.351 E1.00195
G1 X14.679 Y-17.441 E0.13513
G1 X22.127 Y5.482 E1.00204 F1500.000
G1 X21.123 Y8.572 E0.13507
G1 X1.624 Y22.738 E1.00200
G1 X-1.625 Y22.738 E0.13508
G1 X-21.123 Y8.572 E1.00199
G1 X-22.127 Y5.481 E0.13509
G1 X-18.718 Y-5.009 E0.45860
G1 X-18.338 Y-4.886 F6000.000
G1 X-14.339 Y-17.193 E0.53799 F1500.000
G1 X-11.920 Y-18.950 E0.12430
G1 X11.919 Y-18.951 E0.99114
G1 X14.339 Y-17.193 E0.12432 F1500.000
G1 X21.706 Y5.482 E0.99123
G1 X20.782 Y8.324 E0.12427
G1 X1.494 Y22.338 E0.99120
G1 X-1.495 Y22.338 E0.12427
G1 X-20.782 Y8.324 E0.99118
G1 X-21.706 Y5.481 E0.12428
G1 X-18.356 Y-4.829 E0.45070
G1 X-17.976 Y-4.705 F6000.000
G1 X-13.999 Y-16.945 E0.53508 F1500.000
G1 X-11.791 Y-18.550 E0.11349
G1 X11.789 Y-18.551 E0.98034
G1 X13.999 Y-16.946 E0.11351
G1 X21.286 Y5.482 E0.98042 F1500.000
G1 X20.442 Y8.077 E0.11346
G1 X1.364 Y21.938 E0.98039
G1 X-1.365 Y21.938 E0.11347
G1 X-20.442 Y8.077 E0.98038
G1 X-21.286 Y5.481 E0.11348
G1 X-17.994 Y-4.648 E0.44280
G1 X-17.614 Y-4.524 F6000.000
G1 X-13.659 Y-16.698 E0.53217 F1500.000
G1 X-11.661 Y-18.150 E0.10268
G1 X11.660 Y-18.150 E0.96954
G1 X13.658 Y-16.699 E0.10270 F1500.000
G1 X20.865 Y5.482 E0.96961
G1 X20.102 Y7.830 E0.10266
G1 X1.234 Y21.538 E0.96958
G1 X-1.235 Y21.538 E0.10266
G1 X-20.102 Y7.830 E0.96957
G1 X-20.865 Y5.481 E0.10267
G1 X-17.632 Y-4.467 E0.43490
G1 X-17.252 Y-4.344 F6000.000
G1 X-13.318 Y-16.451 E0.52927 F1500.000
G1 X-11.531 Y-17.750 E0.09187
G1 X11.530 Y-17.750 E0.95874
G1 X13.318 Y-16.452 E0.09189
G1 X20.444 Y5.482 E0.95880 F1500.000
G1 X19.762 Y7.583 E0.09185
G1 X1.105 Y21.138 E0.95878
G1 X-1.105 Y21.138 E0.09185
G1 X-19.762 Y7.583 E0.95877
G1 X-20.444 Y5.481 E0.09186
G1 X-17.271 Y-4.287 E0.42700
G1 X-16.890 Y-4.163 F6000.000
G1 X-12.978 Y-16.204 E0.52636 F1500.000
G1 X-11.401 Y-17.350 E0.08106
G1 X11.400 Y-17.350 E0.94793
G1 X12.978 Y-16.204 E0.08108 F1500.000
G1 X20.024 Y5.481 E0.94799
G1 X19.421 Y7.335 E0.08104
G1 X0.975 Y20.738 E0.94797
G1 X-0.975 Y20.738 E0.08105
G1 X-19.421 Y7.335 E0.94796
G1 X-20.024 Y5.481 E0.08105
G1 X-16.909 Y-4.106 E0.41911
G1 X-16.528 Y-3.982 F6000.000
G1 X-12.638 Y-15.957 E0.52345 F1500.000
G1 X-11.271 Y-16.950 E0.07026
G1 X11.270 Y-16.950 E0.93713
G1 X12.638 Y-15.957 E0.07027
G1 X19.603 Y5.481 E0.93718 F1500.000
G1 X19.081 Y7.088 E0.07024
G1 X0.845 Y20.338 E0.93716
G1 X-0.845 Y20.338 E0.07024
G1 X-19.081 Y7.088 E0.93715
G1 X-19.603 Y5.481 E0.07025
G1 X-16.547 Y-3.925 E0.41121
G1 X-16.166 Y-3.802 F6000.000
G1 X-12.297 Y-15.710 E0.52054 F1500.000
G1 X-11.141 Y-16.550 E0.05945
G1 X11.140 Y-16.550 E0.92633
G1 X12.297 Y-15.710 E0.05946 F1500.000
G1 X19.183 Y5.481 E0.92637
G1 X18.741 Y6.841 E0.05943
G1 X0.715 Y19.938 E0.92635
G1 X-0.715 Y19.938 E0.05943
G1 X-18.741 Y6.841 E0.92635
G1 X-19.183 Y5.481 E0.05944
G1 X-16.185 Y-3.745 E0.40331
G1 X-15.805 Y-3.621 F6000.000
G1 X-11.957 Y-15.462 E0.51764 F1500.000
G1 X-11.011 Y-16.150 E0.04864
G1 X11.010 Y-16.150 E0.91553
G1 X11.957 Y-15.463 E0.04865
G1 X18.762 Y5.481 E0.91556 F1500.000
G1 X18.401 Y6.594 E0.04863
G1 X0.585 Y19.538 E0.91555
G1 X-0.585 Y19.538 E0.04863
G1 X-18.401 Y6.594 E0.91554
G1 X-18.762 Y5.481 E0.04863
G1 X-15.823 Y-3.564 E0.39541
G1 X-15.443 Y-3.440 F6000.000
G1 X-11.617 Y-15.215 E0.51473 F1500.000
G1 X-10.881 Y-15.750 E0.03783
G1 X10.880 Y-15.750 E0.90472
G1 X11.617 Y-15.215 E0.03784 F1500.000
G1 X18.341 Y5.481 E0.90475
G1 X18.060 Y6.346 E0.03782
G1 X0.455 Y19.138 E0.90474
G1 X-0.455 Y19.138 E0.03782
G1 X-18.060 Y6.346 E0.90474
G1 X-18.341 Y5.481 E0.03783
G1 X-15.461 Y-3.383 E0.38751
G1 X-15.081 Y-3.260 F6000.000
G1 X-11.277 Y-14.968 E0.51182 F1500.000
G1 X-10.751 Y-15.350 E0.02702
G1 X10.751 Y-15.350 E0.89392
G1 X11.277 Y-14.968 E0.02703
G1 X17.921 Y5.481 E0.89394 F1500.000
G1 X17.720 Y6.099 E0.02702
G1 X0.325 Y18.738 E0.89393
G1 X-0.325 Y18.738 E0.02702
G1 X-17.720 Y6.099 E0.89393
G1 X-17.921 Y5.481 E0.02702
G1 X-15.099 Y-3.203 E0.37961
G1 X-14.719 Y-3.079 F6000.000
G1 X-10.936 Y-14.721 E0.50891 F1500.000
G1 X-10.621 Y-14.950 E0.01621
G1 X10.621 Y-14.950 E0.88312
G1 X10.936 Y-14.721 E0.01622 F1500.000
G1 X17.500 Y5.481 E0.88313
G1 X17.380 Y5.852 E0.01621
G1 X0.195 Y18.338 E0.88313
G1 X-0.195 Y18.338 E0.01621
G1 X-17.380 Y5.852 E0.88313
G1 X-17.500 Y5.481 E0.01621
G1 X-14.737 Y-3.022 E0.37172
G1 X-14.357 Y-2.898 F6000.000
G1 X-10.596 Y-14.474 E0.50601 F1500.000
G1 X-10.491 Y-14.550 E0.00540
G1 X10.491 Y-14.550 E0.87232
G1 X10.596 Y-14.474 E0.00541
G1 X17.080 Y5.481 E0.87232 F1500.000
G1 X17.040 Y5.605 E0.00540
G1 X0.065 Y17.938 E0.87232
G1 X-0.065 Y17.938 E0.00540
G1 X-17.040 Y5.605 E0.87232
G1 X-17.080 Y5.481 E0.00540
G1 X-14.376 Y-2.841 E0.36382
G1 X-13.995 Y-2.718 F6000.000
G1 X-10.281 Y-14.150 E0.49976 F630.000
G1 X10.281 Y-14.150 E0.85483
G1 X10.547 Y-13.330 E0.03583
G1 X16.634 Y5.405 E0.81900 F630.000
G1 X0.000 Y17.490 E0.85483
G1 X-16.634 Y5.405 E0.85483
G1 X-14.014 Y-2.661 E0.35258
G1 F2700.000 E-4.00000
G1 X10.502 Y-12.933 F6000.000
G1 X-15.912 Y4.476 F6000.000
G1 E4.00000 F2700.000
G1 X-9.990 Y-13.750 E0.79673 F900.000
G1 X9.990 Y-13.750 E0.83067 F900.000
G1 X16.164 Y5.252 E0.83067
G1 X0.000 Y16.996 E0.83067
G1 X-16.164 Y5.252 E0.83067
G1 X-15.930 Y4.533 E0.03144
G1 F2700.000 E-4.00000
G1 X-13.823 Y4.491 F6000.000
G1 E4.00000 F2700.000
G1 X-8.543 Y-11.759 E0.71038 F630.000
G1 X8.543 Y-11.759 E0.71038 F630.000
G1 X13.823 Y4.491 E0.71038
G1 X0.000 Y14.535 E0.71038
G1 X-13.775 Y4.527 E0.70788
G1 F2700.000 E-4.00000
G1 X-8.585 Y-12.157 F6000.000
G1 X-8.585 Y-12.159 F6000.000
G1 E4.00000 F2700.000
G1 X8.834 Y-12.159 E0.72420 F900.000
G1 X14.012 Y3.777 E0.69665
G1 X14.294 Y4.644 E0.03789 F900.000
G1 X0.000 Y15.029 E0.73454
G1 X-14.294 Y4.644 E0.73454
G1 X-8.834 Y-12.159 E0.73454
G1 X-8.645 Y-12.159 E0.00785
G1 F2700.000 E-4.00000
G1 X-14.491 Y4.303 F6000.000
G1 E4.00000 F2700.000
G1 X-15.288 Y3.505 E0.05893 F1500.000
G1 X-15.114 Y2.968 E0.02951
G1 X-14.316 Y3.765 E0.05893
G1 X-14.142 Y3.228 E0.02951
G1 X-14.939 Y2.431 E0.05893
G1 X-14.765 Y1.893 E0.02951
G1 X-13.967 Y2.691 E0.05893
G1 X-13.793 Y2.154 E0.02951
G1 X-14.590 Y1.356 E0.05893
G1 X-14.416 Y0.819 E0.02951
G1 X-13.618 Y1.617 E0.05893
G1 X-13.443 Y1.079 E0.02951
G1 X-14.241 Y0.282 E0.05893
G1 X-14.066 Y-0.255 E0.02951
G1 X-13.269 Y0.542 E0.05893
G1 X-13.094 Y0.005 E0.02951
G1 X-13.892 Y-0.793 E0.05893
G1 X-13.717 Y-1.330 E0.02951
G1 X-12.920 Y-0.532 E0.05893
G1 X-12.745 Y-1.069 E0.02951
G1 X-13.543 Y-1.867 E0.05893
G1 X-13.368 Y-2.404 E0.02951
G1 X-12.571 Y-1.607 E0.05893
G1 X-12.396 Y-2.144 E0.02951
G1 X-13.194 Y-2.941 E0.05893
G1 X-13.019 Y-3.479 E0.02951
G1 X-12.222 Y-2.681 E0.05893
G1 X-12.047 Y-3.218 E0.02951
G1 X-12.845 Y-4.016 E0.05893
G1 X-12.670 Y-4.553 E0.02951
G1 X-11.873 Y-3.755 E0.05893
G1 X-11.698 Y-4.293 E0.02951
G1 X-12.496 Y-5.090 E0.05893
G1 X-12.321 Y-5.627 E0.02951
G1 X-11.523 Y-4.830 E0.05893
G1 X-11.349 Y-5.367 E0.02951
G1 X-12.146 Y-6.165 E0.05893
G1 X-11.972 Y-6.702 E0.02951
G1 X-11.174 Y-5.904 E0.05893
G1 X-11.000 Y-6.441 E0.02951
G1 X-11.797 Y-7.239 E0.05893
G1 X-11.623 Y-7.776 E0.02951
G1 X-10.825 Y-6.979 E0.05893
G1 X-10.651 Y-7.516 E0.02951
G1 X-11.448 Y-8.313 E0.05893
G1 X-11.274 Y-8.850 E0.02951
