; generated by Slic3r 0.9.10b on 2013-10-29 at 21:34:20

; layer_height = 0.24
; perimeters = 2
; top_solid_layers = 4
; bottom_solid_layers = 3
; fill_density = 0.4
; perimeter_speed = 20
; infill_speed = 20
; travel_speed = 60
; nozzle_diameter = 0.5
; filament_diameter = 1.75
; extrusion_multiplier = 1
; perimeters extrusion width = 0.85mm
; infill extrusion width = 0.87mm
; solid infill extrusion width = 0.85mm
; top infill extrusion width = 0.85mm
; first layer extrusion width = 0.48mm

G21 ; set units to millimeters
G90 ; use absolute coordinates
M83 ; use relative distances for extrusion
M140 S57; Set bed temperature
G28 ; Home all axes
G1 Z5 F200 ; lift nozzle
G1 X2 Y50 F2000; Go to wait for warm position
M116; Wait for all temperatures
G10 P1 S200 R0 ; Set extruder temperature
T1; Select extruder
M116; Wait for all temperatures
G1 F1800.000 E-1.00000
G1 X83.244 Y72.792
G1 Z0.240 F3600.000
G1 F1800.000 E1.00000
G1 X99.024 Y56.882 F600.000 E1.08284
G1 X100.014 Y56.062 E0.06212
G1 X101.144 Y55.462 E0.06182
G1 X102.374 Y55.092 E0.06207
G1 X103.654 Y54.972 E0.06212
G1 X118.454 Y55.042 E0.71519
G1 X119.714 Y55.172 E0.06121
G1 X120.924 Y55.542 E0.06114
G1 X122.044 Y56.142 E0.06140
G1 X123.014 Y56.942 E0.06076
G1 X123.824 Y57.922 E0.06144
G1 X124.414 Y59.042 E0.06117
G1 X124.784 Y60.262 E0.06161
G1 X124.904 Y61.522 E0.06116
G1 X124.934 Y106.372 E2.16728
G1 X124.814 Y107.632 E0.06116
G1 X124.444 Y108.852 E0.06161
G1 X123.854 Y109.972 E0.06117
G1 X123.044 Y110.952 E0.06144
G1 X90.944 Y143.122 E2.19607
G1 X89.954 Y143.932 E0.06181
G1 X88.824 Y144.532 E0.06182
G1 X87.604 Y144.902 E0.06161
G1 X86.324 Y145.022 E0.06212
G1 X85.054 Y144.892 E0.06169
G1 X83.834 Y144.512 E0.06175
G1 X82.704 Y143.902 E0.06205
G1 X81.724 Y143.082 E0.06175
G1 X79.234 Y140.542 E0.17188
G1 X76.744 Y137.812 E0.17855
G1 X75.934 Y136.702 E0.06640
G1 X75.374 Y135.442 E0.06663
G1 X75.094 Y134.092 E0.06662
G1 X75.104 Y132.712 E0.06669
G1 X81.564 Y76.452 E2.73651
G1 X81.854 Y75.122 E0.06578
G1 X82.424 Y73.882 E0.06595
G1 X83.200 Y72.850 E0.06240
G1 F1800.000 E-1.00000
G1 X88.338 Y77.209 F3600.000
G1 F1800.000 E1.00000
G1 X103.733 Y61.695 F420.000 E1.05616
G1 X118.189 Y61.770 E0.69853
G1 X118.214 Y106.279 E2.15079
G1 X86.359 Y138.203 E2.17931
G1 X84.049 Y135.837 E0.15978
G1 X81.879 Y133.467 E0.15527
G1 X103.316 Y112.220 E1.45848
G1 X111.831 Y93.545 E0.99180
G1 X111.814 Y76.413 E0.82786
G1 X107.800 Y71.183 E0.31861
G1 X102.977 Y72.780 E0.24547
G1 X93.551 Y82.567 E0.65660
G1 X90.650 Y79.867 E0.19152
G1 X88.386 Y77.264 E0.16671
G1 X88.808 Y77.093 F3600.000
G1 X88.999 Y77.231
G1 X103.934 Y62.180 F600.000 E1.02460
G1 X117.705 Y62.252 E0.66545
G1 X117.730 Y106.079 E2.11784
G1 X86.363 Y137.513 E2.14591
G1 X84.401 Y135.504 E0.13569
G1 X82.551 Y133.483 E0.13241
G1 X103.720 Y112.501 E1.44027
G1 X112.315 Y93.650 E1.00118
G1 X112.298 Y76.248 E0.84089
G1 X107.974 Y70.615 E0.34319
G1 X102.712 Y72.358 E0.26789
G1 X93.533 Y81.888 E0.63938
G1 X90.998 Y79.530 E0.16728
G1 X89.047 Y77.286 E0.14373
G1 X93.755 Y81.151 F3600.000
G1 X89.663 Y77.059 F600.000 E0.28012
G1 X90.005 Y76.715 E0.02348
G1 X94.092 Y80.802 E0.27977
G1 X94.428 Y80.452 E0.02349
G1 X90.347 Y76.371 E0.27942
G1 X90.688 Y76.026 E0.02348
G1 X94.765 Y80.103 E0.27907
G1 X95.102 Y79.753 E0.02349
G1 X91.030 Y75.682 E0.27872
G1 X91.372 Y75.338 E0.02348
G1 X95.438 Y79.404 E0.27837
G1 X95.775 Y79.054 E0.02349
G1 X91.714 Y74.993 E0.27802
G1 X92.055 Y74.649 E0.02348
G1 X96.111 Y78.705 E0.27767
G1 X96.448 Y78.355 E0.02349
G1 X92.397 Y74.305 E0.27732
G1 X92.739 Y73.960 E0.02348
G1 X96.785 Y78.006 E0.27697
G1 X97.121 Y77.656 E0.02349
G1 X93.081 Y73.616 E0.27661
G1 X93.422 Y73.271 E0.02348
G1 X97.458 Y77.307 E0.27626
G1 X97.794 Y76.957 E0.02349
G1 X93.764 Y72.927 E0.27591
G1 X94.106 Y72.583 E0.02348
G1 X98.131 Y76.608 E0.27556
G1 X98.468 Y76.259 E0.02349
G1 X94.448 Y72.238 E0.27521
G1 X94.789 Y71.894 E0.02348
G1 X98.804 Y75.909 E0.27486
G1 X99.141 Y75.560 E0.02349
G1 X95.131 Y71.550 E0.27451
G1 X95.473 Y71.205 E0.02348
G1 X99.477 Y75.210 E0.27416
G1 X99.814 Y74.861 E0.02349
G1 X95.814 Y70.861 E0.27381
G1 X96.156 Y70.517 E0.02348
G1 X100.151 Y74.511 E0.27346
G1 X100.487 Y74.162 E0.02349
G1 X96.498 Y70.172 E0.27311
G1 X96.840 Y69.828 E0.02348
G1 X100.824 Y73.812 E0.27276
G1 X101.161 Y73.463 E0.02349
G1 X97.181 Y69.483 E0.27241
G1 X97.523 Y69.139 E0.02348
G1 X101.497 Y73.113 E0.27206
G1 X101.834 Y72.764 E0.02349
G1 X97.865 Y68.795 E0.27171
G1 X98.207 Y68.450 E0.02348
G1 X102.170 Y72.414 E0.27136
G1 X102.507 Y72.065 E0.02349
G1 X98.548 Y68.106 E0.27101
G1 X98.890 Y67.762 E0.02348
G1 X103.016 Y71.888 E0.28246
G1 X103.531 Y71.717 E0.02628
G1 X99.232 Y67.417 E0.29434
G1 X99.573 Y67.073 E0.02348
G1 X104.047 Y71.546 E0.30623
G1 X104.562 Y71.375 E0.02628
G1 X99.915 Y66.729 E0.31811
G1 X100.257 Y66.384 E0.02348
G1 X105.077 Y71.205 E0.33000
G1 X105.593 Y71.034 E0.02628
G1 X100.599 Y66.040 E0.34189
G1 X100.940 Y65.695 E0.02348
G1 X106.108 Y70.863 E0.35377
G1 X106.623 Y70.692 E0.02628
G1 X101.282 Y65.351 E0.36566
G1 X101.624 Y65.007 E0.02348
G1 X107.139 Y70.522 E0.37755
G1 X107.654 Y70.351 F3600.000
G1 X101.966 Y64.662 F600.000 E0.38943
G1 X102.307 Y64.318 E0.02348
G1 X117.364 Y79.374 E1.03073
G1 X117.363 Y78.688 E0.03323
G1 X102.649 Y63.974 E1.00731
G1 X102.991 Y63.629 E0.02348
G1 X117.363 Y78.001 E0.98389
G1 X117.362 Y77.315 E0.03323
G1 X103.332 Y63.285 E0.96047
G1 X103.674 Y62.941 E0.02348
G1 X117.362 Y76.628 E0.93705
G1 X117.362 Y75.942 E0.03323
G1 X104.016 Y62.596 E0.91363
G1 X104.641 Y62.535 E0.03040
G1 X117.361 Y75.255 E0.87082
G1 X117.361 Y74.569 E0.03323
G1 X105.331 Y62.539 E0.82358
G1 X106.020 Y62.542 E0.03339
G1 X117.360 Y73.882 E0.77634
G1 X117.360 Y73.196 E0.03323
G1 X106.710 Y62.546 E0.72909
G1 X107.400 Y62.549 E0.03339
G1 X117.360 Y72.509 E0.68185
G1 X117.359 Y71.823 E0.03323
G1 X108.089 Y62.553 E0.63461
G1 X108.779 Y62.557 E0.03339
G1 X117.359 Y71.136 E0.58737
G1 X117.358 Y70.450 E0.03323
G1 X109.469 Y62.560 E0.54013
G1 X110.158 Y62.564 E0.03339
G1 X117.358 Y69.764 E0.49289
G1 X117.358 Y69.077 E0.03323
G1 X110.848 Y62.567 E0.44565
G1 X111.538 Y62.571 E0.03339
G1 X117.357 Y68.391 E0.39841
G1 X117.357 Y67.704 E0.03323
G1 X112.227 Y62.574 E0.35117
G1 X112.917 Y62.578 E0.03339
G1 X117.357 Y67.018 E0.30393
G1 X117.356 Y66.331 E0.03323
G1 X113.607 Y62.582 E0.25669
G1 X114.296 Y62.585 E0.03339
G1 X117.356 Y65.645 E0.20945
G1 X117.355 Y64.958 E0.03323
G1 X114.986 Y62.589 E0.16221
G1 X115.676 Y62.592 E0.03339
G1 X117.355 Y64.272 E0.11497
G1 X117.355 Y63.585 E0.03323
G1 X116.365 Y62.596 E0.06772
G1 X117.055 Y62.599 E0.03339
G1 X117.354 Y62.899 E0.02048
G1 X110.063 Y72.760 F3600.000
G1 X117.364 Y80.061 F600.000 E0.49983
G1 X117.364 Y80.747 E0.03323
G1 X112.328 Y75.711 E0.34475
G1 X112.650 Y76.719 E0.05118
G1 X117.365 Y81.434 E0.32279
G1 X117.365 Y82.120 E0.03323
G1 X112.650 Y77.405 E0.32277
G1 X112.651 Y78.092 E0.03324
G1 X117.366 Y82.807 E0.32275
G1 X117.366 Y83.493 E0.03323
G1 X112.652 Y78.779 E0.32273
G1 X112.652 Y79.466 E0.03324
G1 X117.366 Y84.180 E0.32271
G1 X117.367 Y84.866 E0.03323
G1 X112.653 Y80.152 E0.32270
G1 X112.654 Y80.839 E0.03324
G1 X117.367 Y85.553 E0.32268
G1 X117.368 Y86.239 E0.03323
G1 X112.654 Y81.526 E0.32266
G1 X112.655 Y82.213 E0.03324
G1 X117.368 Y86.926 E0.32264
G1 X117.368 Y87.612 E0.03323
G1 X112.656 Y82.899 E0.32262
G1 X112.656 Y83.586 E0.03324
G1 X117.369 Y88.299 E0.32260
G1 X117.369 Y88.985 E0.03323
G1 X112.657 Y84.273 E0.32259
G1 X112.658 Y84.960 E0.03324
G1 X117.369 Y89.672 E0.32257
G1 X117.370 Y90.358 E0.03323
G1 X112.658 Y85.646 E0.32255
G1 X112.659 Y86.333 E0.03324
G1 X117.370 Y91.045 E0.32253
G1 X117.371 Y91.731 E0.03323
G1 X112.660 Y87.020 E0.32251
G1 X112.660 Y87.707 E0.03324
G1 X117.371 Y92.418 E0.32249
G1 X117.371 Y93.104 E0.03323
G1 X112.661 Y88.393 E0.32248
G1 X112.662 Y89.080 E0.03324
G1 X117.372 Y93.791 E0.32246
G1 X117.372 Y94.477 E0.03323
G1 X112.662 Y89.767 E0.32244
G1 X112.663 Y90.454 E0.03324
G1 X117.373 Y95.163 E0.32242
G1 X117.373 Y95.850 E0.03323
G1 X112.664 Y91.141 E0.32240
G1 X112.664 Y91.827 E0.03324
G1 X117.373 Y96.536 E0.32239
G1 X117.374 Y97.223 E0.03323
G1 X112.665 Y92.514 E0.32237
G1 X112.666 Y93.201 E0.03324
G1 X117.374 Y97.909 E0.32235
G1 X117.375 Y98.596 E0.03323
G1 X112.615 Y93.837 E0.32580
G1 X112.401 Y94.308 E0.02507
G1 X117.375 Y99.282 E0.34054
G1 X117.375 Y99.969 E0.03323
G1 X112.186 Y94.779 E0.35527
G1 X111.971 Y95.251 E0.02507
G1 X117.376 Y100.655 E0.37001
G1 X117.376 Y101.342 E0.03323
G1 X111.756 Y95.722 E0.38474
G1 X111.541 Y96.193 E0.02507
G1 X117.377 Y102.028 E0.39948
G1 X117.377 Y102.715 E0.03323
G1 X111.326 Y96.664 E0.41421
G1 X111.112 Y97.135 E0.02507
G1 X117.377 Y103.401 E0.42895
G1 X117.378 Y104.088 E0.03323
G1 X110.897 Y97.607 E0.44369
G1 X110.682 Y98.078 E0.02507
G1 X117.378 Y104.774 E0.45842
G1 X117.379 Y105.461 E0.03323
G1 X110.467 Y98.549 E0.47316
G1 X110.252 Y99.020 E0.02507
G1 X117.272 Y106.040 E0.48058
G1 X116.929 Y106.384 E0.02348
G1 X110.037 Y99.492 E0.47183
G1 X109.822 Y99.963 E0.02507
G1 X116.587 Y106.727 E0.46308
G1 X116.244 Y107.071 E0.02348
G1 X109.608 Y100.434 E0.45433
G1 X109.393 Y100.905 E0.02507
G1 X115.901 Y107.414 E0.44558
G1 X115.559 Y107.758 E0.02348
G1 X109.178 Y101.377 E0.43683
G1 X108.963 Y101.848 E0.02507
G1 X115.216 Y108.101 E0.42808
G1 X114.873 Y108.444 E0.02348
G1 X108.748 Y102.319 E0.41933
G1 X108.533 Y102.790 E0.02507
G1 X114.531 Y108.788 E0.41058
G1 X114.188 Y109.131 E0.02348
G1 X108.318 Y103.262 E0.40183
G1 X108.104 Y103.733 E0.02507
G1 X113.845 Y109.475 E0.39307
G1 X113.503 Y109.818 E0.02348
G1 X107.889 Y104.204 E0.38432
G1 X107.674 Y104.675 E0.02507
G1 X113.160 Y110.161 E0.37557
G1 X112.817 Y110.505 E0.02348
G1 X107.459 Y105.147 E0.36682
G1 X107.244 Y105.618 E0.02507
G1 X112.475 Y110.848 E0.35807
G1 X112.132 Y111.192 E0.02348
G1 X107.029 Y106.089 E0.34932
G1 X106.814 Y106.560 E0.02507
G1 X111.789 Y111.535 E0.34057
G1 X111.447 Y111.879 E0.02348
G1 X106.600 Y107.032 E0.33182
G1 X106.385 Y107.503 E0.02507
G1 X111.104 Y112.222 E0.32307
G1 X110.761 Y112.565 E0.02348
G1 X106.170 Y107.974 E0.31432
G1 X105.955 Y108.445 E0.02507
G1 X110.419 Y112.909 E0.30557
G1 X110.076 Y113.252 E0.02348
G1 X105.740 Y108.916 E0.29682
G1 X105.525 Y109.388 E0.02507
G1 X109.733 Y113.596 E0.28807
G1 X109.391 Y113.939 E0.02348
G1 X105.310 Y109.859 E0.27932
G1 X105.096 Y110.330 E0.02507
G1 X109.048 Y114.282 E0.27057
G1 X108.705 Y114.626 E0.02348
G1 X104.881 Y110.801 E0.26182
G1 X104.666 Y111.273 E0.02507
G1 X108.362 Y114.969 E0.25306
G1 X108.020 Y115.313 E0.02348
G1 X104.451 Y111.744 E0.24431
G1 X104.236 Y112.215 E0.02507
G1 X107.677 Y115.656 E0.23556
G1 X107.334 Y116.000 E0.02348
G1 X104.021 Y112.686 E0.22681
G1 X103.682 Y113.033 E0.02349
G1 X106.992 Y116.343 E0.22658
G1 X106.649 Y116.686 E0.02348
G1 X103.337 Y113.375 E0.22671
G1 X102.993 Y113.716 E0.02348
G1 X106.306 Y117.030 E0.22684
G1 X105.964 Y117.373 E0.02348
G1 X102.648 Y114.058 E0.22697
G1 X102.304 Y114.399 E0.02348
G1 X105.621 Y117.717 E0.22710
G1 X105.278 Y118.060 E0.02348
G1 X101.959 Y114.741 E0.22723
G1 X101.615 Y115.082 E0.02348
G1 X104.936 Y118.403 E0.22736
G1 X104.593 Y118.747 E0.02348
G1 X101.270 Y115.424 E0.22749
G1 X100.925 Y115.765 E0.02348
G1 X104.250 Y119.090 E0.22762
G1 X103.908 Y119.434 E0.02348
G1 X100.581 Y116.107 E0.22775
G1 X100.236 Y116.448 E0.02348
G1 X103.565 Y119.777 E0.22788
G1 X103.222 Y120.120 E0.02348
G1 X99.892 Y116.790 E0.22801
G1 X99.547 Y117.131 E0.02348
G1 X102.880 Y120.464 E0.22814
G1 X102.537 Y120.807 E0.02348
G1 X99.203 Y117.473 E0.22827
G1 X98.858 Y117.814 E0.02348
G1 X102.194 Y121.151 E0.22840
G1 X101.852 Y121.494 E0.02348
G1 X98.513 Y118.156 E0.22853
G1 X98.169 Y118.497 E0.02348
G1 X101.509 Y121.838 E0.22866
G1 X101.166 Y122.181 E0.02348
G1 X97.824 Y118.839 E0.22879
G1 X97.480 Y119.181 E0.02348
G1 X100.824 Y122.524 E0.22892
G1 X100.481 Y122.868 E0.02348
G1 X97.135 Y119.522 E0.22905
G1 X96.791 Y119.864 E0.02348
G1 X100.138 Y123.211 E0.22917
G1 X99.796 Y123.555 E0.02348
G1 X96.446 Y120.205 E0.22930
G1 X96.101 Y120.547 E0.02348
G1 X99.453 Y123.898 E0.22943
G1 X99.110 Y124.241 E0.02348
G1 X95.757 Y120.888 E0.22956
G1 X95.412 Y121.230 E0.02348
G1 X98.767 Y124.585 E0.22969
G1 X98.425 Y124.928 E0.02348
G1 X95.068 Y121.571 E0.22982
G1 X94.723 Y121.913 E0.02348
G1 X98.082 Y125.272 E0.22995
G1 X97.739 Y125.615 E0.02348
G1 X94.379 Y122.254 E0.23008
G1 X94.034 Y122.596 E0.02348
G1 X97.397 Y125.959 E0.23021
G1 X97.054 Y126.302 E0.02348
G1 X93.689 Y122.937 E0.23034
G1 X93.345 Y123.279 E0.02348
G1 X96.711 Y126.645 E0.23047
G1 X96.369 Y126.989 E0.02348
G1 X93.000 Y123.620 E0.23060
G1 X92.656 Y123.962 E0.02348
G1 X96.026 Y127.332 E0.23073
G1 X95.683 Y127.676 E0.02348
G1 X92.311 Y124.303 E0.23086
G1 X91.967 Y124.645 E0.02348
G1 X95.341 Y128.019 E0.23099
G1 X94.998 Y128.362 E0.02348
G1 X91.622 Y124.986 E0.23112
G1 X91.277 Y125.328 E0.02348
G1 X94.655 Y128.706 E0.23125
G1 X94.313 Y129.049 E0.02348
G1 X90.933 Y125.669 E0.23138
G1 X90.588 Y126.011 E0.02348
G1 X93.970 Y129.393 E0.23151
G1 X93.627 Y129.736 E0.02348
G1 X90.244 Y126.352 E0.23164
G1 X89.899 Y126.694 E0.02348
G1 X93.285 Y130.080 E0.23177
G1 X92.942 Y130.423 E0.02348
G1 X89.555 Y127.036 E0.23190
G1 X89.210 Y127.377 E0.02348
G1 X92.599 Y130.766 E0.23203
G1 X92.257 Y131.110 E0.02348
G1 X88.865 Y127.719 E0.23216
G1 X88.521 Y128.060 E0.02348
G1 X91.914 Y131.453 E0.23229
G1 X91.571 Y131.797 E0.02348
G1 X88.176 Y128.402 E0.23242
G1 X87.832 Y128.743 E0.02348
G1 X91.229 Y132.140 E0.23255
G1 X90.886 Y132.483 E0.02348
G1 X87.487 Y129.085 E0.23268
G1 X87.143 Y129.426 E0.02348
G1 X90.543 Y132.827 E0.23281
G1 X90.201 Y133.170 E0.02348
G1 X86.798 Y129.768 E0.23294
G1 X86.453 Y130.109 E0.02348
G1 X89.858 Y133.514 E0.23307
G1 X89.515 Y133.857 E0.02348
G1 X86.109 Y130.451 E0.23320
G1 X85.764 Y130.792 E0.02348
G1 X89.173 Y134.201 E0.23333
G1 X88.830 Y134.544 E0.02348
G1 X85.420 Y131.134 E0.23346
G1 X85.075 Y131.475 E0.02348
G1 X88.487 Y134.887 E0.23358
G1 X88.144 Y135.231 E0.02348
G1 X84.731 Y131.817 E0.23371
G1 X84.386 Y132.158 E0.02348
G1 X87.802 Y135.574 E0.23384
G1 X87.459 Y135.918 E0.02348
G1 X84.041 Y132.500 E0.23397
G1 X83.697 Y132.841 E0.02348
G1 X87.116 Y136.261 E0.23410
G1 X86.774 Y136.604 E0.02348
G1 X83.352 Y133.183 E0.23423
G1 X83.682 Y134.198 E0.05168
G1 X86.431 Y136.948 E0.18822
G1 F1800.000 E-1.00000
G1 Z0.480 F3600.000
G1 X87.598 Y141.554
G1 X90.944 Y143.122
G1 F1800.000 E1.00000
G1 X89.954 Y143.932 F1200.000 E0.06181
G1 X88.824 Y144.532 E0.06182
G1 X87.604 Y144.902 E0.06161
G1 X86.324 Y145.022 E0.06212
G1 X85.054 Y144.892 E0.06169
G1 X83.834 Y144.512 E0.06175
G1 X82.704 Y143.902 E0.06205
G1 X81.724 Y143.082 E0.06175
G1 X79.234 Y140.542 E0.17188
G1 X76.744 Y137.812 E0.17855
G1 X75.934 Y136.702 E0.06640
G1 X75.374 Y135.442 E0.06663
G1 X75.094 Y134.092 E0.06662
G1 X75.104 Y132.712 E0.06669
G1 X81.564 Y76.452 E2.73651
G1 X81.854 Y75.122 E0.06578
G1 X82.424 Y73.882 E0.06595
G1 X83.244 Y72.792 E0.06591
G1 X83.524 Y72.492 E0.01983
G1 X99.024 Y56.882 E1.06302
G1 X100.014 Y56.062 E0.06212
G1 X101.144 Y55.462 E0.06182
G1 X102.374 Y55.092 E0.06207
G1 X103.654 Y54.972 E0.06212
G1 X118.454 Y55.042 E0.71519
G1 X119.714 Y55.172 E0.06121
G1 X120.924 Y55.542 E0.06114
G1 X122.044 Y56.142 E0.06140
G1 X123.014 Y56.942 E0.06076
G1 X123.824 Y57.922 E0.06144
G1 X124.414 Y59.042 E0.06117
G1 X124.784 Y60.262 E0.06161
G1 X124.904 Y61.522 E0.06116
G1 X124.934 Y106.372 E2.16728
G1 X124.814 Y107.632 E0.06116
G1 X124.444 Y108.852 E0.06161
G1 X123.854 Y109.972 E0.06117
G1 X123.044 Y110.952 E0.06144
G1 X90.995 Y143.071 E2.19256
G1 F1800.000 E-1.00000
G1 X86.360 Y137.979 F3600.000
G1 F1800.000 E1.00000
G1 X84.163 Y135.729 F840.000 E0.25056
G1 X82.097 Y133.472 E0.24378
G1 X103.447 Y112.311 E2.39499
G1 X111.988 Y93.579 E1.64029
G1 X111.971 Y76.360 E1.37193
G1 X107.856 Y70.999 E0.53847
G1 X102.891 Y72.643 E0.41672
G1 X93.545 Y82.347 E1.07338
G1 X90.763 Y79.758 E0.30281
G1 X88.552 Y77.216 E0.26837
G1 X103.799 Y61.853 E1.72450
G1 X118.032 Y61.926 E1.13404
G1 X118.057 Y106.214 E3.52858
G1 X86.445 Y137.894 E3.56582
G1 X86.159 Y137.206 F3600.000
G1 X86.366 Y136.842
G1 X84.744 Y135.180 F1200.000 E0.18508
