; generated by Slic3r 0.9.10b on 2013-11-15 at 21:34:14

; layer_height = 0.24
; perimeters = 2
; top_solid_layers = 4
; bottom_solid_layers = 3
; fill_density = 0.4
; perimeter_speed = 20
; infill_speed = 20
; travel_speed = 60
; nozzle_diameter = 0.5
; filament_diameter = 1.75
; extrusion_multiplier = 1
; perimeters extrusion width = 0.85mm
; infill extrusion width = 0.87mm
; solid infill extrusion width = 0.85mm
; top infill extrusion width = 0.85mm
; first layer extrusion width = 0.48mm

G21 ; set units to millimeters
G90 ; use absolute coordinates
M83 ; use relative distances for extrusion
M140 S57; Set bed temperature
G28 ; Home all axes
G1 Z5 F200 ; lift nozzle
G1 X2 Y50 F2000; Go to wait for warm position
M116; Wait for all temperatures
G10 P1 S200 R0 ; Set extruder temperature
T1; Select extruder
M116; Wait for all temperatures
G1 F1800.000 E-1.00000
G1 X47.463 Y43.710
G1 Z0.240 F3600.000
G1 F1800.000 E1.00000
G1 X48.473 Y42.780 F600.000 E0.06635
G1 X49.653 Y42.090 E0.06605
G1 X50.963 Y41.660 E0.06663
G1 X52.323 Y41.520 E0.06607
G1 X142.333 Y41.520 E4.34954
G1 X143.703 Y41.660 E0.06655
G1 X145.003 Y42.090 E0.06617
G1 X146.183 Y42.790 E0.06630
G1 X147.203 Y43.710 E0.06638
G1 X159.533 Y57.710 E0.90149
G1 X160.413 Y59.000 E0.07546
G1 X160.963 Y60.450 E0.07494
G1 X161.143 Y62.000 E0.07540
G1 X161.143 Y70.000 E0.38658
G1 X161.023 Y71.270 E0.06164
G1 X160.653 Y72.480 E0.06114
G1 X160.053 Y73.600 E0.06140
G1 X159.253 Y74.590 E0.06151
G1 X77.253 Y156.590 E5.60378
G1 X76.263 Y157.390 E0.06151
G1 X75.143 Y157.990 E0.06140
G1 X73.933 Y158.360 E0.06114
G1 X72.663 Y158.480 E0.06164
G1 X64.663 Y158.480 E0.38658
G1 X63.303 Y158.340 E0.06607
G1 X61.993 Y157.910 E0.06663
G1 X60.813 Y157.220 E0.06605
G1 X41.483 Y142.950 E1.16104
G1 X40.383 Y141.910 E0.07315
G1 X39.543 Y140.650 E0.07318
G1 X39.023 Y139.230 E0.07307
G1 X38.853 Y137.730 E0.07295
G1 X38.853 Y128.010 E0.46970
G1 X38.873 Y127.450 E0.02708
G1 X45.863 Y47.440 E3.88104
G1 X46.123 Y46.090 E0.06643
G1 X46.663 Y44.830 E0.06624
G1 X47.421 Y43.769 E0.06300
G1 F1800.000 E-1.00000
G1 X64.909 Y62.242 F3600.000
G1 F1800.000 E1.00000
G1 X154.425 Y62.242 F420.000 E4.32565
G1 X154.425 Y69.758 E0.36318
G1 X74.425 Y69.758 E3.86583
G1 X74.425 Y71.758 E0.09665
G1 X72.425 Y71.758 E0.09665
G1 X72.425 Y151.758 E3.86583
G1 X64.909 Y151.758 E0.36318
G1 X64.909 Y62.315 E4.32214
G1 X65.328 Y62.484 F3600.000
G1 X65.393 Y62.726
G1 X153.940 Y62.726 F600.000 E4.27885
G1 X153.940 Y69.274 E0.31638
G1 X73.940 Y69.274 E3.86583
G1 X73.940 Y71.274 E0.09665
G1 X71.940 Y71.274 E0.09665
G1 X71.940 Y151.274 E3.86583
G1 X65.393 Y151.274 E0.31638
G1 X65.393 Y62.799 E4.27534
G1 X66.106 Y150.923 F3600.000
G1 X65.744 Y150.560 F600.000 E0.02479
G1 X65.744 Y149.874 E0.03322
G1 X66.792 Y150.923 E0.07177
G1 X67.478 Y150.923 E0.03322
G1 X65.744 Y149.188 E0.11874
G1 X65.744 Y148.502 E0.03322
G1 X68.165 Y150.923 E0.16572
G1 X68.851 Y150.923 E0.03322
G1 X65.744 Y147.816 E0.21269
G1 X65.744 Y147.130 E0.03322
G1 X69.537 Y150.923 E0.25967
G1 X70.223 Y150.923 E0.03322
G1 X65.744 Y146.444 E0.30665
G1 X65.744 Y145.757 E0.03322
G1 X70.909 Y150.923 E0.35362
G1 X71.589 Y150.916 E0.03292
G1 X65.744 Y145.071 E0.40018
G1 X65.744 Y144.385 E0.03322
G1 X71.589 Y150.230 E0.40018
G1 X71.589 Y149.544 E0.03322
G1 X65.744 Y143.699 E0.40018
G1 X65.744 Y143.013 E0.03322
G1 X71.589 Y148.858 E0.40018
G1 X71.589 Y148.172 E0.03322
G1 X65.744 Y142.327 E0.40018
G1 X65.744 Y141.641 E0.03322
G1 X71.589 Y147.486 E0.40018
G1 X71.589 Y146.800 E0.03322
G1 X65.744 Y140.954 E0.40018
G1 X65.744 Y140.268 E0.03322
G1 X71.589 Y146.113 E0.40018
G1 X71.589 Y145.427 E0.03322
G1 X65.744 Y139.582 E0.40018
G1 X65.744 Y138.896 E0.03322
G1 X71.589 Y144.741 E0.40018
G1 X71.589 Y144.055 E0.03322
G1 X65.744 Y138.210 E0.40018
G1 X65.744 Y137.524 E0.03322
G1 X71.589 Y143.369 E0.40018
G1 X71.589 Y142.683 E0.03322
G1 X65.744 Y136.838 E0.40018
G1 X65.744 Y136.151 E0.03322
G1 X71.589 Y141.997 E0.40018
G1 X71.589 Y141.310 E0.03322
G1 X65.744 Y135.465 E0.40018
G1 X65.744 Y134.779 E0.03322
G1 X71.589 Y140.624 E0.40018
G1 X71.589 Y139.938 E0.03322
G1 X65.744 Y134.093 E0.40018
G1 X65.744 Y133.407 E0.03322
G1 X71.589 Y139.252 E0.40018
G1 X71.589 Y138.566 E0.03322
G1 X65.744 Y132.721 E0.40018
G1 X65.744 Y132.035 E0.03322
G1 X71.589 Y137.880 E0.40018
G1 X71.589 Y137.194 E0.03322
G1 X65.744 Y131.348 E0.40018
G1 X65.744 Y130.662 E0.03322
G1 X71.589 Y136.507 E0.40018
G1 X71.589 Y135.821 E0.03322
G1 X65.744 Y129.976 E0.40018
G1 X65.744 Y129.290 E0.03322
G1 X71.589 Y135.135 E0.40018
G1 X71.589 Y134.449 E0.03322
G1 X65.744 Y128.604 E0.40018
G1 X65.744 Y127.918 E0.03322
G1 X71.589 Y133.763 E0.40018
G1 X71.589 Y133.077 E0.03322
G1 X65.744 Y127.232 E0.40018
G1 X65.744 Y126.545 E0.03322
G1 X71.589 Y132.391 E0.40018
G1 X71.589 Y131.704 E0.03322
G1 X65.744 Y125.859 E0.40018
G1 X65.744 Y125.173 E0.03322
G1 X71.589 Y131.018 E0.40018
G1 X71.589 Y130.332 E0.03322
G1 X65.744 Y124.487 E0.40018
G1 X65.744 Y123.801 E0.03322
G1 X71.589 Y129.646 E0.40018
G1 X71.589 Y128.960 E0.03322
G1 X65.744 Y123.115 E0.40018
G1 X65.744 Y122.429 E0.03322
G1 X71.589 Y128.274 E0.40018
G1 X71.589 Y127.588 E0.03322
G1 X65.744 Y121.743 E0.40018
G1 X65.744 Y121.056 E0.03322
G1 X71.589 Y126.902 E0.40018
G1 X71.589 Y126.215 E0.03322
G1 X65.744 Y120.370 E0.40018
G1 X65.744 Y119.684 E0.03322
G1 X71.589 Y125.529 E0.40018
G1 X71.589 Y124.843 E0.03322
G1 X65.744 Y118.998 E0.40018
G1 X65.744 Y118.312 E0.03322
G1 X71.589 Y124.157 E0.40018
G1 X71.589 Y123.471 E0.03322
G1 X65.744 Y117.626 E0.40018
G1 X65.744 Y116.940 E0.03322
G1 X71.589 Y122.785 E0.40018
G1 X71.589 Y122.099 E0.03322
G1 X65.744 Y116.253 E0.40018
G1 X65.744 Y115.567 E0.03322
G1 X71.589 Y121.412 E0.40018
G1 X71.589 Y120.726 E0.03322
G1 X65.744 Y114.881 E0.40018
G1 X65.744 Y114.195 E0.03322
G1 X71.589 Y120.040 E0.40018
G1 X71.589 Y119.354 E0.03322
G1 X65.744 Y113.509 E0.40018
G1 X65.744 Y112.823 E0.03322
G1 X71.589 Y118.668 E0.40018
G1 X71.589 Y117.982 E0.03322
G1 X65.744 Y112.137 E0.40018
G1 X65.744 Y111.450 E0.03322
G1 X71.589 Y117.296 E0.40018
G1 X71.589 Y116.609 E0.03322
G1 X65.744 Y110.764 E0.40018
G1 X65.744 Y110.078 E0.03322
G1 X71.589 Y115.923 E0.40018
G1 X71.589 Y115.237 E0.03322
G1 X65.744 Y109.392 E0.40018
G1 X65.744 Y108.706 E0.03322
G1 X71.589 Y114.551 E0.40018
G1 X71.589 Y113.865 E0.03322
G1 X65.744 Y108.020 E0.40018
G1 X65.744 Y107.334 E0.03322
G1 X71.589 Y113.179 E0.40018
G1 X71.589 Y112.493 E0.03322
G1 X65.744 Y106.647 E0.40018
G1 X65.744 Y105.961 E0.03322
G1 X71.589 Y111.806 E0.40018
G1 X71.589 Y111.120 E0.03322
G1 X65.744 Y105.275 E0.40018
G1 X65.744 Y104.589 E0.03322
G1 X71.589 Y110.434 E0.40018
G1 X71.589 Y109.748 E0.03322
G1 X65.744 Y103.903 E0.40018
G1 X65.744 Y103.217 E0.03322
G1 X71.589 Y109.062 E0.40018
G1 X71.589 Y108.376 E0.03322
G1 X65.744 Y102.531 E0.40018
G1 X65.744 Y101.844 E0.03322
G1 X71.589 Y107.690 E0.40018
G1 X71.589 Y107.003 E0.03322
G1 X65.744 Y101.158 E0.40018
G1 X65.744 Y100.472 E0.03322
G1 X71.589 Y106.317 E0.40018
G1 X71.589 Y105.631 E0.03322
G1 X65.744 Y99.786 E0.40018
G1 X65.744 Y99.100 E0.03322
G1 X71.589 Y104.945 E0.40018
G1 X71.589 Y104.259 E0.03322
G1 X65.744 Y98.414 E0.40018
G1 X65.744 Y97.728 E0.03322
G1 X71.589 Y103.573 E0.40018
G1 X71.589 Y102.887 E0.03322
G1 X65.744 Y97.041 E0.40018
G1 X65.744 Y96.355 E0.03322
G1 X71.589 Y102.200 E0.40018
G1 X71.589 Y101.514 E0.03322
G1 X65.744 Y95.669 E0.40018
G1 X65.744 Y94.983 E0.03322
G1 X71.589 Y100.828 E0.40018
G1 X71.589 Y100.142 E0.03322
G1 X65.744 Y94.297 E0.40018
G1 X65.744 Y93.611 E0.03322
G1 X71.589 Y99.456 E0.40018
G1 X71.589 Y98.770 E0.03322
G1 X65.744 Y92.925 E0.40018
G1 X65.744 Y92.238 E0.03322
G1 X71.589 Y98.084 E0.40018
G1 X71.589 Y97.397 E0.03322
G1 X65.744 Y91.552 E0.40018
G1 X65.744 Y90.866 E0.03322
G1 X71.589 Y96.711 E0.40018
G1 X71.589 Y96.025 E0.03322
G1 X65.744 Y90.180 E0.40018
G1 X65.744 Y89.494 E0.03322
G1 X71.589 Y95.339 E0.40018
G1 X71.589 Y94.653 E0.03322
G1 X65.744 Y88.808 E0.40018
G1 X65.744 Y88.122 E0.03322
G1 X71.589 Y93.967 E0.40018
G1 X71.589 Y93.281 E0.03322
G1 X65.744 Y87.435 E0.40018
G1 X65.744 Y86.749 E0.03322
G1 X71.589 Y92.594 E0.40018
G1 X71.589 Y91.908 E0.03322
G1 X65.744 Y86.063 E0.40018
G1 X65.744 Y85.377 E0.03322
G1 X71.589 Y91.222 E0.40018
G1 X71.589 Y90.536 E0.03322
G1 X65.744 Y84.691 E0.40018
G1 X65.744 Y84.005 E0.03322
G1 X71.589 Y89.850 E0.40018
G1 X71.589 Y89.164 E0.03322
G1 X65.744 Y83.319 E0.40018
G1 X65.744 Y82.632 E0.03322
G1 X71.589 Y88.478 E0.40018
G1 X71.589 Y87.791 E0.03322
G1 X65.744 Y81.946 E0.40018
G1 X65.744 Y81.260 E0.03322
G1 X71.589 Y87.105 E0.40018
G1 X71.589 Y86.419 E0.03322
G1 X65.744 Y80.574 E0.40018
G1 X65.744 Y79.888 E0.03322
G1 X71.589 Y85.733 E0.40018
G1 X71.589 Y85.047 E0.03322
G1 X65.744 Y79.202 E0.40018
G1 X65.744 Y78.516 E0.03322
G1 X71.589 Y84.361 E0.40018
G1 X71.589 Y83.675 E0.03322
G1 X65.744 Y77.829 E0.40018
G1 X65.744 Y77.143 E0.03322
G1 X71.589 Y82.988 E0.40018
G1 X71.589 Y82.302 E0.03322
G1 X65.744 Y76.457 E0.40018
G1 X65.744 Y75.771 E0.03322
G1 X71.589 Y81.616 E0.40018
G1 X71.589 Y80.930 E0.03322
G1 X65.744 Y75.085 E0.40018
G1 X65.744 Y74.399 E0.03322
G1 X71.589 Y80.244 E0.40018
G1 X71.589 Y79.558 E0.03322
G1 X65.744 Y73.713 E0.40018
G1 X65.744 Y73.026 E0.03322
G1 X71.589 Y78.872 E0.40018
G1 X71.589 Y78.185 E0.03322
G1 X65.744 Y72.340 E0.40018
G1 X65.744 Y71.654 E0.03322
G1 X71.589 Y77.499 E0.40018
G1 X71.589 Y76.813 E0.03322
G1 X65.744 Y70.968 E0.40018
G1 X65.744 Y70.282 E0.03322
G1 X71.589 Y76.127 E0.40018
G1 X71.589 Y75.441 E0.03322
G1 X65.744 Y69.596 E0.40018
G1 X65.744 Y68.910 E0.03322
G1 X71.589 Y74.755 E0.40018
G1 X71.589 Y74.069 E0.03322
G1 X65.744 Y68.223 E0.40018
G1 X65.744 Y67.537 E0.03322
G1 X71.589 Y73.382 E0.40018
G1 X71.589 Y72.696 E0.03322
G1 X65.744 Y66.851 E0.40018
G1 X65.744 Y66.165 E0.03322
G1 X71.589 Y72.010 E0.40018
G1 X71.589 Y71.324 E0.03322
G1 X65.744 Y65.479 E0.40018
G1 X65.744 Y64.793 E0.03322
G1 X71.874 Y70.923 E0.41967
G1 X72.560 Y70.923 E0.03322
G1 X65.744 Y64.107 E0.46664
G1 X65.744 Y63.420 E0.03322
G1 X73.246 Y70.923 E0.51362
G1 X73.589 Y70.579 E0.02349
G1 X66.087 Y63.077 E0.51362
G1 X66.773 Y63.077 E0.03322
G1 X73.589 Y69.893 E0.46664
G1 X73.589 Y69.207 E0.03322
G1 X67.459 Y63.077 E0.41967
G1 X68.146 Y63.077 E0.03322
G1 X73.991 Y68.923 E0.40018
G1 X74.677 Y68.923 E0.03322
G1 X68.832 Y63.077 E0.40018
G1 X69.518 Y63.077 E0.03322
G1 X75.363 Y68.923 E0.40018
G1 X76.049 Y68.923 E0.03322
G1 X70.204 Y63.077 E0.40018
G1 X70.890 Y63.077 E0.03322
G1 X76.735 Y68.923 E0.40018
G1 X77.421 Y68.923 E0.03322
G1 X71.576 Y63.077 E0.40018
G1 X72.262 Y63.077 E0.03322
G1 X78.108 Y68.923 E0.40018
G1 X78.794 Y68.923 E0.03322
G1 X72.949 Y63.077 E0.40018
G1 X73.635 Y63.077 E0.03322
G1 X79.480 Y68.923 E0.40018
G1 X80.166 Y68.923 E0.03322
G1 X74.321 Y63.077 E0.40018
G1 X75.007 Y63.077 E0.03322
G1 X80.852 Y68.923 E0.40018
G1 X81.538 Y68.923 E0.03322
G1 X75.693 Y63.077 E0.40018
G1 X76.379 Y63.077 E0.03322
G1 X82.224 Y68.923 E0.40018
G1 X82.911 Y68.923 E0.03322
G1 X77.065 Y63.077 E0.40018
G1 X77.752 Y63.077 E0.03322
G1 X83.597 Y68.923 E0.40018
G1 X84.283 Y68.923 E0.03322
G1 X78.438 Y63.077 E0.40018
G1 X79.124 Y63.077 E0.03322
G1 X84.969 Y68.923 E0.40018
G1 X85.655 Y68.923 E0.03322
G1 X79.810 Y63.077 E0.40018
G1 X80.496 Y63.077 E0.03322
G1 X86.341 Y68.923 E0.40018
G1 X87.027 Y68.923 E0.03322
G1 X81.182 Y63.077 E0.40018
G1 X81.868 Y63.077 E0.03322
G1 X87.714 Y68.923 E0.40018
G1 X88.400 Y68.923 E0.03322
G1 X82.555 Y63.077 E0.40018
G1 X83.241 Y63.077 E0.03322
G1 X89.086 Y68.923 E0.40018
G1 X89.772 Y68.923 E0.03322
G1 X83.927 Y63.077 E0.40018
G1 X84.613 Y63.077 E0.03322
G1 X90.458 Y68.923 E0.40018
G1 X91.144 Y68.923 E0.03322
G1 X85.299 Y63.077 E0.40018
G1 X85.985 Y63.077 E0.03322
G1 X91.830 Y68.923 E0.40018
G1 X92.517 Y68.923 E0.03322
G1 X86.671 Y63.077 E0.40018
G1 X87.358 Y63.077 E0.03322
G1 X93.203 Y68.923 E0.40018
G1 X93.889 Y68.923 E0.03322
G1 X88.044 Y63.077 E0.40018
G1 X88.730 Y63.077 E0.03322
G1 X94.575 Y68.923 E0.40018
G1 X95.261 Y68.923 E0.03322
G1 X89.416 Y63.077 E0.40018
G1 X90.102 Y63.077 E0.03322
G1 X95.947 Y68.923 E0.40018
G1 X96.633 Y68.923 E0.03322
G1 X90.788 Y63.077 E0.40018
G1 X91.474 Y63.077 E0.03322
G1 X97.320 Y68.923 E0.40018
G1 X98.006 Y68.923 E0.03322
G1 X92.161 Y63.077 E0.40018
G1 X92.847 Y63.077 E0.03322
G1 X98.692 Y68.923 E0.40018
G1 X99.378 Y68.923 E0.03322
G1 X93.533 Y63.077 E0.40018
G1 X94.219 Y63.077 E0.03322
G1 X100.064 Y68.923 E0.40018
G1 X100.750 Y68.923 E0.03322
G1 X94.905 Y63.077 E0.40018
G1 X95.591 Y63.077 E0.03322
G1 X101.436 Y68.923 E0.40018
G1 X102.123 Y68.923 E0.03322
G1 X96.277 Y63.077 E0.40018
G1 X96.964 Y63.077 E0.03322
G1 X102.809 Y68.923 E0.40018
G1 X103.495 Y68.923 E0.03322
G1 X97.650 Y63.077 E0.40018
G1 X98.336 Y63.077 E0.03322
G1 X104.181 Y68.923 E0.40018
G1 X104.867 Y68.923 E0.03322
G1 X99.022 Y63.077 E0.40018
G1 X99.708 Y63.077 E0.03322
G1 X105.553 Y68.923 E0.40018
G1 X106.239 Y68.923 E0.03322
G1 X100.394 Y63.077 E0.40018
G1 X101.080 Y63.077 E0.03322
G1 X106.926 Y68.923 E0.40018
G1 X107.612 Y68.923 E0.03322
G1 X101.767 Y63.077 E0.40018
G1 X102.453 Y63.077 E0.03322
G1 X108.298 Y68.923 E0.40018
G1 X108.984 Y68.923 E0.03322
G1 X103.139 Y63.077 E0.40018
G1 X103.825 Y63.077 E0.03322
G1 X109.670 Y68.923 E0.40018
G1 X110.356 Y68.923 E0.03322
G1 X104.511 Y63.077 E0.40018
G1 X105.197 Y63.077 E0.03322
G1 X111.042 Y68.923 E0.40018
G1 X111.729 Y68.923 E0.03322
G1 X105.883 Y63.077 E0.40018
G1 X106.570 Y63.077 E0.03322
G1 X112.415 Y68.923 E0.40018
G1 X113.101 Y68.923 E0.03322
G1 X107.256 Y63.077 E0.40018
G1 X107.942 Y63.077 E0.03322
G1 X113.787 Y68.923 E0.40018
G1 X114.473 Y68.923 E0.03322
G1 X108.628 Y63.077 E0.40018
G1 X109.314 Y63.077 E0.03322
G1 X115.159 Y68.923 E0.40018
G1 X115.845 Y68.923 E0.03322
G1 X110.000 Y63.077 E0.40018
G1 X110.686 Y63.077 E0.03322
G1 X116.532 Y68.923 E0.40018
G1 X117.218 Y68.923 E0.03322
G1 X111.373 Y63.077 E0.40018
G1 X112.059 Y63.077 E0.03322
G1 X117.904 Y68.923 E0.40018
G1 X118.590 Y68.923 E0.03322
G1 X112.745 Y63.077 E0.40018
G1 X113.431 Y63.077 E0.03322
G1 X119.276 Y68.923 E0.40018
G1 X119.962 Y68.923 E0.03322
G1 X114.117 Y63.077 E0.40018
G1 X114.803 Y63.077 E0.03322
G1 X120.648 Y68.923 E0.40018
G1 X121.334 Y68.923 E0.03322
G1 X115.489 Y63.077 E0.40018
G1 X116.175 Y63.077 E0.03322
G1 X122.021 Y68.923 E0.40018
G1 X122.707 Y68.923 E0.03322
G1 X116.862 Y63.077 E0.40018
G1 X117.548 Y63.077 E0.03322
G1 X123.393 Y68.923 E0.40018
G1 X124.079 Y68.923 E0.03322
G1 X118.234 Y63.077 E0.40018
G1 X118.920 Y63.077 E0.03322
G1 X124.765 Y68.923 E0.40018
G1 X125.451 Y68.923 E0.03322
G1 X119.606 Y63.077 E0.40018
G1 X120.292 Y63.077 E0.03322
G1 X126.137 Y68.923 E0.40018
G1 X126.824 Y68.923 E0.03322
G1 X120.978 Y63.077 E0.40018
G1 X121.665 Y63.077 E0.03322
G1 X127.510 Y68.923 E0.40018
G1 X128.196 Y68.923 E0.03322
G1 X122.351 Y63.077 E0.40018
G1 X123.037 Y63.077 E0.03322
G1 X128.882 Y68.923 E0.40018
G1 X129.568 Y68.923 E0.03322
G1 X123.723 Y63.077 E0.40018
G1 X124.409 Y63.077 E0.03322
G1 X130.254 Y68.923 E0.40018
G1 X130.940 Y68.923 E0.03322
G1 X125.095 Y63.077 E0.40018
G1 X125.781 Y63.077 E0.03322
G1 X131.627 Y68.923 E0.40018
G1 X132.313 Y68.923 E0.03322
G1 X126.468 Y63.077 E0.40018
G1 X127.154 Y63.077 E0.03322
G1 X132.999 Y68.923 E0.40018
G1 X133.685 Y68.923 E0.03322
G1 X127.840 Y63.077 E0.40018
G1 X128.526 Y63.077 E0.03322
G1 X134.371 Y68.923 E0.40018
G1 X135.057 Y68.923 E0.03322
G1 X129.212 Y63.077 E0.40018
G1 X129.898 Y63.077 E0.03322
G1 X135.743 Y68.923 E0.40018
G1 X136.430 Y68.923 E0.03322
G1 X130.584 Y63.077 E0.40018
G1 X131.271 Y63.077 E0.03322
G1 X137.116 Y68.923 E0.40018
G1 X137.802 Y68.923 E0.03322
G1 X131.957 Y63.077 E0.40018
G1 X132.643 Y63.077 E0.03322
G1 X138.488 Y68.923 E0.40018
G1 X139.174 Y68.923 E0.03322
G1 X133.329 Y63.077 E0.40018
G1 X134.015 Y63.077 E0.03322
G1 X139.860 Y68.923 E0.40018
G1 X140.546 Y68.923 E0.03322
G1 X134.701 Y63.077 E0.40018
G1 X135.387 Y63.077 E0.03322
G1 X141.233 Y68.923 E0.40018
G1 X141.919 Y68.923 E0.03322
G1 X136.074 Y63.077 E0.40018
G1 X136.760 Y63.077 E0.03322
G1 X142.605 Y68.923 E0.40018
G1 X143.291 Y68.923 E0.03322
G1 X137.446 Y63.077 E0.40018
G1 X138.132 Y63.077 E0.03322
