; generated by Slic3r 0.9.10b on 2013-12-05 at 21:07:27

; layer_height = 0.24
; perimeters = 2
; top_solid_layers = 4
; bottom_solid_layers = 3
; fill_density = 0.4
; perimeter_speed = 20
; infill_speed = 20
; travel_speed = 60
; nozzle_diameter = 0.5
; filament_diameter = 1.75
; extrusion_multiplier = 1
; perimeters extrusion width = 0.85mm
; infill extrusion width = 0.87mm
; solid infill extrusion width = 0.85mm
; top infill extrusion width = 0.85mm
; first layer extrusion width = 0.48mm

G21 ; set units to millimeters
G90 ; use absolute coordinates
M83 ; use relative distances for extrusion
M140 S57; Set bed temperature
G28 ; Home all axes
G1 Z5 F200 ; lift nozzle
G1 X2 Y50 F2000; Go to wait for warm position
M116; Wait for all temperatures
G10 P1 S200 R0 ; Set extruder temperature
T1; Select extruder
M116; Wait for all temperatures
G1 F1800.000 E-1.00000
G1 X83.486 Y74.398
G1 Z0.240 F3600.000
G1 F1800.000 E1.00000
G1 X83.956 Y73.928 F600.000 E0.03212
G1 X84.476 Y73.508 E0.03230
G1 X87.006 Y71.658 E0.15145
G1 X87.596 Y71.278 E0.03391
G1 X88.216 Y70.958 E0.03372
G1 X91.086 Y69.688 E0.15166
G1 X91.706 Y69.448 E0.03213
G1 X92.356 Y69.278 E0.03247
G1 X95.416 Y68.628 E0.15117
G1 X96.076 Y68.518 E0.03233
G1 X96.746 Y68.488 E0.03241
G1 X120.336 Y68.408 E1.13994
G1 X121.676 Y68.548 E0.06511
G1 X122.956 Y68.958 E0.06495
G1 X124.126 Y69.628 E0.06515
G1 X125.126 Y70.518 E0.06469
G1 X125.926 Y71.608 E0.06534
G1 X126.486 Y72.828 E0.06487
G1 X126.776 Y74.138 E0.06484
G1 X129.616 Y98.668 E1.19328
G1 X129.656 Y99.678 E0.04884
G1 X129.536 Y100.668 E0.04819
G1 X129.166 Y102.548 E0.09259
G1 X128.986 Y103.248 E0.03493
G1 X128.736 Y103.918 E0.03456
G1 X126.266 Y109.508 E0.29532
G1 X125.786 Y110.398 E0.04886
G1 X125.176 Y111.208 E0.04900
G1 X110.916 Y127.188 E1.03495
G1 X109.486 Y128.378 E0.08990
G1 X107.776 Y129.128 E0.09023
G1 X99.556 Y131.368 E0.41170
G1 X98.066 Y131.588 E0.07278
G1 X96.556 Y131.458 E0.07324
G1 X95.116 Y130.988 E0.07320
G1 X84.246 Y125.918 E0.57960
G1 X82.866 Y125.048 E0.07883
G1 X81.746 Y123.858 E0.07897
G1 X72.416 Y111.058 E0.76541
G1 X72.106 Y110.588 E0.02721
G1 X71.826 Y110.088 E0.02769
G1 X70.986 Y108.368 E0.09250
G1 X70.476 Y106.898 E0.07519
G1 X70.336 Y105.348 E0.07521
G1 X70.386 Y103.438 E0.09233
G1 X70.506 Y102.318 E0.05443
G1 X70.826 Y101.238 E0.05443
G1 X78.596 Y81.408 E1.02918
G1 X79.026 Y80.528 E0.04733
G1 X80.596 Y77.818 E0.15134
G1 X80.966 Y77.248 E0.03284
G1 X81.386 Y76.728 E0.03230
G1 X83.437 Y74.452 E0.14806
G1 F1800.000 E-1.00000
G1 X88.469 Y78.922 F3600.000
G1 F1800.000 E1.00000
G1 X90.965 Y77.108 F420.000 E0.14907
G1 X93.669 Y75.905 E0.14303
G1 X93.783 Y75.854 E0.00604
G1 X96.801 Y75.212 E0.14907
G1 X99.886 Y75.212 E0.14907
G1 X102.781 Y75.828 E0.14303
G1 X102.903 Y75.854 E0.00604
G1 X105.721 Y77.108 E0.14907
G1 X108.217 Y78.922 E0.14907
G1 X110.198 Y81.121 E0.14303
G1 X110.281 Y81.214 E0.00604
G1 X111.824 Y83.886 E0.14907
G1 X112.777 Y86.820 E0.14907
G1 X113.100 Y89.888 E0.14907
G1 X112.777 Y92.956 E0.14907
G1 X112.602 Y93.494 E0.02734
G1 X118.165 Y96.088 E0.29659
G1 X118.585 Y96.017 E0.02060
G1 X118.585 Y75.130 E1.00931
G1 X120.101 Y75.130 E0.07324
G1 X120.101 Y96.075 E1.01214
G1 X121.172 Y96.425 E0.05441
G1 X122.424 Y97.711 E0.08675
G1 X122.935 Y99.432 E0.08675
G1 X122.587 Y101.193 E0.08675
G1 X121.462 Y102.591 E0.08675
G1 X120.101 Y103.182 E0.07167
G1 X120.101 Y106.646 E0.16739
G1 X118.585 Y106.646 E0.07324
G1 X118.585 Y103.215 E0.16578
G1 X118.025 Y103.174 E0.02718
G1 X116.501 Y102.224 E0.08675
G1 X115.834 Y101.087 E0.06372
G1 X110.322 Y98.517 E0.29389
G1 X108.217 Y100.854 E0.15200
G1 X105.751 Y102.646 E0.14729
G1 X104.879 Y102.646 E0.04215
G1 X106.236 Y104.153 E0.09802
G1 X107.256 Y105.920 E0.09856
G1 X107.887 Y107.859 E0.09856
G1 X108.100 Y109.888 E0.09856
G1 X107.887 Y111.916 E0.09856
G1 X107.256 Y113.856 E0.09856
G1 X106.236 Y115.623 E0.09856
G1 X104.872 Y117.138 E0.09856
G1 X103.086 Y118.436 E0.10663
G1 X107.026 Y120.273 E0.21005
G1 X105.963 Y122.553 E0.12157
G1 X100.072 Y119.806 E0.31410
G1 X97.747 Y124.790 E0.26578
G1 X87.311 Y119.923 E0.55647
G1 X89.635 Y114.939 E0.26578
G1 X83.744 Y112.192 E0.31410
G1 X84.807 Y109.912 E0.12157
G1 X88.784 Y111.766 E0.21205
G1 X88.587 Y109.888 E0.09126
G1 X88.800 Y107.859 E0.09856
G1 X89.430 Y105.920 E0.09856
G1 X90.450 Y104.153 E0.09856
G1 X91.807 Y102.646 E0.09802
G1 X90.935 Y102.646 E0.04215
G1 X89.056 Y101.281 E0.11222
G1 X84.347 Y105.232 E0.29707
G1 X83.997 Y106.504 E0.06372
G1 X82.771 Y107.815 E0.08675
G1 X81.076 Y108.406 E0.08675
G1 X79.301 Y108.142 E0.08675
G1 X77.851 Y107.083 E0.08675
G1 X77.060 Y105.472 E0.08675
G1 X77.108 Y103.677 E0.08675
G1 X77.985 Y102.111 E0.08675
G1 X79.489 Y101.131 E0.08675
G1 X80.802 Y101.007 E0.06372
G1 X85.527 Y97.042 E0.29811
G1 X84.862 Y95.890 E0.06426
G1 X83.909 Y92.956 E0.14907
G1 X83.587 Y89.888 E0.14907
G1 X83.909 Y86.820 E0.14907
G1 X84.862 Y83.886 E0.14907
G1 X86.405 Y81.214 E0.14907
G1 X88.421 Y78.976 E0.14556
G1 X88.924 Y79.087 F3600.000
G1 X88.795 Y79.284
G1 X91.208 Y77.530 F600.000 E0.14415
G1 X93.866 Y76.347 E0.14057
G1 X93.934 Y76.317 E0.00358
G1 X96.852 Y75.697 E0.14415
G1 X99.835 Y75.697 E0.14415
G1 X102.680 Y76.301 E0.14057
G1 X102.753 Y76.317 E0.00358
G1 X105.478 Y77.530 E0.14415
G1 X107.891 Y79.284 E0.14415
G1 X109.838 Y81.445 E0.14057
G1 X109.888 Y81.501 E0.00358
G1 X111.379 Y84.084 E0.14415
G1 X112.301 Y86.921 E0.14415
G1 X112.613 Y89.888 E0.14415
G1 X112.301 Y92.855 E0.14415
G1 X112.009 Y93.752 E0.04559
G1 X118.097 Y96.591 E0.32458
G1 X119.070 Y96.426 E0.04767
G1 X119.070 Y75.614 E1.00567
G1 X119.617 Y75.614 E0.02644
G1 X119.617 Y96.427 E1.00571
G1 X120.908 Y96.848 E0.06562
G1 X121.993 Y97.963 E0.07521
G1 X122.437 Y99.455 E0.07521
G1 X122.135 Y100.982 E0.07521
G1 X121.159 Y102.195 E0.07521
G1 X119.617 Y102.864 E0.08125
G1 X119.617 Y106.162 E0.15934
G1 X119.070 Y106.162 E0.02644
G1 X119.070 Y102.765 E0.16411
G1 X118.179 Y102.700 E0.04314
G1 X116.858 Y101.877 E0.07521
G1 X116.175 Y100.712 E0.06524
G1 X110.202 Y97.926 E0.31850
G1 X107.891 Y100.492 E0.16685
G1 X105.594 Y102.162 E0.13723
G1 X103.791 Y102.162 E0.08710
G1 X105.842 Y104.439 E0.14812
G1 X106.811 Y106.118 E0.09364
G1 X107.410 Y107.961 E0.09364
G1 X107.613 Y109.888 E0.09364
G1 X107.410 Y111.815 E0.09364
G1 X106.811 Y113.658 E0.09364
G1 X105.842 Y115.336 E0.09364
G1 X104.546 Y116.777 E0.09364
G1 X102.137 Y118.527 E0.14390
G1 X106.382 Y120.507 E0.22637
G1 X105.728 Y121.909 E0.07476
G1 X99.837 Y119.162 E0.31410
G1 X98.383 Y122.281 E0.16630
G1 X97.647 Y120.953 E0.07338
G1 X96.659 Y120.492 E0.05268
G1 X95.589 Y120.700 E0.05268
G1 X94.845 Y121.497 E0.05268
G1 X94.682 Y122.827 E0.06471
G1 X87.954 Y119.689 E0.35873
G1 X90.278 Y114.705 E0.26578
G1 X84.387 Y111.958 E0.31410
G1 X85.041 Y110.555 E0.07476
G1 X89.355 Y112.567 E0.23001
G1 X89.074 Y109.888 E0.13017
G1 X89.276 Y107.961 E0.09364
G1 X89.875 Y106.118 E0.09364
G1 X90.844 Y104.439 E0.09364
G1 X92.895 Y102.162 E0.14812
G1 X91.092 Y102.162 E0.08710
G1 X89.035 Y100.667 E0.12290
G1 X83.920 Y104.958 E0.32264
G1 X83.562 Y106.260 E0.06524
G1 X82.499 Y107.397 E0.07521
G1 X81.029 Y107.910 E0.07521
G1 X79.490 Y107.681 E0.07521
G1 X78.233 Y106.762 E0.07521
G1 X77.547 Y105.365 E0.07521
G1 X77.589 Y103.809 E0.07521
G1 X78.349 Y102.451 E0.07521
G1 X79.653 Y101.602 E0.07521
G1 X80.997 Y101.475 E0.06524
G1 X86.150 Y97.151 E0.32504
G1 X85.307 Y95.692 E0.08144
G1 X84.385 Y92.855 E0.14415
G1 X84.074 Y89.888 E0.14415
G1 X84.385 Y86.921 E0.14415
G1 X85.307 Y84.084 E0.14415
G1 X86.799 Y81.501 E0.14415
G1 X88.746 Y79.338 E0.14064
G1 F1800.000 E-1.00000
G1 X83.693 Y79.345 F3600.000
G1 X73.921 Y102.890
G1 X73.788 Y106.211
G1 X85.118 Y122.478
G1 X97.408 Y128.209
G1 X96.597 Y120.998
G1 F1800.000 E1.00000
G1 X97.300 Y121.325 F600.000 E0.03747
G1 X97.675 Y122.003 E0.03747
G1 X97.662 Y122.111 E0.00524
G1 X97.581 Y122.773 E0.03223
G1 X97.052 Y123.340 E0.03747
G1 X96.291 Y123.488 E0.03747
G1 X95.588 Y123.160 E0.03747
G1 X95.212 Y122.482 E0.03747
G1 X95.307 Y121.713 E0.03747
G1 X95.836 Y121.146 E0.03747
G1 X96.525 Y121.011 E0.03396
G1 X96.738 Y121.461 F3600.000
G1 F1800.000 E-1.00000
G1 X97.535 Y121.151 F3600.000
G1 X96.557 Y113.133
G1 X95.385 Y113.557
G1 F1800.000 E1.00000
G1 X94.301 Y113.557 F600.000 E0.05240
G1 X93.424 Y112.919 E0.05240
G1 X93.089 Y111.888 E0.05240
G1 X93.424 Y110.857 E0.05240
G1 X94.301 Y110.219 E0.05240
G1 X95.385 Y110.219 E0.05240
G1 X96.263 Y110.857 E0.05240
G1 X96.598 Y111.888 E0.05240
G1 X96.263 Y112.919 E0.05240
G1 X95.444 Y113.514 E0.04889
G1 X95.061 Y113.197 F3600.000
G1 X95.543 Y114.041
G1 X94.144 Y114.041 F600.000 E0.06761
G1 X93.012 Y113.219 E0.06761
G1 X92.579 Y111.888 E0.06761
G1 X93.012 Y110.557 E0.06761
G1 X94.144 Y109.735 E0.06761
G1 X95.543 Y109.735 E0.06761
G1 X96.675 Y110.557 E0.06761
G1 X97.107 Y111.888 E0.06761
G1 X96.675 Y113.219 E0.06761
G1 X95.602 Y113.998 E0.06410
G1 X100.386 Y112.802 F3600.000
G1 X100.089 Y111.888 F600.000 E0.04645
G1 X100.424 Y110.857 E0.05240
G1 X101.301 Y110.219 E0.05240
G1 X102.385 Y110.219 E0.05240
G1 X103.263 Y110.857 E0.05240
G1 X103.598 Y111.888 E0.05240
G1 X103.560 Y112.005 E0.00595
G1 X103.263 Y112.919 E0.04645
G1 X102.385 Y113.557 E0.05240
G1 X101.301 Y113.557 E0.05240
G1 X100.424 Y112.919 E0.05240
G1 X100.408 Y112.871 E0.00244
G1 X100.710 Y112.442 F3600.000
G1 X99.925 Y112.952
G1 X99.579 Y111.888 F600.000 E0.05405
G1 X100.012 Y110.557 E0.06761
G1 X101.144 Y109.735 E0.06761
G1 X102.543 Y109.735 E0.06761
G1 X103.675 Y110.557 E0.06761
G1 X104.107 Y111.888 E0.06761
G1 X103.675 Y113.219 E0.06761
G1 X102.543 Y114.041 E0.06761
G1 X101.144 Y114.041 E0.06761
G1 X100.012 Y113.219 E0.06761
G1 X99.947 Y113.021 E0.01005
G1 X99.725 Y111.888 F3600.000
G1 X101.125 Y109.961
G1 X104.853 Y109.388
G1 X104.024 Y108.669
G1 X103.533 Y108.124 F600.000 E0.03543
G1 X102.221 Y107.171 E0.07836
G1 X100.740 Y106.511 E0.07836
G1 X99.154 Y106.174 E0.07836
G1 X97.532 Y106.174 E0.07836
G1 X95.946 Y106.511 E0.07836
G1 X94.465 Y107.171 E0.07836
G1 X93.153 Y108.124 E0.07836
G1 X92.662 Y108.669 E0.03543
G1 X92.282 Y108.449 E0.02123
G1 X92.640 Y107.349 E0.05591
G1 X93.292 Y106.218 E0.06307
G1 X94.166 Y105.248 E0.06307
G1 X95.221 Y104.481 E0.06307
G1 X96.414 Y103.950 E0.06307
G1 X97.691 Y103.679 E0.06307
G1 X98.996 Y103.679 E0.06307
G1 X100.273 Y103.950 E0.06307
G1 X101.465 Y104.481 E0.06307
G1 X102.521 Y105.248 E0.06307
G1 X103.394 Y106.218 E0.06307
G1 X104.047 Y107.349 E0.06307
G1 X104.404 Y108.449 E0.05591
G1 X104.087 Y108.632 E0.01772
G1 X103.957 Y108.189 F3600.000
G1 X103.208 Y108.486
G1 X101.978 Y107.592 F600.000 E0.07344
G1 X100.590 Y106.974 E0.07344
G1 X99.103 Y106.658 E0.07344
G1 X97.583 Y106.658 E0.07344
G1 X96.097 Y106.974 E0.07344
G1 X94.708 Y107.592 E0.07344
G1 X93.479 Y108.486 E0.07344
G1 X92.760 Y109.284 E0.05192
G1 X91.700 Y108.672 E0.05913
G1 X92.195 Y107.150 E0.07732
G1 X92.898 Y105.932 E0.06799
G1 X93.840 Y104.886 E0.06799
G1 X94.978 Y104.059 E0.06799
G1 X96.263 Y103.487 E0.06799
G1 X97.640 Y103.194 E0.06799
G1 X99.047 Y103.194 E0.06799
G1 X100.423 Y103.487 E0.06799
G1 X101.708 Y104.059 E0.06799
G1 X102.847 Y104.886 E0.06799
G1 X103.788 Y105.932 E0.06799
G1 X104.492 Y107.150 E0.06799
G1 X104.986 Y108.672 E0.07732
G1 X103.926 Y109.284 E0.05913
G1 X103.256 Y108.540 E0.04841
G1 X102.469 Y109.961 F3600.000
G1 X104.853 Y109.388
G1 X105.153 Y109.092
G1 X102.705 Y105.036
G1 X97.843 Y99.427
G1 X98.731 Y99.081
G1 X97.956 Y99.081 F600.000 E0.03747
G1 X97.328 Y98.625 E0.03747
G1 X97.089 Y97.888 E0.03747
G1 X97.328 Y97.151 E0.03747
G1 X97.956 Y96.695 E0.03747
G1 X98.731 Y96.695 E0.03747
G1 X99.358 Y97.151 E0.03747
G1 X99.598 Y97.888 E0.03747
G1 X99.358 Y98.625 E0.03747
G1 X98.790 Y99.038 E0.03396
G1 X98.407 Y98.721 F3600.000
G1 X98.888 Y99.565
G1 X97.798 Y99.565 F600.000 E0.05268
G1 X96.916 Y98.925 E0.05268
G1 X96.579 Y97.888 E0.05268
G1 X96.916 Y96.851 E0.05268
G1 X97.798 Y96.210 E0.05268
G1 X98.888 Y96.210 E0.05268
G1 X99.770 Y96.851 E0.05268
G1 X100.107 Y97.888 E0.05268
G1 X99.770 Y98.925 E0.05268
G1 X98.947 Y99.523 E0.04917
G1 X99.782 Y98.797 F3600.000
G1 X99.015 Y96.437
G1 X97.843 Y94.427
G1 X98.731 Y94.081
G1 X97.956 Y94.081 F600.000 E0.03747
G1 X97.328 Y93.625 E0.03747
G1 X97.089 Y92.888 E0.03747
G1 X97.328 Y92.151 E0.03747
G1 X97.956 Y91.695 E0.03747
G1 X98.731 Y91.695 E0.03747
G1 X99.358 Y92.151 E0.03747
G1 X99.598 Y92.888 E0.03747
G1 X99.358 Y93.625 E0.03747
G1 X98.790 Y94.038 E0.03396
G1 X98.407 Y93.721 F3600.000
G1 X98.888 Y94.565
G1 X97.798 Y94.565 F600.000 E0.05268
G1 X96.916 Y93.925 E0.05268
G1 X96.579 Y92.888 E0.05268
G1 X96.916 Y91.851 E0.05268
G1 X97.798 Y91.210 E0.05268
G1 X98.888 Y91.210 E0.05268
G1 X99.770 Y91.851 E0.05268
G1 X100.107 Y92.888 E0.05268
G1 X99.770 Y93.925 E0.05268
G1 X98.947 Y94.523 E0.04917
G1 X99.782 Y93.797 F3600.000
G1 X99.015 Y91.437
G1 X97.843 Y89.427
G1 X98.731 Y89.081
G1 X97.956 Y89.081 F600.000 E0.03747
G1 X97.328 Y88.625 E0.03747
G1 X97.089 Y87.888 E0.03747
G1 X97.328 Y87.151 E0.03747
G1 X97.956 Y86.695 E0.03747
G1 X98.731 Y86.695 E0.03747
G1 X99.358 Y87.151 E0.03747
G1 X99.598 Y87.888 E0.03747
G1 X99.358 Y88.625 E0.03747
G1 X98.790 Y89.038 E0.03396
G1 X98.407 Y88.721 F3600.000
G1 X98.888 Y89.565
G1 X97.798 Y89.565 F600.000 E0.05268
G1 X96.916 Y88.925 E0.05268
G1 X96.579 Y87.888 E0.05268
G1 X96.916 Y86.851 E0.05268
G1 X97.798 Y86.210 E0.05268
G1 X98.888 Y86.210 E0.05268
G1 X99.770 Y86.851 E0.05268
G1 X100.107 Y87.888 E0.05268
G1 X99.770 Y88.925 E0.05268
G1 X98.947 Y89.523 E0.04917
G1 X98.641 Y90.860 F3600.000
G1 X97.698 Y89.916 F600.000 E0.06459
G1 X98.385 Y89.916 E0.03325
G1 X108.149 Y99.681 E0.66882
G1 X108.475 Y99.320 E0.02354
G1 X99.042 Y89.887 E0.64606
G1 X99.440 Y89.599 E0.02380
G1 X108.800 Y98.959 E0.64111
G1 X109.125 Y98.598 E0.02354
G1 X99.837 Y89.310 E0.63615
G1 X100.139 Y88.925 E0.02368
G1 X109.450 Y98.236 E0.63776
G1 X109.776 Y97.875 E0.02354
G1 X100.307 Y88.407 E0.64851
G1 X100.476 Y87.889 E0.02638
G1 X110.101 Y97.514 E0.65925
G1 X111.346 Y98.073 E0.06609
G1 X100.146 Y86.873 E0.76710
G1 X99.480 Y86.206 F3600.000
G1 X91.225 Y77.952 F600.000 E0.56538
G1 X90.828 Y78.241 E0.02380
G1 X98.446 Y85.859 E0.52184
G1 X97.760 Y85.859 E0.03325
G1 X90.430 Y78.530 E0.50205
G1 X90.032 Y78.818 E0.02380
G1 X97.330 Y86.116 E0.49986
G1 X96.933 Y86.405 E0.02380
G1 X89.635 Y79.107 E0.49986
G1 X89.237 Y79.396 E0.02380
G1 X96.583 Y86.742 E0.50312
G1 X96.414 Y87.260 E0.02638
G1 X88.875 Y79.720 E0.51643
G1 X88.549 Y80.081 E0.02354
G1 X96.246 Y87.778 E0.52718
G1 X96.470 Y88.689 E0.04543
G1 X88.224 Y80.442 E0.56482
G1 X87.899 Y80.803 E0.02354
G1 X97.955 Y90.860 E0.68877
G1 X97.443 Y91.034 E0.02618
G1 X87.574 Y81.165 E0.67601
G1 X87.248 Y81.526 E0.02354
G1 X97.046 Y91.323 E0.67106
G1 X96.648 Y91.612 E0.02380
G1 X86.960 Y81.924 E0.66359
G1 X86.709 Y82.359 E0.02434
G1 X96.462 Y92.113 E0.66806
G1 X96.294 Y92.631 E0.02638
G1 X86.457 Y82.794 E0.67374
G1 X86.206 Y83.229 E0.02434
G1 X96.377 Y93.400 E0.69661
G1 X97.893 Y94.916 F3600.000
G1 X98.836 Y95.860 F600.000 E0.06459
G1 X98.150 Y95.860 E0.03325
G1 X85.955 Y83.664 E0.83527
G1 X85.704 Y84.100 E0.02434
G1 X97.556 Y95.952 E0.81183
G1 X97.159 Y96.241 E0.02380
G1 X85.511 Y84.593 E0.79780
G1 X85.343 Y85.112 E0.02638
G1 X96.761 Y96.530 E0.78210
G1 X96.510 Y96.965 E0.02434
G1 X85.174 Y85.630 E0.77643
G1 X85.006 Y86.148 E0.02638
G1 X96.342 Y97.484 E0.77643
G1 X96.283 Y98.111 E0.03053
G1 X84.837 Y86.666 E0.78393
G1 X84.707 Y87.222 E0.02765
G1 X96.613 Y99.128 E0.81551
G1 X96.651 Y99.166 F3600.000
G1 X100.720 Y103.235 F600.000 E0.27870
G1 X99.793 Y102.994 E0.04641
G1 X84.642 Y87.843 E1.03777
G1 X84.576 Y88.464 E0.03025
G1 X98.956 Y102.843 E0.98490
G1 X98.269 Y102.843 E0.03325
G1 X84.511 Y89.085 E0.94236
G1 X84.446 Y89.706 E0.03025
G1 X97.586 Y102.847 E0.90005
G1 X97.020 Y102.967 E0.02803
G1 X84.484 Y90.431 E0.85868
G1 X84.564 Y91.198 E0.03735
G1 X96.454 Y103.088 E0.81438
G1 X95.931 Y103.251 E0.02655
G1 X84.645 Y91.965 E0.77302
G1 X84.725 Y92.732 E0.03735
G1 X95.456 Y103.462 E0.73497
G1 X94.981 Y103.674 E0.02518
G1 X93.415 Y102.108 E0.10723
G1 X93.118 Y101.811 F3600.000
G1 X85.040 Y93.732 F600.000 E0.55330
G1 X85.370 Y94.749 E0.05178
G1 X92.431 Y101.811 E0.48365
G1 X91.745 Y101.811 E0.03325
