; generated by Slic3r 0.9.10b on 2013-11-13 at 15:04:04

; layer_height = 0.24
; perimeters = 2
; top_solid_layers = 4
; bottom_solid_layers = 3
; fill_density = 0.4
; perimeter_speed = 30
; infill_speed = 40
; travel_speed = 60
; nozzle_diameter = 0.3
; filament_diameter = 1.75
; extrusion_multiplier = 1
; perimeters extrusion width = 0.32mm
; infill extrusion width = 0.32mm
; solid infill extrusion width = 0.32mm
; top infill extrusion width = 0.32mm
; first layer extrusion width = 0.48mm

G21 ; set units to millimeters
M107
M104 S205 ; set temperature
G28 ; home all axes
G1 Z5 F200 ; lift nozzle
M109 S205 ; wait for temperature to be reached
G90 ; use absolute coordinates
M83 ; use relative distances for extrusion
G1 F1800.000 E-1.00000
G1 Z0.240 F3600.000
G1 X53.660 Y50.563
G1 F1800.000 E1.00000
G1 X54.660 Y49.643 F540.000 E0.05984
G1 X55.840 Y48.953 E0.06020
G1 X57.130 Y48.523 E0.05989
G1 X58.490 Y48.383 E0.06021
G1 X148.500 Y48.383 E3.96406
G1 X149.760 Y48.503 E0.05574
G1 X150.970 Y48.873 E0.05572
G1 X152.080 Y49.463 E0.05536
G1 X153.050 Y50.273 E0.05565
G1 X153.860 Y51.243 E0.05565
G1 X154.450 Y52.353 E0.05536
G1 X154.820 Y53.563 E0.05572
G1 X154.940 Y54.823 E0.05574
G1 X154.940 Y62.823 E0.35232
G1 X154.800 Y64.153 E0.05890
G1 X154.400 Y65.413 E0.05822
G1 X153.740 Y66.573 E0.05878
G1 X152.850 Y67.573 E0.05896
G1 X62.970 Y149.923 E5.36856
G1 X61.900 Y150.713 E0.05858
G1 X60.690 Y151.273 E0.05872
G1 X59.390 Y151.563 E0.05866
G1 X58.060 Y151.593 E0.05859
G1 X50.940 Y150.973 E0.31475
G1 X49.600 Y150.713 E0.06011
G1 X48.350 Y150.173 E0.05997
G1 X47.240 Y149.383 E0.06000
G1 X46.320 Y148.383 E0.05984
G1 X45.630 Y147.203 E0.06020
G1 X45.200 Y145.913 E0.05989
G1 X45.060 Y144.553 E0.06021
G1 X45.060 Y134.833 E0.42807
G1 X45.080 Y134.273 E0.02468
G1 X52.070 Y54.263 E3.53708
G1 X52.330 Y52.923 E0.06011
G1 X52.870 Y51.673 E0.05997
G1 X53.622 Y50.617 E0.05709
G1 F1800.000 E-1.00000
G1 X59.107 Y55.485 F3600.000
G1 F1800.000 E1.00000
G1 X147.838 Y55.485 F540.000 E3.90775
G1 X147.838 Y62.161 E0.29401
G1 X65.224 Y62.161 E3.63834
G1 X65.037 Y64.296 E0.09441
G1 X66.221 Y65.479 E0.07371
G1 X64.810 Y66.890 E0.08784
G1 X58.024 Y144.460 E3.42927
G1 X52.162 Y143.947 E0.25913
G1 X52.162 Y134.862 E0.40012
G1 X59.101 Y55.551 E3.50623
G1 X58.702 Y55.043 F3600.000
G1 X148.279 Y55.043 F378.000 E3.94500
G1 X148.279 Y62.602 E0.33288
G1 X65.628 Y62.602 E3.63997
G1 X65.495 Y64.129 E0.06753
G1 X66.845 Y65.479 E0.08408
G1 X65.236 Y67.088 E0.10020
G1 X58.425 Y144.938 E3.44163
G1 X51.721 Y144.352 E0.29638
G1 X51.721 Y134.843 E0.41878
G1 X58.696 Y55.109 E3.52489
G1 X59.078 Y55.275 F3600.000
G1 X147.167 Y55.805
G1 X147.518 Y56.155 F720.000 E0.02186
G1 X147.518 Y56.780 E0.02755
G1 X146.543 Y55.805 E0.06083
G1 X145.918 Y55.805 E0.02755
G1 X147.518 Y57.405 E0.09979
G1 X147.518 Y58.030 E0.02755
G1 X145.293 Y55.805 E0.13876
G1 X144.668 Y55.805 E0.02755
G1 X147.518 Y58.655 E0.17772
G1 X147.518 Y59.280 E0.02755
G1 X144.043 Y55.805 E0.21669
G1 X143.418 Y55.805 E0.02755
G1 X147.518 Y59.905 E0.25565
G1 X147.518 Y60.529 E0.02755
G1 X142.793 Y55.805 E0.29462
G1 X142.168 Y55.805 E0.02755
G1 X147.518 Y61.154 E0.33358
G1 X147.518 Y61.779 E0.02755
G1 X141.543 Y55.805 E0.37255
G1 X140.918 Y55.805 E0.02755
G1 X146.955 Y61.841 E0.37637
G1 X146.330 Y61.841 E0.02755
G1 X140.293 Y55.805 E0.37637
G1 X139.669 Y55.805 E0.02755
G1 X145.705 Y61.841 E0.37637
G1 X145.080 Y61.841 E0.02755
G1 X139.044 Y55.805 E0.37637
G1 X138.419 Y55.805 E0.02755
G1 X144.455 Y61.841 E0.37637
G1 X143.830 Y61.841 E0.02755
G1 X137.794 Y55.805 E0.37637
G1 X137.169 Y55.805 E0.02755
G1 X143.205 Y61.841 E0.37637
G1 X142.580 Y61.841 E0.02755
G1 X136.544 Y55.805 E0.37637
G1 X135.919 Y55.805 E0.02755
G1 X141.955 Y61.841 E0.37637
G1 X141.330 Y61.841 E0.02755
G1 X135.294 Y55.805 E0.37637
G1 X134.669 Y55.805 E0.02755
G1 X140.705 Y61.841 E0.37637
G1 X140.081 Y61.841 E0.02755
G1 X134.044 Y55.805 E0.37637
G1 X133.420 Y55.805 E0.02755
G1 X139.456 Y61.841 E0.37637
G1 X138.831 Y61.841 E0.02755
G1 X132.795 Y55.805 E0.37637
G1 X132.170 Y55.805 E0.02755
G1 X138.206 Y61.841 E0.37637
G1 X137.581 Y61.841 E0.02755
G1 X131.545 Y55.805 E0.37637
G1 X130.920 Y55.805 E0.02755
G1 X136.956 Y61.841 E0.37637
G1 X136.331 Y61.841 E0.02755
G1 X130.295 Y55.805 E0.37637
G1 X129.670 Y55.805 E0.02755
G1 X135.706 Y61.841 E0.37637
G1 X135.081 Y61.841 E0.02755
G1 X129.045 Y55.805 E0.37637
G1 X128.420 Y55.805 E0.02755
G1 X134.456 Y61.841 E0.37637
G1 X133.832 Y61.841 E0.02755
G1 X127.795 Y55.805 E0.37637
G1 X127.170 Y55.805 E0.02755
G1 X133.207 Y61.841 E0.37637
G1 X132.582 Y61.841 E0.02755
G1 X126.546 Y55.805 E0.37637
G1 X125.921 Y55.805 E0.02755
G1 X131.957 Y61.841 E0.37637
G1 X131.332 Y61.841 E0.02755
G1 X125.296 Y55.805 E0.37637
G1 X124.671 Y55.805 E0.02755
G1 X130.707 Y61.841 E0.37637
G1 X130.082 Y61.841 E0.02755
G1 X124.046 Y55.805 E0.37637
G1 X123.421 Y55.805 E0.02755
G1 X129.457 Y61.841 E0.37637
G1 X128.832 Y61.841 E0.02755
G1 X122.796 Y55.805 E0.37637
G1 X122.171 Y55.805 E0.02755
G1 X128.207 Y61.841 E0.37637
G1 X127.582 Y61.841 E0.02755
G1 X121.546 Y55.805 E0.37637
G1 X120.921 Y55.805 E0.02755
G1 X126.958 Y61.841 E0.37637
G1 X126.333 Y61.841 E0.02755
G1 X120.296 Y55.805 E0.37637
G1 X119.672 Y55.805 E0.02755
G1 X125.708 Y61.841 E0.37637
G1 X125.083 Y61.841 E0.02755
G1 X119.047 Y55.805 E0.37637
G1 X118.422 Y55.805 E0.02755
G1 X124.458 Y61.841 E0.37637
G1 X123.833 Y61.841 E0.02755
G1 X117.797 Y55.805 E0.37637
G1 X117.172 Y55.805 E0.02755
G1 X123.208 Y61.841 E0.37637
G1 X122.583 Y61.841 E0.02755
G1 X116.547 Y55.805 E0.37637
G1 X115.922 Y55.805 E0.02755
G1 X121.958 Y61.841 E0.37637
G1 X121.333 Y61.841 E0.02755
G1 X115.297 Y55.805 E0.37637
G1 X114.672 Y55.805 E0.02755
G1 X120.708 Y61.841 E0.37637
G1 X120.084 Y61.841 E0.02755
G1 X114.047 Y55.805 E0.37637
G1 X113.423 Y55.805 E0.02755
G1 X119.459 Y61.841 E0.37637
G1 X118.834 Y61.841 E0.02755
G1 X112.798 Y55.805 E0.37637
G1 X112.173 Y55.805 E0.02755
G1 X118.209 Y61.841 E0.37637
G1 X117.584 Y61.841 E0.02755
G1 X111.548 Y55.805 E0.37637
G1 X110.923 Y55.805 E0.02755
G1 X116.959 Y61.841 E0.37637
G1 X116.334 Y61.841 E0.02755
G1 X110.298 Y55.805 E0.37637
G1 X109.673 Y55.805 E0.02755
G1 X115.709 Y61.841 E0.37637
G1 X115.084 Y61.841 E0.02755
G1 X109.048 Y55.805 E0.37637
G1 X108.423 Y55.805 E0.02755
G1 X114.459 Y61.841 E0.37637
G1 X113.835 Y61.841 E0.02755
G1 X107.798 Y55.805 E0.37637
G1 X107.173 Y55.805 E0.02755
G1 X113.210 Y61.841 E0.37637
G1 X112.585 Y61.841 E0.02755
G1 X106.549 Y55.805 E0.37637
G1 X105.924 Y55.805 E0.02755
G1 X111.960 Y61.841 E0.37637
G1 X111.335 Y61.841 E0.02755
G1 X105.299 Y55.805 E0.37637
G1 X104.674 Y55.805 E0.02755
G1 X110.710 Y61.841 E0.37637
G1 X110.085 Y61.841 E0.02755
G1 X104.049 Y55.805 E0.37637
G1 X103.424 Y55.805 E0.02755
G1 X109.460 Y61.841 E0.37637
G1 X108.835 Y61.841 E0.02755
G1 X102.799 Y55.805 E0.37637
G1 X102.174 Y55.805 E0.02755
G1 X108.210 Y61.841 E0.37637
G1 X107.585 Y61.841 E0.02755
G1 X101.549 Y55.805 E0.37637
G1 X100.924 Y55.805 E0.02755
G1 X106.961 Y61.841 E0.37637
G1 X106.336 Y61.841 E0.02755
G1 X100.300 Y55.805 E0.37637
G1 X99.675 Y55.805 E0.02755
G1 X105.711 Y61.841 E0.37637
G1 X105.086 Y61.841 E0.02755
G1 X99.050 Y55.805 E0.37637
G1 X98.425 Y55.805 E0.02755
G1 X104.461 Y61.841 E0.37637
G1 X103.836 Y61.841 E0.02755
G1 X97.800 Y55.805 E0.37637
G1 X97.175 Y55.805 E0.02755
G1 X103.211 Y61.841 E0.37637
G1 X102.586 Y61.841 E0.02755
G1 X96.550 Y55.805 E0.37637
G1 X95.925 Y55.805 E0.02755
G1 X101.961 Y61.841 E0.37637
G1 X101.336 Y61.841 E0.02755
G1 X95.300 Y55.805 E0.37637
G1 X94.675 Y55.805 E0.02755
G1 X100.711 Y61.841 E0.37637
G1 X100.087 Y61.841 E0.02755
G1 X94.050 Y55.805 E0.37637
G1 X93.426 Y55.805 E0.02755
G1 X99.462 Y61.841 E0.37637
G1 X98.837 Y61.841 E0.02755
G1 X92.801 Y55.805 E0.37637
G1 X92.176 Y55.805 E0.02755
G1 X98.212 Y61.841 E0.37637
G1 X97.587 Y61.841 E0.02755
G1 X91.551 Y55.805 E0.37637
G1 X90.926 Y55.805 E0.02755
G1 X96.962 Y61.841 E0.37637
G1 X96.337 Y61.841 E0.02755
G1 X90.301 Y55.805 E0.37637
G1 X89.676 Y55.805 E0.02755
G1 X95.712 Y61.841 E0.37637
G1 X95.087 Y61.841 E0.02755
G1 X89.051 Y55.805 E0.37637
G1 X88.426 Y55.805 E0.02755
G1 X94.462 Y61.841 E0.37637
G1 X93.838 Y61.841 E0.02755
G1 X87.801 Y55.805 E0.37637
G1 X87.176 Y55.805 E0.02755
G1 X93.213 Y61.841 E0.37637
G1 X92.588 Y61.841 E0.02755
G1 X86.552 Y55.805 E0.37637
G1 X85.927 Y55.805 E0.02755
G1 X91.963 Y61.841 E0.37637
G1 X91.338 Y61.841 E0.02755
G1 X85.302 Y55.805 E0.37637
G1 X84.677 Y55.805 E0.02755
G1 X90.713 Y61.841 E0.37637
G1 X90.088 Y61.841 E0.02755
G1 X84.052 Y55.805 E0.37637
G1 X83.427 Y55.805 E0.02755
G1 X89.463 Y61.841 E0.37637
G1 X88.838 Y61.841 E0.02755
G1 X82.802 Y55.805 E0.37637
G1 X82.177 Y55.805 E0.02755
G1 X88.213 Y61.841 E0.37637
G1 X87.588 Y61.841 E0.02755
G1 X81.552 Y55.805 E0.37637
G1 X80.927 Y55.805 E0.02755
G1 X86.964 Y61.841 E0.37637
G1 X86.339 Y61.841 E0.02755
G1 X80.303 Y55.805 E0.37637
G1 X79.678 Y55.805 E0.02755
G1 X85.714 Y61.841 E0.37637
G1 X85.089 Y61.841 E0.02755
G1 X79.053 Y55.805 E0.37637
G1 X78.428 Y55.805 E0.02755
G1 X84.464 Y61.841 E0.37637
G1 X83.839 Y61.841 E0.02755
G1 X77.803 Y55.805 E0.37637
G1 X77.178 Y55.805 E0.02755
G1 X83.214 Y61.841 E0.37637
G1 X82.589 Y61.841 E0.02755
G1 X76.553 Y55.805 E0.37637
G1 X75.928 Y55.805 E0.02755
G1 X81.964 Y61.841 E0.37637
G1 X81.339 Y61.841 E0.02755
G1 X75.303 Y55.805 E0.37637
G1 X74.678 Y55.805 E0.02755
G1 X80.714 Y61.841 E0.37637
G1 X80.090 Y61.841 E0.02755
G1 X74.053 Y55.805 E0.37637
G1 X73.429 Y55.805 E0.02755
G1 X79.465 Y61.841 E0.37637
G1 X78.840 Y61.841 E0.02755
G1 X72.804 Y55.805 E0.37637
G1 X72.179 Y55.805 E0.02755
G1 X78.215 Y61.841 E0.37637
G1 X77.590 Y61.841 E0.02755
G1 X71.554 Y55.805 E0.37637
G1 X70.929 Y55.805 E0.02755
G1 X76.965 Y61.841 E0.37637
G1 X76.340 Y61.841 E0.02755
G1 X70.304 Y55.805 E0.37637
G1 X69.679 Y55.805 E0.02755
G1 X75.715 Y61.841 E0.37637
G1 X75.090 Y61.841 E0.02755
G1 X69.054 Y55.805 E0.37637
G1 X68.429 Y55.805 E0.02755
G1 X74.465 Y61.841 E0.37637
G1 X73.841 Y61.841 E0.02755
G1 X67.804 Y55.805 E0.37637
G1 X67.179 Y55.805 E0.02755
G1 X73.216 Y61.841 E0.37637
G1 X72.591 Y61.841 E0.02755
G1 X66.555 Y55.805 E0.37637
G1 X65.930 Y55.805 E0.02755
G1 X71.966 Y61.841 E0.37637
G1 X71.341 Y61.841 E0.02755
G1 X65.305 Y55.805 E0.37637
G1 X64.680 Y55.805 E0.02755
G1 X70.716 Y61.841 E0.37637
G1 X70.091 Y61.841 E0.02755
G1 X64.055 Y55.805 E0.37637
G1 X63.430 Y55.805 E0.02755
G1 X69.466 Y61.841 E0.37637
G1 X68.841 Y61.841 E0.02755
G1 X62.805 Y55.805 E0.37637
G1 X62.180 Y55.805 E0.02755
G1 X68.216 Y61.841 E0.37637
G1 X67.591 Y61.841 E0.02755
G1 X61.555 Y55.805 E0.37637
G1 X60.930 Y55.805 E0.02755
G1 X66.967 Y61.841 E0.37637
G1 X66.342 Y61.841 E0.02755
G1 X60.306 Y55.805 E0.37637
G1 X59.681 Y55.805 E0.02755
G1 X65.717 Y61.841 E0.37637
G1 X65.092 Y61.841 E0.02755
G1 X59.372 Y56.121 E0.35665
G1 X59.322 Y56.696 E0.02543
G1 X64.894 Y62.267 E0.34742
G1 X64.843 Y62.842 E0.02543
G1 X59.272 Y57.270 E0.34742
G1 X59.221 Y57.845 E0.02543
G1 X64.793 Y63.417 E0.34742
G1 X64.743 Y63.991 E0.02543
G1 X59.171 Y58.419 E0.34742
G1 X59.121 Y58.994 E0.02543
G1 X65.687 Y65.560 E0.40944
G1 X65.375 Y65.873 E0.01948
G1 X59.070 Y59.569 E0.39309
G1 X59.020 Y60.143 E0.02543
G1 X65.062 Y66.185 E0.37674
G1 X64.750 Y66.498 E0.01948
G1 X58.970 Y60.718 E0.36039
G1 X58.920 Y61.293 E0.02543
G1 X64.491 Y66.864 E0.34742
G1 X64.441 Y67.439 E0.02543
G1 X58.869 Y61.867 E0.34742
G1 X58.819 Y62.442 E0.02543
G1 X64.391 Y68.014 E0.34742
G1 X64.341 Y68.588 E0.02543
G1 X58.769 Y63.016 E0.34742
G1 X58.719 Y63.591 E0.02543
G1 X64.290 Y69.163 E0.34742
G1 X64.240 Y69.737 E0.02543
G1 X58.668 Y64.166 E0.34742
G1 X58.618 Y64.740 E0.02543
G1 X64.190 Y70.312 E0.34742
G1 X64.139 Y70.887 E0.02543
G1 X58.568 Y65.315 E0.34742
G1 X58.517 Y65.890 E0.02543
G1 X64.089 Y71.461 E0.34742
G1 X64.039 Y72.036 E0.02543
G1 X58.467 Y66.464 E0.34742
G1 X58.417 Y67.039 E0.02543
G1 X63.989 Y72.611 E0.34742
G1 X63.938 Y73.185 E0.02543
G1 X58.367 Y67.614 E0.34742
G1 X58.316 Y68.188 E0.02543
G1 X63.888 Y73.760 E0.34742
G1 X63.838 Y74.335 E0.02543
G1 X58.266 Y68.763 E0.34742
G1 X58.216 Y69.337 E0.02543
G1 X63.788 Y74.909 E0.34742
G1 X63.737 Y75.484 E0.02543
G1 X58.166 Y69.912 E0.34742
G1 X58.115 Y70.487 E0.02543
G1 X63.687 Y76.058 E0.34742
G1 X63.637 Y76.633 E0.02543
G1 X58.065 Y71.061 E0.34742
G1 X58.015 Y71.636 E0.02543
G1 X63.586 Y77.208 E0.34742
G1 X63.536 Y77.782 E0.02543
G1 X57.964 Y72.211 E0.34742
G1 X57.914 Y72.785 E0.02543
G1 X63.486 Y78.357 E0.34742
G1 X63.436 Y78.932 E0.02543
G1 X57.864 Y73.360 E0.34742
G1 X57.814 Y73.935 E0.02543
G1 X63.385 Y79.506 E0.34742
G1 X63.335 Y80.081 E0.02543
G1 X57.763 Y74.509 E0.34742
G1 X57.713 Y75.084 E0.02543
G1 X63.285 Y80.655 E0.34742
G1 X63.235 Y81.230 E0.02543
G1 X57.663 Y75.658 E0.34742
G1 X57.613 Y76.233 E0.02543
G1 X63.184 Y81.805 E0.34742
G1 X63.134 Y82.379 E0.02543
G1 X57.562 Y76.808 E0.34742
G1 X57.512 Y77.382 E0.02543
G1 X63.084 Y82.954 E0.34742
G1 X63.033 Y83.529 E0.02543
G1 X57.462 Y77.957 E0.34742
G1 X57.411 Y78.532 E0.02543
G1 X62.983 Y84.103 E0.34742
G1 X62.933 Y84.678 E0.02543
G1 X57.361 Y79.106 E0.34742
G1 X57.311 Y79.681 E0.02543
G1 X62.883 Y85.253 E0.34742
G1 X62.832 Y85.827 E0.02543
G1 X57.261 Y80.255 E0.34742
G1 X57.210 Y80.830 E0.02543
G1 X62.782 Y86.402 E0.34742
G1 X62.732 Y86.976 E0.02543
G1 X57.160 Y81.405 E0.34742
G1 X57.110 Y81.979 E0.02543
G1 X62.681 Y87.551 E0.34742
G1 X62.631 Y88.126 E0.02543
G1 X57.059 Y82.554 E0.34742
G1 X57.009 Y83.129 E0.02543
G1 X62.581 Y88.700 E0.34742
G1 X62.531 Y89.275 E0.02543
G1 X56.959 Y83.703 E0.34742
G1 X56.909 Y84.278 E0.02543
G1 X62.480 Y89.850 E0.34742
G1 X62.430 Y90.424 E0.02543
G1 X56.858 Y84.853 E0.34742
G1 X56.808 Y85.427 E0.02543
G1 X62.380 Y90.999 E0.34742
G1 X62.330 Y91.574 E0.02543
G1 X56.758 Y86.002 E0.34742
G1 X56.708 Y86.576 E0.02543
G1 X62.279 Y92.148 E0.34742
G1 X62.229 Y92.723 E0.02543
G1 X56.657 Y87.151 E0.34742
G1 X56.607 Y87.726 E0.02543
G1 X62.179 Y93.297 E0.34742
G1 X62.128 Y93.872 E0.02543
G1 X56.557 Y88.300 E0.34742
G1 X56.506 Y88.875 E0.02543
G1 X62.078 Y94.447 E0.34742
G1 X62.028 Y95.021 E0.02543
G1 X56.456 Y89.450 E0.34742
G1 X56.406 Y90.024 E0.02543
G1 X61.978 Y95.596 E0.34742
G1 X61.927 Y96.171 E0.02543
G1 X56.356 Y90.599 E0.34742
G1 X56.305 Y91.173 E0.02543
G1 X61.877 Y96.745 E0.34742
G1 X61.827 Y97.320 E0.02543
G1 X56.255 Y91.748 E0.34742
G1 X56.205 Y92.323 E0.02543
G1 X61.777 Y97.894 E0.34742
G1 X61.726 Y98.469 E0.02543
G1 X56.155 Y92.897 E0.34742
G1 X56.104 Y93.472 E0.02543
G1 X61.676 Y99.044 E0.34742
G1 X61.626 Y99.618 E0.02543
G1 X56.054 Y94.047 E0.34742
G1 X56.004 Y94.621 E0.02543
G1 X61.575 Y100.193 E0.34742
G1 X61.525 Y100.768 E0.02543
G1 X55.953 Y95.196 E0.34742
G1 X55.903 Y95.771 E0.02543
G1 X61.475 Y101.342 E0.34742
G1 X61.425 Y101.917 E0.02543
G1 X55.853 Y96.345 E0.34742
G1 X55.803 Y96.920 E0.02543
G1 X61.374 Y102.492 E0.34742
G1 X61.324 Y103.066 E0.02543
G1 X55.752 Y97.494 E0.34742
G1 X55.702 Y98.069 E0.02543
G1 X61.274 Y103.641 E0.34742
G1 X61.224 Y104.215 E0.02543
G1 X55.652 Y98.644 E0.34742
G1 X55.602 Y99.218 E0.02543
G1 X61.173 Y104.790 E0.34742
G1 X61.123 Y105.365 E0.02543
G1 X55.551 Y99.793 E0.34742
G1 X55.501 Y100.368 E0.02543
G1 X61.073 Y105.939 E0.34742
G1 X61.022 Y106.514 E0.02543
G1 X55.451 Y100.942 E0.34742
G1 X55.400 Y101.517 E0.02543
G1 X60.972 Y107.089 E0.34742
G1 X60.922 Y107.663 E0.02543
G1 X55.350 Y102.091 E0.34742
G1 X55.300 Y102.666 E0.02543
G1 X60.872 Y108.238 E0.34742
G1 X60.821 Y108.812 E0.02543
G1 X55.250 Y103.241 E0.34742
G1 X55.199 Y103.815 E0.02543
G1 X60.771 Y109.387 E0.34742
G1 X60.721 Y109.962 E0.02543
G1 X55.149 Y104.390 E0.34742
G1 X55.099 Y104.965 E0.02543
G1 X60.671 Y110.536 E0.34742
G1 X60.620 Y111.111 E0.02543
G1 X55.049 Y105.539 E0.34742
G1 X54.998 Y106.114 E0.02543
G1 X60.570 Y111.686 E0.34742
G1 X60.520 Y112.260 E0.02543
G1 X54.948 Y106.689 E0.34742
G1 X54.898 Y107.263 E0.02543
G1 X60.469 Y112.835 E0.34742
G1 X60.419 Y113.410 E0.02543
G1 X54.847 Y107.838 E0.34742
G1 X54.797 Y108.412 E0.02543
G1 X60.369 Y113.984 E0.34742
G1 X60.319 Y114.559 E0.02543
G1 X54.747 Y108.987 E0.34742
G1 X54.697 Y109.562 E0.02543
G1 X60.268 Y115.133 E0.34742
G1 X60.218 Y115.708 E0.02543
