; generated by Slic3r 0.9.10b on 2013-11-13 at 10:47:09

; layer_height = 0.24
; perimeters = 2
; top_solid_layers = 4
; bottom_solid_layers = 3
; fill_density = 0.4
; perimeter_speed = 20
; infill_speed = 20
; travel_speed = 60
; nozzle_diameter = 0.5
; filament_diameter = 1.75
; extrusion_multiplier = 1
; perimeters extrusion width = 0.85mm
; infill extrusion width = 0.87mm
; solid infill extrusion width = 0.85mm
; top infill extrusion width = 0.85mm
; first layer extrusion width = 0.48mm

G21 ; set units to millimeters
M107
M104 S205 ; set temperature
G21 ; set units to millimeters
G90 ; use absolute coordinates
M83 ; use relative distances for extrusion
M107; Fan off
G10 P0 S205 R205 ; Set extruder temperature
T0; Select extruder
M140 S55; Set bed temperature
G1 Z5 F200 ; lift nozzle
G28 X0 Y0; home X and Y axes
G1 X30 Y30 F2000; move to bed probe point
G28 Z0; zero Z
G32 ; Probe bed
G1 X0 Y0 F2000; Go to wait for warm position
G1 Z0 F200
M116; Wait for all temperatures
M109 S205 ; wait for temperature to be reached
G90 ; use absolute coordinates
M83 ; use relative distances for extrusion
G1 F1800.000 E-1.00000
G1 Z0.240 F3600.000
G1 X46.463 Y42.554
G1 F1800.000 E1.00000
G1 X47.473 Y41.624 F600.000 E0.06635
G1 X48.653 Y40.934 E0.06605
G1 X49.963 Y40.504 E0.06663
G1 X51.323 Y40.364 E0.06607
G1 X141.333 Y40.364 E4.34954
G1 X142.703 Y40.504 E0.06655
G1 X144.003 Y40.934 E0.06617
G1 X145.193 Y41.634 E0.06672
G1 X146.203 Y42.564 E0.06635
G1 X160.533 Y58.874 E1.04913
G1 X161.413 Y60.154 E0.07506
G1 X161.963 Y61.614 E0.07539
G1 X162.143 Y63.154 E0.07492
G1 X162.143 Y71.154 E0.38658
G1 X162.023 Y72.424 E0.06164
G1 X161.653 Y73.634 E0.06114
G1 X161.053 Y74.754 E0.06140
G1 X160.253 Y75.744 E0.06151
G1 X78.253 Y157.744 E5.60378
G1 X77.263 Y158.544 E0.06151
G1 X76.143 Y159.144 E0.06140
G1 X74.933 Y159.514 E0.06114
G1 X73.663 Y159.634 E0.06164
G1 X65.663 Y159.634 E0.38658
G1 X64.243 Y159.484 E0.06900
G1 X62.903 Y159.024 E0.06846
G1 X61.683 Y158.274 E0.06920
G1 X40.353 Y141.694 E1.30549
G1 X39.303 Y140.664 E0.07108
G1 X38.513 Y139.424 E0.07105
G1 X38.013 Y138.034 E0.07138
G1 X37.853 Y136.574 E0.07097
G1 X37.853 Y126.854 E0.46970
G1 X37.873 Y126.294 E0.02708
G1 X44.863 Y46.284 E3.88104
G1 X45.123 Y44.934 E0.06643
G1 X45.663 Y43.674 E0.06624
G1 X46.421 Y42.613 E0.06300
G1 F1800.000 E-1.00000
G1 X65.909 Y63.398 F3600.000
G1 F1800.000 E1.00000
G1 X155.425 Y63.398 F420.000 E4.32565
G1 X155.425 Y70.914 E0.36318
G1 X75.425 Y70.914 E3.86583
G1 X75.425 Y72.914 E0.09665
G1 X73.425 Y72.914 E0.09665
G1 X73.425 Y152.914 E3.86583
G1 X65.909 Y152.914 E0.36318
G1 X65.909 Y63.471 E4.32214
G1 X66.328 Y63.640 F3600.000
G1 X66.393 Y63.882
G1 X154.940 Y63.882 F600.000 E4.27885
G1 X154.940 Y70.429 E0.31638
G1 X74.940 Y70.429 E3.86583
G1 X74.940 Y72.429 E0.09665
G1 X72.940 Y72.429 E0.09665
G1 X72.940 Y152.429 E3.86583
G1 X66.393 Y152.429 E0.31638
G1 X66.393 Y63.955 E4.27534
G1 X67.106 Y152.079 F3600.000
G1 X66.744 Y151.716 F600.000 E0.02479
G1 X66.744 Y151.030 E0.03322
G1 X67.792 Y152.079 E0.07177
G1 X68.478 Y152.079 E0.03322
G1 X66.744 Y150.344 E0.11874
G1 X66.744 Y149.658 E0.03322
G1 X69.165 Y152.079 E0.16572
G1 X69.851 Y152.079 E0.03322
G1 X66.744 Y148.972 E0.21269
G1 X66.744 Y148.286 E0.03322
G1 X70.537 Y152.079 E0.25967
G1 X71.223 Y152.079 E0.03322
G1 X66.744 Y147.600 E0.30665
G1 X66.744 Y146.913 E0.03322
G1 X71.909 Y152.079 E0.35362
G1 X72.589 Y152.072 E0.03292
G1 X66.744 Y146.227 E0.40018
G1 X66.744 Y145.541 E0.03322
G1 X72.589 Y151.386 E0.40018
G1 X72.589 Y150.700 E0.03322
G1 X66.744 Y144.855 E0.40018
G1 X66.744 Y144.169 E0.03322
G1 X72.589 Y150.014 E0.40018
G1 X72.589 Y149.328 E0.03322
G1 X66.744 Y143.483 E0.40018
G1 X66.744 Y142.797 E0.03322
G1 X72.589 Y148.642 E0.40018
G1 X72.589 Y147.956 E0.03322
G1 X66.744 Y142.110 E0.40018
G1 X66.744 Y141.424 E0.03322
G1 X72.589 Y147.269 E0.40018
G1 X72.589 Y146.583 E0.03322
G1 X66.744 Y140.738 E0.40018
G1 X66.744 Y140.052 E0.03322
G1 X72.589 Y145.897 E0.40018
G1 X72.589 Y145.211 E0.03322
G1 X66.744 Y139.366 E0.40018
G1 X66.744 Y138.680 E0.03322
G1 X72.589 Y144.525 E0.40018
G1 X72.589 Y143.839 E0.03322
G1 X66.744 Y137.994 E0.40018
G1 X66.744 Y137.307 E0.03322
G1 X72.589 Y143.153 E0.40018
G1 X72.589 Y142.466 E0.03322
G1 X66.744 Y136.621 E0.40018
G1 X66.744 Y135.935 E0.03322
G1 X72.589 Y141.780 E0.40018
G1 X72.589 Y141.094 E0.03322
G1 X66.744 Y135.249 E0.40018
G1 X66.744 Y134.563 E0.03322
G1 X72.589 Y140.408 E0.40018
G1 X72.589 Y139.722 E0.03322
G1 X66.744 Y133.877 E0.40018
G1 X66.744 Y133.191 E0.03322
G1 X72.589 Y139.036 E0.40018
G1 X72.589 Y138.350 E0.03322
G1 X66.744 Y132.504 E0.40018
G1 X66.744 Y131.818 E0.03322
G1 X72.589 Y137.663 E0.40018
G1 X72.589 Y136.977 E0.03322
G1 X66.744 Y131.132 E0.40018
G1 X66.744 Y130.446 E0.03322
G1 X72.589 Y136.291 E0.40018
G1 X72.589 Y135.605 E0.03322
G1 X66.744 Y129.760 E0.40018
G1 X66.744 Y129.074 E0.03322
G1 X72.589 Y134.919 E0.40018
G1 X72.589 Y134.233 E0.03322
G1 X66.744 Y128.388 E0.40018
G1 X66.744 Y127.701 E0.03322
G1 X72.589 Y133.547 E0.40018
G1 X72.589 Y132.860 E0.03322
G1 X66.744 Y127.015 E0.40018
G1 X66.744 Y126.329 E0.03322
G1 X72.589 Y132.174 E0.40018
G1 X72.589 Y131.488 E0.03322
G1 X66.744 Y125.643 E0.40018
G1 X66.744 Y124.957 E0.03322
G1 X72.589 Y130.802 E0.40018
G1 X72.589 Y130.116 E0.03322
G1 X66.744 Y124.271 E0.40018
G1 X66.744 Y123.585 E0.03322
G1 X72.589 Y129.430 E0.40018
G1 X72.589 Y128.744 E0.03322
G1 X66.744 Y122.898 E0.40018
G1 X66.744 Y122.212 E0.03322
G1 X72.589 Y128.057 E0.40018
G1 X72.589 Y127.371 E0.03322
G1 X66.744 Y121.526 E0.40018
G1 X66.744 Y120.840 E0.03322
G1 X72.589 Y126.685 E0.40018
G1 X72.589 Y125.999 E0.03322
G1 X66.744 Y120.154 E0.40018
G1 X66.744 Y119.468 E0.03322
G1 X72.589 Y125.313 E0.40018
G1 X72.589 Y124.627 E0.03322
G1 X66.744 Y118.782 E0.40018
G1 X66.744 Y118.095 E0.03322
G1 X72.589 Y123.941 E0.40018
G1 X72.589 Y123.254 E0.03322
G1 X66.744 Y117.409 E0.40018
G1 X66.744 Y116.723 E0.03322
G1 X72.589 Y122.568 E0.40018
G1 X72.589 Y121.882 E0.03322
G1 X66.744 Y116.037 E0.40018
G1 X66.744 Y115.351 E0.03322
G1 X72.589 Y121.196 E0.40018
G1 X72.589 Y120.510 E0.03322
G1 X66.744 Y114.665 E0.40018
G1 X66.744 Y113.979 E0.03322
G1 X72.589 Y119.824 E0.40018
G1 X72.589 Y119.138 E0.03322
G1 X66.744 Y113.292 E0.40018
G1 X66.744 Y112.606 E0.03322
G1 X72.589 Y118.451 E0.40018
G1 X72.589 Y117.765 E0.03322
G1 X66.744 Y111.920 E0.40018
G1 X66.744 Y111.234 E0.03322
G1 X72.589 Y117.079 E0.40018
G1 X72.589 Y116.393 E0.03322
G1 X66.744 Y110.548 E0.40018
G1 X66.744 Y109.862 E0.03322
G1 X72.589 Y115.707 E0.40018
G1 X72.589 Y115.021 E0.03322
G1 X66.744 Y109.176 E0.40018
G1 X66.744 Y108.489 E0.03322
G1 X72.589 Y114.335 E0.40018
G1 X72.589 Y113.648 E0.03322
G1 X66.744 Y107.803 E0.40018
G1 X66.744 Y107.117 E0.03322
G1 X72.589 Y112.962 E0.40018
G1 X72.589 Y112.276 E0.03322
G1 X66.744 Y106.431 E0.40018
G1 X66.744 Y105.745 E0.03322
G1 X72.589 Y111.590 E0.40018
G1 X72.589 Y110.904 E0.03322
G1 X66.744 Y105.059 E0.40018
G1 X66.744 Y104.373 E0.03322
G1 X72.589 Y110.218 E0.40018
G1 X72.589 Y109.532 E0.03322
G1 X66.744 Y103.686 E0.40018
G1 X66.744 Y103.000 E0.03322
G1 X72.589 Y108.845 E0.40018
G1 X72.589 Y108.159 E0.03322
G1 X66.744 Y102.314 E0.40018
G1 X66.744 Y101.628 E0.03322
G1 X72.589 Y107.473 E0.40018
G1 X72.589 Y106.787 E0.03322
G1 X66.744 Y100.942 E0.40018
G1 X66.744 Y100.256 E0.03322
G1 X72.589 Y106.101 E0.40018
G1 X72.589 Y105.415 E0.03322
G1 X66.744 Y99.570 E0.40018
G1 X66.744 Y98.883 E0.03322
G1 X72.589 Y104.729 E0.40018
G1 X72.589 Y104.042 E0.03322
G1 X66.744 Y98.197 E0.40018
G1 X66.744 Y97.511 E0.03322
G1 X72.589 Y103.356 E0.40018
G1 X72.589 Y102.670 E0.03322
G1 X66.744 Y96.825 E0.40018
G1 X66.744 Y96.139 E0.03322
G1 X72.589 Y101.984 E0.40018
G1 X72.589 Y101.298 E0.03322
G1 X66.744 Y95.453 E0.40018
G1 X66.744 Y94.767 E0.03322
G1 X72.589 Y100.612 E0.40018
G1 X72.589 Y99.926 E0.03322
G1 X66.744 Y94.081 E0.40018
G1 X66.744 Y93.394 E0.03322
G1 X72.589 Y99.239 E0.40018
G1 X72.589 Y98.553 E0.03322
G1 X66.744 Y92.708 E0.40018
G1 X66.744 Y92.022 E0.03322
G1 X72.589 Y97.867 E0.40018
G1 X72.589 Y97.181 E0.03322
G1 X66.744 Y91.336 E0.40018
G1 X66.744 Y90.650 E0.03322
G1 X72.589 Y96.495 E0.40018
G1 X72.589 Y95.809 E0.03322
G1 X66.744 Y89.964 E0.40018
G1 X66.744 Y89.278 E0.03322
G1 X72.589 Y95.123 E0.40018
G1 X72.589 Y94.437 E0.03322
G1 X66.744 Y88.591 E0.40018
G1 X66.744 Y87.905 E0.03322
G1 X72.589 Y93.750 E0.40018
G1 X72.589 Y93.064 E0.03322
G1 X66.744 Y87.219 E0.40018
G1 X66.744 Y86.533 E0.03322
G1 X72.589 Y92.378 E0.40018
G1 X72.589 Y91.692 E0.03322
G1 X66.744 Y85.847 E0.40018
G1 X66.744 Y85.161 E0.03322
G1 X72.589 Y91.006 E0.40018
G1 X72.589 Y90.320 E0.03322
G1 X66.744 Y84.475 E0.40018
G1 X66.744 Y83.788 E0.03322
G1 X72.589 Y89.634 E0.40018
G1 X72.589 Y88.947 E0.03322
G1 X66.744 Y83.102 E0.40018
G1 X66.744 Y82.416 E0.03322
G1 X72.589 Y88.261 E0.40018
G1 X72.589 Y87.575 E0.03322
G1 X66.744 Y81.730 E0.40018
G1 X66.744 Y81.044 E0.03322
G1 X72.589 Y86.889 E0.40018
G1 X72.589 Y86.203 E0.03322
G1 X66.744 Y80.358 E0.40018
G1 X66.744 Y79.672 E0.03322
G1 X72.589 Y85.517 E0.40018
G1 X72.589 Y84.831 E0.03322
G1 X66.744 Y78.985 E0.40018
G1 X66.744 Y78.299 E0.03322
G1 X72.589 Y84.144 E0.40018
G1 X72.589 Y83.458 E0.03322
G1 X66.744 Y77.613 E0.40018
G1 X66.744 Y76.927 E0.03322
G1 X72.589 Y82.772 E0.40018
G1 X72.589 Y82.086 E0.03322
G1 X66.744 Y76.241 E0.40018
G1 X66.744 Y75.555 E0.03322
G1 X72.589 Y81.400 E0.40018
G1 X72.589 Y80.714 E0.03322
G1 X66.744 Y74.869 E0.40018
G1 X66.744 Y74.182 E0.03322
G1 X72.589 Y80.028 E0.40018
G1 X72.589 Y79.341 E0.03322
G1 X66.744 Y73.496 E0.40018
G1 X66.744 Y72.810 E0.03322
G1 X72.589 Y78.655 E0.40018
G1 X72.589 Y77.969 E0.03322
G1 X66.744 Y72.124 E0.40018
G1 X66.744 Y71.438 E0.03322
G1 X72.589 Y77.283 E0.40018
G1 X72.589 Y76.597 E0.03322
G1 X66.744 Y70.752 E0.40018
G1 X66.744 Y70.066 E0.03322
G1 X72.589 Y75.911 E0.40018
G1 X72.589 Y75.225 E0.03322
G1 X66.744 Y69.379 E0.40018
G1 X66.744 Y68.693 E0.03322
G1 X72.589 Y74.538 E0.40018
G1 X72.589 Y73.852 E0.03322
G1 X66.744 Y68.007 E0.40018
G1 X66.744 Y67.321 E0.03322
G1 X72.589 Y73.166 E0.40018
G1 X72.589 Y72.480 E0.03322
G1 X66.744 Y66.635 E0.40018
G1 X66.744 Y65.949 E0.03322
G1 X72.874 Y72.078 E0.41967
G1 X73.560 Y72.078 E0.03322
G1 X66.744 Y65.263 E0.46664
G1 X66.744 Y64.576 E0.03322
G1 X74.246 Y72.078 E0.51362
G1 X74.589 Y71.735 E0.02349
G1 X67.087 Y64.233 E0.51362
G1 X67.773 Y64.233 E0.03322
G1 X74.589 Y71.049 E0.46664
G1 X74.589 Y70.363 E0.03322
G1 X68.459 Y64.233 E0.41967
G1 X69.146 Y64.233 E0.03322
G1 X74.991 Y70.078 E0.40018
G1 X75.677 Y70.078 E0.03322
G1 X69.832 Y64.233 E0.40018
G1 X70.518 Y64.233 E0.03322
G1 X76.363 Y70.078 E0.40018
G1 X77.049 Y70.078 E0.03322
G1 X71.204 Y64.233 E0.40018
G1 X71.890 Y64.233 E0.03322
G1 X77.735 Y70.078 E0.40018
G1 X78.421 Y70.078 E0.03322
G1 X72.576 Y64.233 E0.40018
G1 X73.262 Y64.233 E0.03322
G1 X79.108 Y70.078 E0.40018
G1 X79.794 Y70.078 E0.03322
G1 X73.949 Y64.233 E0.40018
G1 X74.635 Y64.233 E0.03322
G1 X80.480 Y70.078 E0.40018
G1 X81.166 Y70.078 E0.03322
G1 X75.321 Y64.233 E0.40018
G1 X76.007 Y64.233 E0.03322
G1 X81.852 Y70.078 E0.40018
G1 X82.538 Y70.078 E0.03322
G1 X76.693 Y64.233 E0.40018
G1 X77.379 Y64.233 E0.03322
G1 X83.224 Y70.078 E0.40018
G1 X83.911 Y70.078 E0.03322
G1 X78.065 Y64.233 E0.40018
G1 X78.752 Y64.233 E0.03322
G1 X84.597 Y70.078 E0.40018
G1 X85.283 Y70.078 E0.03322
G1 X79.438 Y64.233 E0.40018
G1 X80.124 Y64.233 E0.03322
G1 X85.969 Y70.078 E0.40018
G1 X86.655 Y70.078 E0.03322
G1 X80.810 Y64.233 E0.40018
G1 X81.496 Y64.233 E0.03322
G1 X87.341 Y70.078 E0.40018
G1 X88.027 Y70.078 E0.03322
G1 X82.182 Y64.233 E0.40018
G1 X82.868 Y64.233 E0.03322
G1 X88.714 Y70.078 E0.40018
G1 X89.400 Y70.078 E0.03322
G1 X83.555 Y64.233 E0.40018
G1 X84.241 Y64.233 E0.03322
G1 X90.086 Y70.078 E0.40018
G1 X90.772 Y70.078 E0.03322
G1 X84.927 Y64.233 E0.40018
G1 X85.613 Y64.233 E0.03322
G1 X91.458 Y70.078 E0.40018
G1 X92.144 Y70.078 E0.03322
G1 X86.299 Y64.233 E0.40018
G1 X86.985 Y64.233 E0.03322
G1 X92.830 Y70.078 E0.40018
G1 X93.517 Y70.078 E0.03322
G1 X87.671 Y64.233 E0.40018
G1 X88.358 Y64.233 E0.03322
G1 X94.203 Y70.078 E0.40018
G1 X94.889 Y70.078 E0.03322
G1 X89.044 Y64.233 E0.40018
G1 X89.730 Y64.233 E0.03322
G1 X95.575 Y70.078 E0.40018
G1 X96.261 Y70.078 E0.03322
G1 X90.416 Y64.233 E0.40018
G1 X91.102 Y64.233 E0.03322
G1 X96.947 Y70.078 E0.40018
G1 X97.633 Y70.078 E0.03322
G1 X91.788 Y64.233 E0.40018
G1 X92.474 Y64.233 E0.03322
G1 X98.320 Y70.078 E0.40018
G1 X99.006 Y70.078 E0.03322
G1 X93.161 Y64.233 E0.40018
G1 X93.847 Y64.233 E0.03322
G1 X99.692 Y70.078 E0.40018
G1 X100.378 Y70.078 E0.03322
G1 X94.533 Y64.233 E0.40018
G1 X95.219 Y64.233 E0.03322
G1 X101.064 Y70.078 E0.40018
G1 X101.750 Y70.078 E0.03322
G1 X95.905 Y64.233 E0.40018
G1 X96.591 Y64.233 E0.03322
G1 X102.436 Y70.078 E0.40018
G1 X103.123 Y70.078 E0.03322
G1 X97.277 Y64.233 E0.40018
G1 X97.964 Y64.233 E0.03322
G1 X103.809 Y70.078 E0.40018
G1 X104.495 Y70.078 E0.03322
G1 X98.650 Y64.233 E0.40018
G1 X99.336 Y64.233 E0.03322
G1 X105.181 Y70.078 E0.40018
G1 X105.867 Y70.078 E0.03322
G1 X100.022 Y64.233 E0.40018
G1 X100.708 Y64.233 E0.03322
G1 X106.553 Y70.078 E0.40018
G1 X107.239 Y70.078 E0.03322
G1 X101.394 Y64.233 E0.40018
G1 X102.080 Y64.233 E0.03322
G1 X107.926 Y70.078 E0.40018
G1 X108.612 Y70.078 E0.03322
G1 X102.767 Y64.233 E0.40018
G1 X103.453 Y64.233 E0.03322
G1 X109.298 Y70.078 E0.40018
G1 X109.984 Y70.078 E0.03322
G1 X104.139 Y64.233 E0.40018
G1 X104.825 Y64.233 E0.03322
G1 X110.670 Y70.078 E0.40018
G1 X111.356 Y70.078 E0.03322
G1 X105.511 Y64.233 E0.40018
G1 X106.197 Y64.233 E0.03322
G1 X112.042 Y70.078 E0.40018
G1 X112.729 Y70.078 E0.03322
G1 X106.883 Y64.233 E0.40018
G1 X107.570 Y64.233 E0.03322
G1 X113.415 Y70.078 E0.40018
G1 X114.101 Y70.078 E0.03322
G1 X108.256 Y64.233 E0.40018
G1 X108.942 Y64.233 E0.03322
G1 X114.787 Y70.078 E0.40018
G1 X115.473 Y70.078 E0.03322
G1 X109.628 Y64.233 E0.40018
G1 X110.314 Y64.233 E0.03322
G1 X116.159 Y70.078 E0.40018
G1 X116.845 Y70.078 E0.03322
G1 X111.000 Y64.233 E0.40018
G1 X111.686 Y64.233 E0.03322
G1 X117.532 Y70.078 E0.40018
G1 X118.218 Y70.078 E0.03322
G1 X112.373 Y64.233 E0.40018
G1 X113.059 Y64.233 E0.03322
G1 X118.904 Y70.078 E0.40018
G1 X119.590 Y70.078 E0.03322
G1 X113.745 Y64.233 E0.40018
G1 X114.431 Y64.233 E0.03322
G1 X120.276 Y70.078 E0.40018
G1 X120.962 Y70.078 E0.03322
G1 X115.117 Y64.233 E0.40018
G1 X115.803 Y64.233 E0.03322
G1 X121.648 Y70.078 E0.40018
G1 X122.334 Y70.078 E0.03322
G1 X116.489 Y64.233 E0.40018
G1 X117.175 Y64.233 E0.03322
G1 X123.021 Y70.078 E0.40018
G1 X123.707 Y70.078 E0.03322
G1 X117.862 Y64.233 E0.40018
G1 X118.548 Y64.233 E0.03322
G1 X124.393 Y70.078 E0.40018
G1 X125.079 Y70.078 E0.03322
G1 X119.234 Y64.233 E0.40018
G1 X119.920 Y64.233 E0.03322
G1 X125.765 Y70.078 E0.40018
G1 X126.451 Y70.078 E0.03322
G1 X120.606 Y64.233 E0.40018
G1 X121.292 Y64.233 E0.03322
G1 X127.137 Y70.078 E0.40018
G1 X127.824 Y70.078 E0.03322
G1 X121.978 Y64.233 E0.40018
G1 X122.665 Y64.233 E0.03322
G1 X128.510 Y70.078 E0.40018
G1 X129.196 Y70.078 E0.03322
G1 X123.351 Y64.233 E0.40018
G1 X124.037 Y64.233 E0.03322
G1 X129.882 Y70.078 E0.40018
G1 X130.568 Y70.078 E0.03322
G1 X124.723 Y64.233 E0.40018
G1 X125.409 Y64.233 E0.03322
G1 X131.254 Y70.078 E0.40018
G1 X131.940 Y70.078 E0.03322
G1 X126.095 Y64.233 E0.40018
G1 X126.781 Y64.233 E0.03322
G1 X132.627 Y70.078 E0.40018
G1 X133.313 Y70.078 E0.03322
G1 X127.468 Y64.233 E0.40018
G1 X128.154 Y64.233 E0.03322
G1 X133.999 Y70.078 E0.40018
G1 X134.685 Y70.078 E0.03322
G1 X128.840 Y64.233 E0.40018
G1 X129.526 Y64.233 E0.03322
G1 X135.371 Y70.078 E0.40018
G1 X136.057 Y70.078 E0.03322
G1 X130.212 Y64.233 E0.40018
G1 X130.898 Y64.233 E0.03322
G1 X136.743 Y70.078 E0.40018
G1 X137.430 Y70.078 E0.03322
G1 X131.584 Y64.233 E0.40018
G1 X132.271 Y64.233 E0.03322
G1 X138.116 Y70.078 E0.40018
G1 X138.802 Y70.078 E0.03322
G1 X132.957 Y64.233 E0.40018
G1 X133.643 Y64.233 E0.03322
G1 X139.488 Y70.078 E0.40018
G1 X140.174 Y70.078 E0.03322
G1 X134.329 Y64.233 E0.40018
G1 X135.015 Y64.233 E0.03322
G1 X140.860 Y70.078 E0.40018
G1 X141.546 Y70.078 E0.03322
