; generated by Slic3r 0.9.10b on 2013-11-22 at 23:02:30

; layer_height = 0.24
; perimeters = 2
; top_solid_layers = 4
; bottom_solid_layers = 3
; fill_density = 0.4
; perimeter_speed = 30
; infill_speed = 40
; travel_speed = 60
; nozzle_diameter = 0.3
; filament_diameter = 1.75
; extrusion_multiplier = 1
; perimeters extrusion width = 0.32mm
; infill extrusion width = 0.32mm
; solid infill extrusion width = 0.32mm
; top infill extrusion width = 0.32mm
; first layer extrusion width = 0.48mm

G21 ; set units to millimeters
M107
M104 S205 ; set temperature
G28 ; home all axes
G1 Z5 F200 ; lift nozzle
M109 S205 ; wait for temperature to be reached
G90 ; use absolute coordinates
M83 ; use relative distances for extrusion
G1 F1800.000 E-1.00000
G1 Z0.240 F3600.000
G1 X98.420 Y57.470
G1 F1800.000 E1.00000
G1 X99.400 Y56.660 F540.000 E0.05599
G1 X100.520 Y56.060 E0.05596
G1 X101.730 Y55.680 E0.05585
G1 X103.000 Y55.560 E0.05618
G1 X137.500 Y55.560 E1.51939
G1 X138.760 Y55.680 E0.05574
G1 X139.970 Y56.050 E0.05572
G1 X141.080 Y56.640 E0.05536
G1 X142.050 Y57.450 E0.05565
G1 X142.860 Y58.420 E0.05565
G1 X143.450 Y59.530 E0.05536
G1 X143.820 Y60.740 E0.05572
G1 X143.940 Y62.000 E0.05574
G1 X143.940 Y97.000 E1.54141
G1 X143.820 Y98.250 E0.05530
G1 X143.460 Y99.450 E0.05518
G1 X142.870 Y100.550 E0.05497
G1 X142.080 Y101.530 E0.05544
G1 X101.580 Y142.530 E2.53805
G1 X100.600 Y143.340 E0.05599
G1 X99.480 Y143.940 E0.05596
G1 X98.270 Y144.320 E0.05585
G1 X97.000 Y144.440 E0.05618
G1 X62.500 Y144.440 E1.51939
G1 X61.240 Y144.320 E0.05574
G1 X60.030 Y143.950 E0.05572
G1 X58.920 Y143.360 E0.05536
G1 X57.950 Y142.550 E0.05565
G1 X57.140 Y141.580 E0.05565
G1 X56.550 Y140.470 E0.05536
G1 X56.180 Y139.260 E0.05572
G1 X56.060 Y138.000 E0.05574
G1 X56.060 Y103.000 E1.54141
G1 X56.180 Y101.750 E0.05530
G1 X56.540 Y100.550 E0.05518
G1 X57.130 Y99.450 E0.05497
G1 X57.920 Y98.470 E0.05544
G1 X98.373 Y57.517 E2.53514
G1 F1800.000 E-1.00000
G1 X74.833 Y105.351 F3600.000
G1 F1800.000 E1.00000
G1 X75.233 Y105.642 F540.000 E0.02178
G1 X75.564 Y106.009 E0.02178
G1 X75.811 Y106.438 E0.02178
G1 X75.964 Y106.908 E0.02178
G1 X76.016 Y107.400 E0.02178
G1 X75.964 Y107.892 E0.02179
G1 X75.811 Y108.362 E0.02178
G1 X75.564 Y108.791 E0.02178
G1 X75.233 Y109.158 E0.02177
G1 X74.833 Y109.449 E0.02178
G1 X74.381 Y109.650 E0.02178
G1 X73.897 Y109.753 E0.02178
G1 X73.403 Y109.753 E0.02179
G1 X72.919 Y109.650 E0.02178
G1 X72.467 Y109.449 E0.02179
G1 X72.067 Y109.158 E0.02178
G1 X71.736 Y108.790 E0.02178
G1 X71.489 Y108.362 E0.02177
G1 X71.336 Y107.892 E0.02179
G1 X71.284 Y107.400 E0.02178
G1 X71.336 Y106.908 E0.02178
G1 X71.489 Y106.438 E0.02179
G1 X71.736 Y106.010 E0.02177
G1 X72.067 Y105.642 E0.02178
G1 X72.467 Y105.351 E0.02178
G1 X72.919 Y105.150 E0.02179
G1 X73.403 Y105.047 E0.02178
G1 X73.897 Y105.047 E0.02178
G1 X74.381 Y105.150 E0.02178
G1 X74.772 Y105.324 E0.01887
G1 X74.611 Y105.736 F3600.000
G1 X74.936 Y105.972 F540.000 E0.01770
G1 X75.205 Y106.270 E0.01769
G1 X75.406 Y106.618 E0.01769
G1 X75.530 Y107.000 E0.01770
G1 X75.572 Y107.400 E0.01769
G1 X75.530 Y107.800 E0.01770
G1 X75.406 Y108.182 E0.01769
G1 X75.205 Y108.530 E0.01769
G1 X74.936 Y108.828 E0.01769
G1 X74.611 Y109.064 E0.01770
G1 X74.244 Y109.228 E0.01770
G1 X73.851 Y109.311 E0.01769
G1 X73.449 Y109.311 E0.01770
G1 X73.056 Y109.228 E0.01769
G1 X72.689 Y109.064 E0.01770
G1 X72.364 Y108.828 E0.01769
G1 X72.095 Y108.530 E0.01770
G1 X71.894 Y108.182 E0.01769
G1 X71.770 Y107.800 E0.01770
G1 X71.728 Y107.400 E0.01770
G1 X71.770 Y107.000 E0.01769
G1 X71.894 Y106.618 E0.01770
G1 X72.095 Y106.270 E0.01769
G1 X72.364 Y105.972 E0.01769
G1 X72.689 Y105.736 E0.01769
G1 X73.056 Y105.572 E0.01770
G1 X73.449 Y105.489 E0.01769
G1 X73.851 Y105.489 E0.01769
G1 X74.244 Y105.572 E0.01770
G1 X74.550 Y105.709 E0.01478
G1 X74.597 Y106.137 F3600.000
G1 F1800.000 E-1.00000
G1 X75.786 Y109.478 F3600.000
G1 F1800.000 E1.00000
G1 X78.086 Y108.454 F540.000 E0.11090
G1 X80.676 Y107.904 E0.11661
G1 X83.324 Y107.904 E0.11661
G1 X85.914 Y108.454 E0.11661
G1 X88.333 Y109.531 E0.11661
G1 X90.475 Y111.088 E0.11661
G1 X92.247 Y113.055 E0.11661
G1 X93.571 Y115.348 E0.11661
G1 X94.389 Y117.867 E0.11661
G1 X94.666 Y120.500 E0.11661
G1 X94.389 Y123.133 E0.11661
G1 X93.571 Y125.652 E0.11661
G1 X92.247 Y127.945 E0.11661
G1 X90.475 Y129.912 E0.11661
G1 X88.333 Y131.469 E0.11661
G1 X85.914 Y132.546 E0.11661
G1 X83.324 Y133.096 E0.11661
G1 X80.676 Y133.096 E0.11661
G1 X78.086 Y132.546 E0.11661
G1 X75.667 Y131.469 E0.11661
G1 X73.525 Y129.912 E0.11661
G1 X71.753 Y127.945 E0.11661
G1 X70.429 Y125.652 E0.11661
G1 X69.611 Y123.133 E0.11661
G1 X69.334 Y120.500 E0.11661
G1 X69.611 Y117.867 E0.11661
G1 X70.429 Y115.348 E0.11661
G1 X71.753 Y113.055 E0.11661
G1 X73.525 Y111.088 E0.11661
G1 X75.667 Y109.531 E0.11661
G1 X75.725 Y109.505 E0.00280
G1 X75.889 Y109.916 F3600.000
G1 X78.223 Y108.876 F378.000 E0.11253
G1 X80.722 Y108.345 E0.11253
G1 X83.278 Y108.345 E0.11253
G1 X83.359 Y108.362 E0.00367
G1 X85.777 Y108.876 E0.10885
G1 X88.111 Y109.916 E0.11253
G1 X90.178 Y111.417 E0.11253
G1 X91.888 Y113.316 E0.11253
G1 X93.165 Y115.529 E0.11252
G1 X93.955 Y117.959 E0.11253
G1 X94.222 Y120.500 E0.11253
G1 X93.955 Y123.041 E0.11253
G1 X93.165 Y125.471 E0.11253
G1 X91.888 Y127.684 E0.11252
G1 X90.178 Y129.583 E0.11253
G1 X88.111 Y131.084 E0.11253
G1 X85.777 Y132.124 E0.11253
G1 X83.278 Y132.655 E0.11253
G1 X80.722 Y132.655 E0.11253
G1 X78.223 Y132.124 E0.11253
G1 X75.889 Y131.084 E0.11253
G1 X73.822 Y129.583 E0.11253
G1 X72.112 Y127.684 E0.11253
G1 X70.835 Y125.471 E0.11252
G1 X70.045 Y123.041 E0.11253
G1 X69.778 Y120.500 E0.11253
G1 X70.045 Y117.959 E0.11253
G1 X70.835 Y115.529 E0.11253
G1 X72.112 Y113.316 E0.11252
G1 X73.822 Y111.417 E0.11253
G1 X75.835 Y109.954 E0.10961
G1 X76.263 Y110.149 F3600.000
G1 F1800.000 E-1.00000
G1 X89.167 Y131.551 F3600.000
G1 F1800.000 E1.00000
G1 X89.619 Y131.350 F540.000 E0.02179
G1 X90.103 Y131.247 E0.02178
G1 X90.597 Y131.247 E0.02178
G1 X91.081 Y131.350 E0.02178
G1 X91.533 Y131.551 E0.02178
G1 X91.933 Y131.842 E0.02178
G1 X92.264 Y132.209 E0.02178
G1 X92.511 Y132.638 E0.02178
G1 X92.664 Y133.108 E0.02178
G1 X92.716 Y133.600 E0.02178
G1 X92.664 Y134.092 E0.02177
G1 X92.511 Y134.562 E0.02179
G1 X92.264 Y134.991 E0.02178
G1 X91.933 Y135.358 E0.02178
G1 X91.533 Y135.649 E0.02178
G1 X91.081 Y135.850 E0.02178
G1 X90.597 Y135.953 E0.02177
G1 X90.103 Y135.953 E0.02179
G1 X89.619 Y135.850 E0.02178
G1 X89.167 Y135.649 E0.02179
G1 X88.767 Y135.358 E0.02178
G1 X88.436 Y134.991 E0.02177
G1 X88.189 Y134.562 E0.02178
G1 X88.036 Y134.092 E0.02179
G1 X87.984 Y133.600 E0.02178
G1 X88.036 Y133.108 E0.02178
G1 X88.189 Y132.638 E0.02178
G1 X88.436 Y132.209 E0.02178
G1 X88.767 Y131.842 E0.02177
G1 X89.114 Y131.590 E0.01886
G1 X89.389 Y131.936 F3600.000
G1 X89.756 Y131.772 F540.000 E0.01770
G1 X90.149 Y131.689 E0.01769
G1 X90.551 Y131.689 E0.01769
G1 X90.944 Y131.772 E0.01769
G1 X91.311 Y131.936 E0.01770
G1 X91.636 Y132.172 E0.01769
G1 X91.905 Y132.470 E0.01769
G1 X92.106 Y132.818 E0.01769
G1 X92.230 Y133.200 E0.01770
G1 X92.272 Y133.600 E0.01770
G1 X92.230 Y134.000 E0.01769
G1 X92.106 Y134.382 E0.01770
G1 X91.905 Y134.730 E0.01769
G1 X91.636 Y135.028 E0.01769
G1 X91.311 Y135.264 E0.01769
G1 X90.944 Y135.428 E0.01770
G1 X90.551 Y135.511 E0.01769
G1 X90.149 Y135.511 E0.01770
G1 X89.756 Y135.428 E0.01769
G1 X89.389 Y135.264 E0.01770
G1 X89.064 Y135.028 E0.01769
G1 X88.795 Y134.730 E0.01769
G1 X88.594 Y134.382 E0.01769
G1 X88.470 Y134.000 E0.01770
G1 X88.428 Y133.600 E0.01769
G1 X88.470 Y133.200 E0.01770
G1 X88.594 Y132.818 E0.01770
G1 X88.795 Y132.470 E0.01769
G1 X89.064 Y132.172 E0.01769
G1 X89.335 Y131.975 E0.01478
G1 X89.730 Y132.149 F3600.000
G1 F1800.000 E-1.00000
G1 X96.338 Y137.338 F3600.000
G1 F1800.000 E1.00000
G1 X63.162 Y137.338 F540.000 E1.46107
G1 X63.162 Y103.662 E1.48309
G1 X96.338 Y103.662 E1.46107
G1 X96.338 Y137.272 E1.48018
G1 X96.779 Y137.779 F3600.000
G1 X62.721 Y137.779 F378.000 E1.49995
G1 X62.721 Y103.221 E1.52197
G1 X96.779 Y103.221 E1.49995
G1 X96.779 Y137.713 E1.51905
G1 X96.397 Y137.559 F3600.000
G1 X89.591 Y137.018
G1 X85.528 Y132.955 F720.000 E0.25381
G1 X85.012 Y133.065 E0.02331
G1 X88.965 Y137.018 E0.24696
G1 X88.339 Y137.018 F3600.000
G1 X84.495 Y133.174 F720.000 E0.24010
G1 X83.979 Y133.284 E0.02331
G1 X87.713 Y137.018 E0.23325
G1 X87.087 Y137.018 E0.02765
G1 X83.463 Y133.394 E0.22639
G1 X82.859 Y133.416 E0.02668
G1 X86.461 Y137.018 E0.22499
G1 X85.835 Y137.018 E0.02765
G1 X82.233 Y133.416 E0.22499
G1 X81.607 Y133.416 E0.02765
G1 X85.209 Y137.018 E0.22499
G1 X84.583 Y137.018 E0.02765
G1 X80.981 Y133.416 E0.22499
G1 X80.277 Y133.339 E0.03127
G1 X83.957 Y137.018 E0.22984
G1 X83.331 Y137.018 E0.02765
G1 X79.482 Y133.170 E0.24040
G1 X78.687 Y133.001 E0.03590
G1 X82.705 Y137.018 E0.25095
G1 X82.079 Y137.018 E0.02765
G1 X77.853 Y132.792 E0.26398
G1 X76.724 Y132.290 E0.05456
G1 X81.453 Y137.018 E0.29537
G1 X80.827 Y137.018 E0.02765
G1 X75.596 Y131.787 E0.32675
G1 X73.398 Y130.216 F3600.000
G1 X80.201 Y137.018 F720.000 E0.42491
G1 X79.575 Y137.018 E0.02765
G1 X63.482 Y120.925 E1.00525
G1 X63.482 Y121.551 E0.02765
G1 X78.949 Y137.018 E0.96614
G1 X78.323 Y137.018 E0.02765
G1 X63.482 Y122.177 E0.92704
G1 X63.482 Y122.804 E0.02765
G1 X77.696 Y137.018 E0.88793
G1 X77.070 Y137.018 E0.02765
G1 X63.482 Y123.430 E0.84882
G1 X63.482 Y124.056 E0.02765
G1 X76.444 Y137.018 E0.80972
G1 X75.818 Y137.018 E0.02765
G1 X63.482 Y124.682 E0.77061
G1 X63.482 Y125.308 E0.02765
G1 X75.192 Y137.018 E0.73150
G1 X74.566 Y137.018 E0.02765
G1 X63.482 Y125.934 E0.69240
G1 X63.482 Y126.560 E0.02765
G1 X73.940 Y137.018 E0.65329
G1 X73.314 Y137.018 E0.02765
G1 X63.482 Y127.186 E0.61419
G1 X63.482 Y127.812 E0.02765
G1 X72.688 Y137.018 E0.57508
G1 X72.062 Y137.018 E0.02765
G1 X63.482 Y128.438 E0.53597
G1 X63.482 Y129.064 E0.02765
G1 X71.436 Y137.018 E0.49687
G1 X70.810 Y137.018 E0.02765
G1 X63.482 Y129.690 E0.45776
G1 X63.482 Y130.316 E0.02765
G1 X70.184 Y137.018 E0.41865
G1 X69.558 Y137.018 E0.02765
G1 X63.482 Y130.942 E0.37955
G1 X63.482 Y131.568 E0.02765
G1 X68.932 Y137.018 E0.34044
G1 X68.306 Y137.018 E0.02765
G1 X63.482 Y132.194 E0.30134
G1 X63.482 Y132.820 E0.02765
G1 X67.680 Y137.018 E0.26223
G1 X67.054 Y137.018 E0.02765
G1 X63.482 Y133.446 E0.22312
G1 X63.482 Y134.072 E0.02765
G1 X66.428 Y137.018 E0.18402
G1 X65.802 Y137.018 E0.02765
G1 X63.482 Y134.698 E0.14491
G1 X63.482 Y135.324 E0.02765
G1 X65.176 Y137.018 E0.10580
G1 X64.550 Y137.018 E0.02765
G1 X63.482 Y135.950 E0.06670
G1 X63.482 Y136.576 E0.02765
G1 X63.924 Y137.018 E0.02759
G1 X73.090 Y129.908 F3600.000
G1 X63.482 Y120.299 F720.000 E0.60021
G1 X63.482 Y119.673 E0.02765
G1 X70.879 Y127.071 E0.46208
G1 X70.096 Y125.662 E0.07120
G1 X63.482 Y119.047 E0.41317
G1 X63.482 Y118.421 E0.02765
G1 X69.795 Y124.734 E0.39435
G1 X69.494 Y123.807 E0.04307
G1 X63.482 Y117.795 E0.37552
G1 X63.482 Y117.169 E0.02765
G1 X69.271 Y122.958 E0.36162
G1 X69.197 Y122.259 E0.03107
G1 X63.482 Y116.543 E0.35703
G1 X63.482 Y115.917 E0.02765
G1 X69.124 Y121.559 E0.35244
G1 X69.050 Y120.860 E0.03107
G1 X63.482 Y115.291 E0.34785
G1 X63.482 Y114.665 E0.02765
G1 X69.042 Y120.225 E0.34729
G1 X69.101 Y119.658 E0.02516
G1 X63.482 Y114.039 E0.35101
G1 X63.482 Y113.413 E0.02765
G1 X69.161 Y119.092 E0.35473
G1 X69.220 Y118.525 E0.02516
G1 X63.482 Y112.787 E0.35845
G1 X63.482 Y112.161 E0.02765
G1 X69.280 Y117.959 E0.36217
G1 X69.407 Y117.460 E0.02274
G1 X63.482 Y111.535 E0.37011
G1 X63.482 Y110.909 E0.02765
G1 X69.560 Y116.987 E0.37970
G1 X69.714 Y116.515 E0.02194
G1 X63.482 Y110.283 E0.38929
G1 X63.482 Y109.657 E0.02765
G1 X69.868 Y116.042 E0.39888
G1 X70.021 Y115.570 E0.02194
G1 X63.482 Y109.031 E0.40848
G1 X63.482 Y108.405 E0.02765
G1 X70.194 Y115.117 E0.41927
G1 X70.423 Y114.720 E0.02024
G1 X63.482 Y107.779 E0.43358
G1 X63.482 Y107.153 E0.02765
G1 X70.652 Y114.323 E0.44790
G1 X70.881 Y113.926 E0.02024
G1 X63.482 Y106.527 E0.46221
G1 X63.482 Y105.901 E0.02765
G1 X71.110 Y113.529 E0.47652
G1 X71.340 Y113.132 E0.02024
G1 X63.482 Y105.274 E0.49084
G1 X63.482 Y104.648 E0.02765
G1 X71.591 Y112.757 E0.50654
G1 X71.888 Y112.428 E0.01958
G1 X63.482 Y104.022 E0.52507
G1 X64.068 Y103.982 E0.02593
G1 X72.184 Y112.099 E0.50702
G1 X72.481 Y111.769 E0.01958
G1 X64.694 Y103.982 E0.48644
G1 X65.320 Y103.982 E0.02765
G1 X72.777 Y111.440 E0.46586
G1 X73.074 Y111.110 E0.01958
G1 X65.946 Y103.982 E0.44529
G1 X66.572 Y103.982 E0.02765
G1 X71.348 Y108.759 E0.29838
G1 X71.003 Y107.788 E0.04551
G1 X67.198 Y103.982 E0.23772
G1 X67.824 Y103.982 E0.02765
G1 X70.989 Y107.147 E0.19773
G1 X71.092 Y106.624 E0.02356
G1 X68.450 Y103.982 E0.16504
G1 X69.076 Y103.982 E0.02765
G1 X71.270 Y106.176 E0.13708
G1 X71.506 Y105.787 E0.02013
G1 X69.702 Y103.982 E0.11273
G1 X70.328 Y103.982 E0.02765
G1 X71.803 Y105.457 E0.09215
G1 X72.155 Y105.183 E0.01970
G1 X70.954 Y103.982 E0.07502
G1 X71.580 Y103.982 E0.02765
G1 X72.558 Y104.960 E0.06112
G1 X73.025 Y104.801 E0.02177
G1 X72.206 Y103.982 E0.05114
G1 X72.832 Y103.982 E0.02765
G1 X73.577 Y104.727 E0.04656
G1 X74.277 Y104.801 E0.03107
G1 X73.458 Y103.982 E0.05116
G1 X74.084 Y103.982 E0.02765
G1 X78.204 Y108.102 E0.25737
G1 X77.736 Y108.260 E0.02182
G1 X76.260 Y106.784 E0.09221
G1 X76.329 Y107.479 E0.03086
G1 X77.303 Y108.453 E0.06083
G1 X76.870 Y108.646 E0.02094
G1 X76.255 Y108.031 E0.03839
G1 X76.102 Y108.504 E0.02195
G1 X76.437 Y108.838 E0.02092
G1 X76.003 Y109.031 E0.02094
G1 X75.948 Y108.976 E0.00345
G1 X74.109 Y110.268 F3600.000
G1 X74.062 Y110.220 F720.000 E0.00298
G1 X73.747 Y110.531 E0.01955
G1 X73.267 Y110.051 E0.02999
G1 X73.384 Y110.794 E0.03325
G1 X72.326 Y109.736 E0.06613
G1 F1800.000 E-1.00000
G1 X74.710 Y103.982 F3600.000
G1 F1800.000 E1.00000
G1 X78.721 Y107.992 F720.000 E0.25051
G1 X79.237 Y107.883 E0.02331
G1 X75.336 Y103.982 E0.24366
G1 X75.962 Y103.982 E0.02765
G1 X79.753 Y107.773 E0.23680
G1 X80.269 Y107.663 E0.02331
G1 X76.588 Y103.982 E0.22995
G1 X77.214 Y103.982 E0.02765
G1 X80.816 Y107.584 E0.22499
G1 X81.442 Y107.584 E0.02765
G1 X77.840 Y103.982 E0.22499
G1 X78.466 Y103.982 E0.02765
G1 X82.068 Y107.584 E0.22499
G1 X82.694 Y107.584 E0.02765
G1 X79.092 Y103.982 E0.22499
G1 X79.718 Y103.982 E0.02765
G1 X83.320 Y107.584 E0.22499
G1 X84.105 Y107.743 E0.03538
G1 X80.344 Y103.982 E0.23492
G1 X80.971 Y103.982 E0.02765
G1 X84.900 Y107.912 E0.24548
G1 X85.695 Y108.081 E0.03590
G1 X81.597 Y103.982 E0.25603
G1 X82.223 Y103.982 E0.02765
G1 X86.690 Y108.450 E0.27909
G1 X87.819 Y108.952 E0.05456
G1 X82.849 Y103.982 E0.31048
G1 X83.475 Y103.982 E0.02765
G1 X89.414 Y109.921 E0.37102
G1 X92.709 Y113.216 F3600.000
G1 X96.018 Y116.525 F720.000 E0.20670
G1 X96.018 Y117.151 E0.02765
G1 X93.564 Y114.697 E0.15328
G1 X94.060 Y115.819 E0.05418
G1 X96.018 Y117.777 E0.12231
G1 X96.018 Y118.403 E0.02765
G1 X94.361 Y116.747 E0.10349
G1 X94.663 Y117.674 E0.04307
G1 X96.018 Y119.029 E0.08466
G1 X96.018 Y119.655 E0.02765
G1 X94.767 Y118.405 E0.07814
G1 X94.841 Y119.104 E0.03107
G1 X96.018 Y120.282 E0.07355
G1 X96.018 Y120.908 E0.02765
G1 X94.914 Y119.804 E0.06896
G1 X94.987 Y120.503 E0.03104
G1 X96.018 Y121.534 E0.06440
G1 X96.018 Y122.160 E0.02765
G1 X94.928 Y121.069 E0.06812
G1 X94.868 Y121.636 E0.02516
G1 X96.018 Y122.786 E0.07184
G1 X96.018 Y123.412 E0.02765
G1 X94.808 Y122.202 E0.07556
G1 X94.749 Y122.769 E0.02516
G1 X96.018 Y124.038 E0.07928
G1 X96.018 Y124.664 E0.02765
G1 X94.667 Y123.313 E0.08440
G1 X94.513 Y123.785 E0.02194
G1 X96.018 Y125.290 E0.09399
G1 X96.018 Y125.916 E0.02765
G1 X94.360 Y124.258 E0.10358
G1 X94.206 Y124.730 E0.02194
G1 X96.018 Y126.542 E0.11317
G1 X96.018 Y127.168 E0.02765
G1 X94.053 Y125.203 E0.12276
G1 X93.899 Y125.675 E0.02194
G1 X96.018 Y127.794 E0.13235
G1 X96.018 Y128.420 E0.02765
G1 X93.687 Y126.089 E0.14559
G1 X93.458 Y126.486 E0.02024
G1 X96.018 Y129.046 E0.15991
G1 X96.018 Y129.672 E0.02765
G1 X93.229 Y126.883 E0.17422
G1 X93.000 Y127.280 E0.02024
G1 X96.018 Y130.298 E0.18853
G1 X96.018 Y130.924 E0.02765
G1 X92.771 Y127.677 E0.20285
G1 X92.542 Y128.074 E0.02024
G1 X96.018 Y131.550 E0.21716
G1 X96.018 Y132.176 E0.02765
G1 X92.255 Y128.413 E0.23505
