; generated by Slic3r 0.9.10b on 2013-11-11 at 21:43:30

; layer_height = 0.24
; perimeters = 2
; top_solid_layers = 4
; bottom_solid_layers = 3
; fill_density = 0.4
; perimeter_speed = 30
; infill_speed = 40
; travel_speed = 60
; nozzle_diameter = 0.3
; filament_diameter = 1.75
; extrusion_multiplier = 1
; perimeters extrusion width = 0.32mm
; infill extrusion width = 0.32mm
; solid infill extrusion width = 0.32mm
; top infill extrusion width = 0.32mm
; first layer extrusion width = 0.48mm

G21 ; set units to millimeters
M107
M104 S205 ; set temperature
G28 ; home all axes
G1 Z5 F200 ; lift nozzle
M109 S205 ; wait for temperature to be reached
G90 ; use absolute coordinates
M83 ; use relative distances for extrusion
G1 F1800.000 E-1.00000
G1 Z0.240 F3600.000
G1 X47.827 Y43.251
G1 F1800.000 E1.00000
G1 X48.827 Y42.331 F540.000 E0.05984
G1 X50.007 Y41.641 E0.06020
G1 X51.297 Y41.211 E0.05989
G1 X52.657 Y41.071 E0.06021
G1 X142.667 Y41.071 E3.96406
G1 X144.117 Y41.231 E0.06425
G1 X145.497 Y41.721 E0.06449
G1 X146.727 Y42.511 E0.06438
G1 X147.747 Y43.551 E0.06415
G1 X159.407 Y58.521 E0.83567
G1 X160.147 Y59.731 E0.06246
G1 X160.617 Y61.071 E0.06254
G1 X160.767 Y62.481 E0.06245
G1 X160.767 Y70.481 E0.35232
G1 X160.647 Y71.741 E0.05574
G1 X160.277 Y72.951 E0.05572
G1 X159.687 Y74.061 E0.05536
G1 X158.877 Y75.031 E0.05565
G1 X76.877 Y157.031 E5.10715
G1 X75.907 Y157.841 E0.05565
G1 X74.797 Y158.431 E0.05536
G1 X73.587 Y158.801 E0.05572
G1 X72.327 Y158.921 E0.05574
G1 X64.327 Y158.921 E0.35232
G1 X62.867 Y158.751 E0.06473
G1 X61.487 Y158.261 E0.06449
G1 X60.257 Y157.471 E0.06438
G1 X41.597 Y142.231 E1.06104
G1 X40.597 Y141.211 E0.06291
G1 X39.847 Y140.001 E0.06270
G1 X39.387 Y138.661 E0.06239
G1 X39.227 Y137.241 E0.06293
G1 X39.227 Y127.521 E0.42807
G1 X39.247 Y126.961 E0.02468
G1 X46.237 Y46.951 E3.53708
G1 X46.497 Y45.611 E0.06011
G1 X47.037 Y44.361 E0.05997
G1 X47.788 Y43.305 E0.05709
G1 F1800.000 E-1.00000
G1 X64.995 Y63.151 F3600.000
G1 F1800.000 E1.00000
G1 X153.671 Y63.151 F540.000 E3.90531
G1 X153.671 Y69.827 E0.29401
G1 X73.671 Y69.827 E3.52322
G1 X73.671 Y71.827 E0.08808
G1 X71.671 Y71.827 E0.08808
G1 X71.671 Y151.827 E3.52322
G1 X64.995 Y151.827 E0.29401
G1 X64.995 Y63.218 E3.90239
G1 X64.554 Y62.710 F3600.000
G1 X154.113 Y62.710 F378.000 E3.94418
G1 X154.113 Y70.269 E0.33288
G1 X74.113 Y70.269 E3.52322
G1 X74.113 Y72.269 E0.08808
G1 X72.113 Y72.269 E0.08808
G1 X72.113 Y152.269 E3.52322
G1 X64.554 Y152.269 E0.33288
G1 X64.554 Y62.776 E3.94127
G1 X64.936 Y62.931 F3600.000
G1 X153.351 Y63.631
G1 X153.191 Y63.471 F720.000 E0.00998
G1 X152.566 Y63.471 E0.02760
G1 X153.351 Y64.257 E0.04902
G1 X153.351 Y64.882 E0.02760
G1 X151.941 Y63.471 E0.08805
G1 X151.315 Y63.471 E0.02760
G1 X153.351 Y65.508 E0.12708
G1 X153.351 Y66.133 E0.02760
G1 X150.690 Y63.471 E0.16612
G1 X150.064 Y63.471 E0.02760
G1 X153.351 Y66.758 E0.20515
G1 X153.351 Y67.384 E0.02760
G1 X149.439 Y63.471 E0.24418
G1 X148.813 Y63.471 E0.02760
G1 X153.351 Y68.009 E0.28322
G1 X153.351 Y68.635 E0.02760
G1 X148.188 Y63.471 E0.32225
G1 X147.562 Y63.471 E0.02760
G1 X153.351 Y69.260 E0.36128
G1 X152.973 Y69.507 E0.01994
G1 X146.937 Y63.471 E0.37670
G1 X146.311 Y63.471 E0.02760
G1 X152.348 Y69.507 E0.37670
G1 X151.722 Y69.507 E0.02760
G1 X145.686 Y63.471 E0.37670
G1 X145.061 Y63.471 E0.02760
G1 X151.097 Y69.507 E0.37670
G1 X150.471 Y69.507 E0.02760
G1 X144.435 Y63.471 E0.37670
G1 X143.810 Y63.471 E0.02760
G1 X149.846 Y69.507 E0.37670
G1 X149.220 Y69.507 E0.02760
G1 X143.184 Y63.471 E0.37670
G1 X142.559 Y63.471 E0.02760
G1 X148.595 Y69.507 E0.37670
G1 X147.969 Y69.507 E0.02760
G1 X141.933 Y63.471 E0.37670
G1 X141.308 Y63.471 E0.02760
G1 X147.344 Y69.507 E0.37670
G1 X146.719 Y69.507 E0.02760
G1 X140.682 Y63.471 E0.37670
G1 X140.057 Y63.471 E0.02760
G1 X146.093 Y69.507 E0.37670
G1 X145.468 Y69.507 E0.02760
G1 X139.431 Y63.471 E0.37670
G1 X138.806 Y63.471 E0.02760
G1 X144.842 Y69.507 E0.37670
G1 X144.217 Y69.507 E0.02760
G1 X138.181 Y63.471 E0.37670
G1 X137.555 Y63.471 E0.02760
G1 X143.591 Y69.507 E0.37670
G1 X142.966 Y69.507 E0.02760
G1 X136.930 Y63.471 E0.37670
G1 X136.304 Y63.471 E0.02760
G1 X142.340 Y69.507 E0.37670
G1 X141.715 Y69.507 E0.02760
G1 X135.679 Y63.471 E0.37670
G1 X135.053 Y63.471 E0.02760
G1 X141.089 Y69.507 E0.37670
G1 X140.464 Y69.507 E0.02760
G1 X134.428 Y63.471 E0.37670
G1 X133.802 Y63.471 E0.02760
G1 X139.839 Y69.507 E0.37670
G1 X139.213 Y69.507 E0.02760
G1 X133.177 Y63.471 E0.37670
G1 X132.552 Y63.471 E0.02760
G1 X138.588 Y69.507 E0.37670
G1 X137.962 Y69.507 E0.02760
G1 X131.926 Y63.471 E0.37670
G1 X131.301 Y63.471 E0.02760
G1 X137.337 Y69.507 E0.37670
G1 X136.711 Y69.507 E0.02760
G1 X130.675 Y63.471 E0.37670
G1 X130.050 Y63.471 E0.02760
G1 X136.086 Y69.507 E0.37670
G1 X135.460 Y69.507 E0.02760
G1 X129.424 Y63.471 E0.37670
G1 X128.799 Y63.471 E0.02760
G1 X134.835 Y69.507 E0.37670
G1 X134.209 Y69.507 E0.02760
G1 X128.173 Y63.471 E0.37670
G1 X127.548 Y63.471 E0.02760
G1 X133.584 Y69.507 E0.37670
G1 X132.959 Y69.507 E0.02760
G1 X126.922 Y63.471 E0.37670
G1 X126.297 Y63.471 E0.02760
G1 X132.333 Y69.507 E0.37670
G1 X131.708 Y69.507 E0.02760
G1 X125.672 Y63.471 E0.37670
G1 X125.046 Y63.471 E0.02760
G1 X131.082 Y69.507 E0.37670
G1 X130.457 Y69.507 E0.02760
G1 X124.421 Y63.471 E0.37670
G1 X123.795 Y63.471 E0.02760
G1 X129.831 Y69.507 E0.37670
G1 X129.206 Y69.507 E0.02760
G1 X123.170 Y63.471 E0.37670
G1 X122.544 Y63.471 E0.02760
G1 X128.580 Y69.507 E0.37670
G1 X127.955 Y69.507 E0.02760
G1 X121.919 Y63.471 E0.37670
G1 X121.293 Y63.471 E0.02760
G1 X127.330 Y69.507 E0.37670
G1 X126.704 Y69.507 E0.02760
G1 X120.668 Y63.471 E0.37670
G1 X120.042 Y63.471 E0.02760
G1 X126.079 Y69.507 E0.37670
G1 X125.453 Y69.507 E0.02760
G1 X119.417 Y63.471 E0.37670
G1 X118.792 Y63.471 E0.02760
G1 X124.828 Y69.507 E0.37670
G1 X124.202 Y69.507 E0.02760
G1 X118.166 Y63.471 E0.37670
G1 X117.541 Y63.471 E0.02760
G1 X123.577 Y69.507 E0.37670
G1 X122.951 Y69.507 E0.02760
G1 X116.915 Y63.471 E0.37670
G1 X116.290 Y63.471 E0.02760
G1 X122.326 Y69.507 E0.37670
G1 X121.700 Y69.507 E0.02760
G1 X115.664 Y63.471 E0.37670
G1 X115.039 Y63.471 E0.02760
G1 X121.075 Y69.507 E0.37670
G1 X120.450 Y69.507 E0.02760
G1 X114.413 Y63.471 E0.37670
G1 X113.788 Y63.471 E0.02760
G1 X119.824 Y69.507 E0.37670
G1 X119.199 Y69.507 E0.02760
G1 X113.163 Y63.471 E0.37670
G1 X112.537 Y63.471 E0.02760
G1 X118.573 Y69.507 E0.37670
G1 X117.948 Y69.507 E0.02760
G1 X111.912 Y63.471 E0.37670
G1 X111.286 Y63.471 E0.02760
G1 X117.322 Y69.507 E0.37670
G1 X116.697 Y69.507 E0.02760
G1 X110.661 Y63.471 E0.37670
G1 X110.035 Y63.471 E0.02760
G1 X116.071 Y69.507 E0.37670
G1 X115.446 Y69.507 E0.02760
G1 X109.410 Y63.471 E0.37670
G1 X108.784 Y63.471 E0.02760
G1 X114.820 Y69.507 E0.37670
G1 X114.195 Y69.507 E0.02760
G1 X108.159 Y63.471 E0.37670
G1 X107.533 Y63.471 E0.02760
G1 X113.570 Y69.507 E0.37670
G1 X112.944 Y69.507 E0.02760
G1 X106.908 Y63.471 E0.37670
G1 X106.283 Y63.471 E0.02760
G1 X112.319 Y69.507 E0.37670
G1 X111.693 Y69.507 E0.02760
G1 X105.657 Y63.471 E0.37670
G1 X105.032 Y63.471 E0.02760
G1 X111.068 Y69.507 E0.37670
G1 X110.442 Y69.507 E0.02760
G1 X104.406 Y63.471 E0.37670
G1 X103.781 Y63.471 E0.02760
G1 X109.817 Y69.507 E0.37670
G1 X109.191 Y69.507 E0.02760
G1 X103.155 Y63.471 E0.37670
G1 X102.530 Y63.471 E0.02760
G1 X108.566 Y69.507 E0.37670
G1 X107.941 Y69.507 E0.02760
G1 X101.904 Y63.471 E0.37670
G1 X101.279 Y63.471 E0.02760
G1 X107.315 Y69.507 E0.37670
G1 X106.690 Y69.507 E0.02760
G1 X100.653 Y63.471 E0.37670
G1 X100.028 Y63.471 E0.02760
G1 X106.064 Y69.507 E0.37670
G1 X105.439 Y69.507 E0.02760
G1 X99.403 Y63.471 E0.37670
G1 X98.777 Y63.471 E0.02760
G1 X104.813 Y69.507 E0.37670
G1 X104.188 Y69.507 E0.02760
G1 X98.152 Y63.471 E0.37670
G1 X97.526 Y63.471 E0.02760
G1 X103.562 Y69.507 E0.37670
G1 X102.937 Y69.507 E0.02760
G1 X96.901 Y63.471 E0.37670
G1 X96.275 Y63.471 E0.02760
G1 X102.311 Y69.507 E0.37670
G1 X101.686 Y69.507 E0.02760
G1 X95.650 Y63.471 E0.37670
G1 X95.024 Y63.471 E0.02760
G1 X101.061 Y69.507 E0.37670
G1 X100.435 Y69.507 E0.02760
G1 X94.399 Y63.471 E0.37670
G1 X93.774 Y63.471 E0.02760
G1 X99.810 Y69.507 E0.37670
G1 X99.184 Y69.507 E0.02760
G1 X93.148 Y63.471 E0.37670
G1 X92.523 Y63.471 E0.02760
G1 X98.559 Y69.507 E0.37670
G1 X97.933 Y69.507 E0.02760
G1 X91.897 Y63.471 E0.37670
G1 X91.272 Y63.471 E0.02760
G1 X97.308 Y69.507 E0.37670
G1 X96.682 Y69.507 E0.02760
G1 X90.646 Y63.471 E0.37670
G1 X90.021 Y63.471 E0.02760
G1 X96.057 Y69.507 E0.37670
G1 X95.431 Y69.507 E0.02760
G1 X89.395 Y63.471 E0.37670
G1 X88.770 Y63.471 E0.02760
G1 X94.806 Y69.507 E0.37670
G1 X94.181 Y69.507 E0.02760
G1 X88.144 Y63.471 E0.37670
G1 X87.519 Y63.471 E0.02760
G1 X93.555 Y69.507 E0.37670
G1 X92.930 Y69.507 E0.02760
G1 X86.894 Y63.471 E0.37670
G1 X86.268 Y63.471 E0.02760
G1 X92.304 Y69.507 E0.37670
G1 X91.679 Y69.507 E0.02760
G1 X85.643 Y63.471 E0.37670
G1 X85.017 Y63.471 E0.02760
G1 X91.053 Y69.507 E0.37670
G1 X90.428 Y69.507 E0.02760
G1 X84.392 Y63.471 E0.37670
G1 X83.766 Y63.471 E0.02760
G1 X89.802 Y69.507 E0.37670
G1 X89.177 Y69.507 E0.02760
G1 X83.141 Y63.471 E0.37670
G1 X82.515 Y63.471 E0.02760
G1 X88.552 Y69.507 E0.37670
G1 X87.926 Y69.507 E0.02760
G1 X81.890 Y63.471 E0.37670
G1 X81.264 Y63.471 E0.02760
G1 X87.301 Y69.507 E0.37670
G1 X86.675 Y69.507 E0.02760
G1 X80.639 Y63.471 E0.37670
G1 X80.014 Y63.471 E0.02760
G1 X86.050 Y69.507 E0.37670
G1 X85.424 Y69.507 E0.02760
G1 X79.388 Y63.471 E0.37670
G1 X78.763 Y63.471 E0.02760
G1 X84.799 Y69.507 E0.37670
G1 X84.173 Y69.507 E0.02760
G1 X78.137 Y63.471 E0.37670
G1 X77.512 Y63.471 E0.02760
G1 X83.548 Y69.507 E0.37670
G1 X82.922 Y69.507 E0.02760
G1 X76.886 Y63.471 E0.37670
G1 X76.261 Y63.471 E0.02760
G1 X82.297 Y69.507 E0.37670
G1 X81.672 Y69.507 E0.02760
G1 X75.635 Y63.471 E0.37670
G1 X75.010 Y63.471 E0.02760
G1 X81.046 Y69.507 E0.37670
G1 X80.421 Y69.507 E0.02760
G1 X74.385 Y63.471 E0.37670
G1 X73.759 Y63.471 E0.02760
G1 X79.795 Y69.507 E0.37670
G1 X79.170 Y69.507 E0.02760
G1 X73.134 Y63.471 E0.37670
G1 X72.508 Y63.471 E0.02760
G1 X78.544 Y69.507 E0.37670
G1 X77.919 Y69.507 E0.02760
G1 X71.883 Y63.471 E0.37670
G1 X71.257 Y63.471 E0.02760
G1 X77.293 Y69.507 E0.37670
G1 X76.668 Y69.507 E0.02760
G1 X70.632 Y63.471 E0.37670
G1 X70.006 Y63.471 E0.02760
G1 X76.042 Y69.507 E0.37670
G1 X75.417 Y69.507 E0.02760
G1 X69.381 Y63.471 E0.37670
G1 X68.755 Y63.471 E0.02760
G1 X74.792 Y69.507 E0.37670
G1 X74.166 Y69.507 E0.02760
G1 X68.130 Y63.471 E0.37670
G1 X67.505 Y63.471 E0.02760
G1 X73.541 Y69.507 E0.37670
G1 X73.351 Y69.944 E0.02098
G1 X66.879 Y63.471 E0.40392
G1 X66.254 Y63.471 E0.02760
G1 X73.351 Y70.569 E0.44296
G1 X73.351 Y71.194 E0.02760
G1 X65.628 Y63.471 E0.48199
G1 X65.315 Y63.784 E0.01952
G1 X73.039 Y71.507 E0.48201
G1 X72.413 Y71.507 E0.02760
G1 X65.315 Y64.409 E0.44298
G1 X65.315 Y65.035 E0.02760
G1 X71.788 Y71.507 E0.40395
G1 X71.351 Y71.696 E0.02099
G1 X65.315 Y65.660 E0.37670
G1 X65.315 Y66.286 E0.02760
G1 X71.351 Y72.322 E0.37670
G1 X71.351 Y72.947 E0.02760
G1 X65.315 Y66.911 E0.37670
G1 X65.315 Y67.536 E0.02760
G1 X71.351 Y73.573 E0.37670
G1 X71.351 Y74.198 E0.02760
G1 X65.315 Y68.162 E0.37670
G1 X65.315 Y68.787 E0.02760
G1 X71.351 Y74.823 E0.37670
G1 X71.351 Y75.449 E0.02760
G1 X65.315 Y69.413 E0.37670
G1 X65.315 Y70.038 E0.02760
G1 X71.351 Y76.074 E0.37670
G1 X71.351 Y76.700 E0.02760
G1 X65.315 Y70.664 E0.37670
G1 X65.315 Y71.289 E0.02760
G1 X71.351 Y77.325 E0.37670
G1 X71.351 Y77.951 E0.02760
G1 X65.315 Y71.915 E0.37670
G1 X65.315 Y72.540 E0.02760
G1 X71.351 Y78.576 E0.37670
G1 X71.351 Y79.202 E0.02760
G1 X65.315 Y73.166 E0.37670
G1 X65.315 Y73.791 E0.02760
G1 X71.351 Y79.827 E0.37670
G1 X71.351 Y80.453 E0.02760
G1 X65.315 Y74.416 E0.37670
G1 X65.315 Y75.042 E0.02760
G1 X71.351 Y81.078 E0.37670
G1 X71.351 Y81.703 E0.02760
G1 X65.315 Y75.667 E0.37670
G1 X65.315 Y76.293 E0.02760
G1 X71.351 Y82.329 E0.37670
G1 X71.351 Y82.954 E0.02760
G1 X65.315 Y76.918 E0.37670
G1 X65.315 Y77.544 E0.02760
G1 X71.351 Y83.580 E0.37670
G1 X71.351 Y84.205 E0.02760
G1 X65.315 Y78.169 E0.37670
G1 X65.315 Y78.795 E0.02760
G1 X71.351 Y84.831 E0.37670
G1 X71.351 Y85.456 E0.02760
G1 X65.315 Y79.420 E0.37670
G1 X65.315 Y80.045 E0.02760
G1 X71.351 Y86.082 E0.37670
G1 X71.351 Y86.707 E0.02760
G1 X65.315 Y80.671 E0.37670
G1 X65.315 Y81.296 E0.02760
G1 X71.351 Y87.333 E0.37670
G1 X71.351 Y87.958 E0.02760
G1 X65.315 Y81.922 E0.37670
G1 X65.315 Y82.547 E0.02760
G1 X71.351 Y88.583 E0.37670
G1 X71.351 Y89.209 E0.02760
G1 X65.315 Y83.173 E0.37670
G1 X65.315 Y83.798 E0.02760
G1 X71.351 Y89.834 E0.37670
G1 X71.351 Y90.460 E0.02760
G1 X65.315 Y84.424 E0.37670
G1 X65.315 Y85.049 E0.02760
G1 X71.351 Y91.085 E0.37670
G1 X71.351 Y91.711 E0.02760
G1 X65.315 Y85.675 E0.37670
G1 X65.315 Y86.300 E0.02760
G1 X71.351 Y92.336 E0.37670
G1 X71.351 Y92.962 E0.02760
G1 X65.315 Y86.925 E0.37670
G1 X65.315 Y87.551 E0.02760
G1 X71.351 Y93.587 E0.37670
G1 X71.351 Y94.212 E0.02760
G1 X65.315 Y88.176 E0.37670
G1 X65.315 Y88.802 E0.02760
G1 X71.351 Y94.838 E0.37670
G1 X71.351 Y95.463 E0.02760
G1 X65.315 Y89.427 E0.37670
G1 X65.315 Y90.053 E0.02760
G1 X71.351 Y96.089 E0.37670
G1 X71.351 Y96.714 E0.02760
G1 X65.315 Y90.678 E0.37670
G1 X65.315 Y91.304 E0.02760
G1 X71.351 Y97.340 E0.37670
G1 X71.351 Y97.965 E0.02760
G1 X65.315 Y91.929 E0.37670
G1 X65.315 Y92.555 E0.02760
G1 X71.351 Y98.591 E0.37670
G1 X71.351 Y99.216 E0.02760
G1 X65.315 Y93.180 E0.37670
G1 X65.315 Y93.805 E0.02760
G1 X71.351 Y99.842 E0.37670
G1 X71.351 Y100.467 E0.02760
G1 X65.315 Y94.431 E0.37670
G1 X65.315 Y95.056 E0.02760
G1 X71.351 Y101.092 E0.37670
G1 X71.351 Y101.718 E0.02760
G1 X65.315 Y95.682 E0.37670
G1 X65.315 Y96.307 E0.02760
G1 X71.351 Y102.343 E0.37670
G1 X71.351 Y102.969 E0.02760
G1 X65.315 Y96.933 E0.37670
G1 X65.315 Y97.558 E0.02760
G1 X71.351 Y103.594 E0.37670
G1 X71.351 Y104.220 E0.02760
G1 X65.315 Y98.184 E0.37670
G1 X65.315 Y98.809 E0.02760
G1 X71.351 Y104.845 E0.37670
G1 X71.351 Y105.471 E0.02760
G1 X65.315 Y99.434 E0.37670
G1 X65.315 Y100.060 E0.02760
G1 X71.351 Y106.096 E0.37670
G1 X71.351 Y106.722 E0.02760
G1 X65.315 Y100.685 E0.37670
G1 X65.315 Y101.311 E0.02760
G1 X71.351 Y107.347 E0.37670
G1 X71.351 Y107.972 E0.02760
G1 X65.315 Y101.936 E0.37670
G1 X65.315 Y102.562 E0.02760
G1 X71.351 Y108.598 E0.37670
G1 X71.351 Y109.223 E0.02760
G1 X65.315 Y103.187 E0.37670
G1 X65.315 Y103.813 E0.02760
G1 X71.351 Y109.849 E0.37670
G1 X71.351 Y110.474 E0.02760
G1 X65.315 Y104.438 E0.37670
G1 X65.315 Y105.064 E0.02760
G1 X71.351 Y111.100 E0.37670
G1 X71.351 Y111.725 E0.02760
G1 X65.315 Y105.689 E0.37670
G1 X65.315 Y106.314 E0.02760
G1 X71.351 Y112.351 E0.37670
G1 X71.351 Y112.976 E0.02760
G1 X65.315 Y106.940 E0.37670
G1 X65.315 Y107.565 E0.02760
G1 X71.351 Y113.601 E0.37670
G1 X71.351 Y114.227 E0.02760
G1 X65.315 Y108.191 E0.37670
G1 X65.315 Y108.816 E0.02760
G1 X71.351 Y114.852 E0.37670
G1 X71.351 Y115.478 E0.02760
G1 X65.315 Y109.442 E0.37670
G1 X65.315 Y110.067 E0.02760
G1 X71.351 Y116.103 E0.37670
G1 X71.351 Y116.729 E0.02760
G1 X65.315 Y110.693 E0.37670
G1 X65.315 Y111.318 E0.02760
G1 X71.351 Y117.354 E0.37670
G1 X71.351 Y117.980 E0.02760
G1 X65.315 Y111.944 E0.37670
G1 X65.315 Y112.569 E0.02760
G1 X71.351 Y118.605 E0.37670
G1 X71.351 Y119.231 E0.02760
G1 X65.315 Y113.194 E0.37670
G1 X65.315 Y113.820 E0.02760
G1 X71.351 Y119.856 E0.37670
G1 X71.351 Y120.481 E0.02760
G1 X65.315 Y114.445 E0.37670
G1 X65.315 Y115.071 E0.02760
G1 X71.351 Y121.107 E0.37670
G1 X71.351 Y121.732 E0.02760
G1 X65.315 Y115.696 E0.37670
G1 X65.315 Y116.322 E0.02760
G1 X71.351 Y122.358 E0.37670
G1 X71.351 Y122.983 E0.02760
G1 X65.315 Y116.947 E0.37670
G1 X65.315 Y117.573 E0.02760
G1 X71.351 Y123.609 E0.37670
G1 X71.351 Y124.234 E0.02760
G1 X65.315 Y118.198 E0.37670
G1 X65.315 Y118.823 E0.02760
G1 X71.351 Y124.860 E0.37670
G1 X71.351 Y125.485 E0.02760
G1 X65.315 Y119.449 E0.37670
G1 X65.315 Y120.074 E0.02760
G1 X71.351 Y126.111 E0.37670
G1 X71.351 Y126.736 E0.02760
G1 X65.315 Y120.700 E0.37670
G1 X65.315 Y121.325 E0.02760
G1 X71.351 Y127.361 E0.37670
G1 X71.351 Y127.987 E0.02760
G1 X65.315 Y121.951 E0.37670
G1 X65.315 Y122.576 E0.02760
G1 X71.351 Y128.612 E0.37670
