; generated by Slic3r 0.9.10b on 2013-11-12 at 11:06:53

; layer_height = 0.24
; perimeters = 2
; top_solid_layers = 4
; bottom_solid_layers = 3
; fill_density = 0.4
; perimeter_speed = 30
; infill_speed = 40
; travel_speed = 60
; nozzle_diameter = 0.3
; filament_diameter = 1.75
; extrusion_multiplier = 1
; perimeters extrusion width = 0.32mm
; infill extrusion width = 0.32mm
; solid infill extrusion width = 0.32mm
; top infill extrusion width = 0.32mm
; first layer extrusion width = 0.48mm

G21 ; set units to millimeters
M107
M104 S205 ; set temperature
G28 ; home all axes
G1 Z5 F200 ; lift nozzle
M109 S205 ; wait for temperature to be reached
G90 ; use absolute coordinates
M83 ; use relative distances for extrusion
G1 F1800.000 E-1.00000
G1 Z0.240 F3600.000
G1 X53.660 Y50.563
G1 F1800.000 E1.00000
G1 X54.660 Y49.643 F540.000 E0.05984
G1 X55.840 Y48.953 E0.06020
G1 X57.130 Y48.523 E0.05989
G1 X58.490 Y48.383 E0.06021
G1 X148.500 Y48.383 E3.96406
G1 X149.760 Y48.503 E0.05574
G1 X150.970 Y48.873 E0.05572
G1 X152.080 Y49.463 E0.05536
G1 X153.050 Y50.273 E0.05565
G1 X153.860 Y51.243 E0.05565
G1 X154.450 Y52.353 E0.05536
G1 X154.820 Y53.563 E0.05572
G1 X154.940 Y54.823 E0.05574
G1 X154.940 Y62.823 E0.35232
G1 X154.800 Y64.153 E0.05890
G1 X154.400 Y65.413 E0.05822
G1 X153.740 Y66.573 E0.05878
G1 X152.850 Y67.573 E0.05896
G1 X62.970 Y149.923 E5.36856
G1 X61.900 Y150.713 E0.05858
G1 X60.690 Y151.273 E0.05872
G1 X59.390 Y151.563 E0.05866
G1 X58.060 Y151.593 E0.05859
G1 X50.940 Y150.973 E0.31475
G1 X49.600 Y150.713 E0.06011
G1 X48.350 Y150.173 E0.05997
G1 X47.240 Y149.383 E0.06000
G1 X46.320 Y148.383 E0.05984
G1 X45.630 Y147.203 E0.06020
G1 X45.200 Y145.913 E0.05989
G1 X45.060 Y144.553 E0.06021
G1 X45.060 Y134.833 E0.42807
G1 X45.080 Y134.273 E0.02468
G1 X52.070 Y54.263 E3.53708
G1 X52.330 Y52.923 E0.06011
G1 X52.870 Y51.673 E0.05997
G1 X53.622 Y50.617 E0.05709
G1 F1800.000 E-1.00000
G1 X83.984 Y82.098 F3600.000
G1 F1800.000 E1.00000
G1 X84.367 Y81.819 F540.000 E0.02086
G1 X84.800 Y81.627 E0.02086
G1 X85.263 Y81.528 E0.02086
G1 X85.737 Y81.528 E0.02086
G1 X86.200 Y81.627 E0.02086
G1 X86.633 Y81.819 E0.02086
G1 X87.016 Y82.098 E0.02086
G1 X87.273 Y82.383 E0.01691
G1 X87.333 Y82.450 E0.00395
G1 X87.570 Y82.860 E0.02086
G1 X87.716 Y83.310 E0.02086
G1 X87.766 Y83.781 E0.02086
G1 X87.716 Y84.252 E0.02086
G1 X87.570 Y84.703 E0.02086
G1 X87.333 Y85.113 E0.02086
G1 X87.016 Y85.465 E0.02086
G1 X86.633 Y85.744 E0.02086
G1 X86.551 Y85.780 E0.00395
G1 X86.200 Y85.936 E0.01691
G1 X85.737 Y86.035 E0.02086
G1 X85.263 Y86.035 E0.02086
G1 X84.800 Y85.936 E0.02086
G1 X84.367 Y85.744 E0.02086
G1 X83.984 Y85.465 E0.02086
G1 X83.667 Y85.113 E0.02086
G1 X83.430 Y84.703 E0.02086
G1 X83.284 Y84.252 E0.02086
G1 X83.234 Y83.781 E0.02086
G1 X83.284 Y83.310 E0.02086
G1 X83.430 Y82.860 E0.02086
G1 X83.667 Y82.450 E0.02086
G1 X83.940 Y82.147 E0.01795
G1 X84.281 Y82.427 F3600.000
G1 X84.589 Y82.204 F540.000 E0.01677
G1 X84.937 Y82.049 E0.01677
G1 X85.310 Y81.969 E0.01677
G1 X85.690 Y81.969 E0.01677
G1 X86.063 Y82.049 E0.01677
G1 X86.411 Y82.204 E0.01677
G1 X86.719 Y82.427 E0.01677
G1 X86.945 Y82.678 E0.01487
G1 X87.164 Y83.040 E0.01864
G1 X87.282 Y83.403 E0.01677
G1 X87.322 Y83.781 E0.01677
G1 X87.282 Y84.160 E0.01677
G1 X87.164 Y84.522 E0.01677
G1 X86.974 Y84.852 E0.01677
G1 X86.719 Y85.135 E0.01677
G1 X86.371 Y85.377 E0.01864
G1 X86.063 Y85.514 E0.01487
G1 X85.690 Y85.593 E0.01677
G1 X85.310 Y85.593 E0.01677
G1 X84.937 Y85.514 E0.01677
G1 X84.589 Y85.359 E0.01677
G1 X84.281 Y85.135 E0.01677
G1 X84.026 Y84.852 E0.01677
G1 X83.836 Y84.522 E0.01677
G1 X83.718 Y84.160 E0.01677
G1 X83.678 Y83.781 E0.01677
G1 X83.718 Y83.403 E0.01677
G1 X83.836 Y83.040 E0.01677
G1 X84.026 Y82.711 E0.01677
G1 X84.237 Y82.477 E0.01386
G1 X84.639 Y82.558 F3600.000
G1 F1800.000 E-1.00000
G1 X80.497 Y75.898 F3600.000
G1 F1800.000 E1.00000
G1 X81.525 Y75.333 F540.000 E0.05164
G1 X82.615 Y74.902 E0.05164
G1 X83.750 Y74.610 E0.05164
G1 X84.914 Y74.463 E0.05164
G1 X86.086 Y74.463 E0.05164
G1 X87.250 Y74.610 E0.05164
G1 X88.385 Y74.902 E0.05164
G1 X89.475 Y75.333 E0.05164
G1 X90.503 Y75.898 E0.05164
G1 X91.451 Y76.587 E0.05164
G1 X92.306 Y77.390 E0.05164
G1 X93.053 Y78.293 E0.05164
G1 X93.682 Y79.283 E0.05164
G1 X94.181 Y80.344 E0.05164
G1 X94.543 Y81.459 E0.05164
G1 X94.763 Y82.611 E0.05164
G1 X94.837 Y83.781 E0.05164
G1 X94.763 Y84.952 E0.05164
G1 X94.543 Y86.103 E0.05164
G1 X94.181 Y87.218 E0.05164
G1 X93.682 Y88.279 E0.05164
G1 X93.053 Y89.269 E0.05164
G1 X92.306 Y90.173 E0.05164
G1 X91.451 Y90.975 E0.05164
G1 X90.503 Y91.665 E0.05164
G1 X89.475 Y92.229 E0.05164
G1 X88.385 Y92.661 E0.05164
G1 X87.250 Y92.953 E0.05164
G1 X86.086 Y93.100 E0.05164
G1 X84.914 Y93.100 E0.05164
G1 X83.750 Y92.953 E0.05164
G1 X82.615 Y92.661 E0.05164
G1 X81.525 Y92.229 E0.05164
G1 X80.497 Y91.665 E0.05164
G1 X79.549 Y90.975 E0.05164
G1 X78.694 Y90.173 E0.05164
G1 X77.947 Y89.269 E0.05164
G1 X77.318 Y88.279 E0.05164
G1 X76.819 Y87.218 E0.05164
G1 X76.457 Y86.103 E0.05164
G1 X76.237 Y84.952 E0.05164
G1 X76.163 Y83.781 E0.05164
G1 X76.237 Y82.611 E0.05164
G1 X76.457 Y81.459 E0.05164
G1 X76.819 Y80.344 E0.05164
G1 X77.318 Y79.283 E0.05164
G1 X77.947 Y78.293 E0.05164
G1 X78.694 Y77.390 E0.05164
G1 X79.549 Y76.587 E0.05164
G1 X80.444 Y75.937 E0.04872
G1 X80.241 Y75.539 F3600.000
G1 X81.336 Y74.933 F378.000 E0.05512
G1 X82.478 Y74.481 E0.05408
G1 X83.668 Y74.176 E0.05408
G1 X84.886 Y74.022 E0.05408
G1 X86.114 Y74.022 E0.05408
G1 X87.332 Y74.176 E0.05408
G1 X88.522 Y74.481 E0.05408
G1 X89.634 Y74.922 E0.05268
G1 X90.740 Y75.525 E0.05547
G1 X91.733 Y76.247 E0.05408
G1 X92.628 Y77.087 E0.05408
G1 X93.411 Y78.034 E0.05408
G1 X94.069 Y79.070 E0.05408
G1 X94.592 Y80.182 E0.05408
G1 X94.972 Y81.349 E0.05408
G1 X95.202 Y82.556 E0.05408
G1 X95.279 Y83.781 E0.05408
G1 X95.202 Y85.007 E0.05408
G1 X94.972 Y86.213 E0.05408
G1 X94.592 Y87.381 E0.05408
G1 X94.069 Y88.492 E0.05408
G1 X93.411 Y89.529 E0.05408
G1 X92.628 Y90.476 E0.05408
G1 X91.733 Y91.316 E0.05408
G1 X90.740 Y92.038 E0.05408
G1 X89.664 Y92.630 E0.05408
G1 X88.522 Y93.082 E0.05408
G1 X87.332 Y93.387 E0.05408
G1 X86.114 Y93.541 E0.05408
G1 X84.886 Y93.541 E0.05408
G1 X83.668 Y93.387 E0.05408
G1 X82.478 Y93.082 E0.05408
G1 X81.336 Y92.630 E0.05408
G1 X80.260 Y92.038 E0.05408
G1 X79.267 Y91.316 E0.05408
G1 X78.372 Y90.476 E0.05408
G1 X77.589 Y89.529 E0.05408
G1 X76.931 Y88.492 E0.05408
G1 X76.408 Y87.381 E0.05408
G1 X76.028 Y86.213 E0.05408
G1 X75.798 Y85.007 E0.05408
G1 X75.721 Y83.781 E0.05408
G1 X75.798 Y82.556 E0.05408
G1 X76.028 Y81.349 E0.05408
G1 X76.408 Y80.182 E0.05408
G1 X76.931 Y79.070 E0.05408
G1 X77.589 Y78.034 E0.05408
G1 X78.371 Y77.087 E0.05408
G1 X79.267 Y76.247 E0.05408
G1 X80.187 Y75.578 E0.05012
G1 X80.628 Y75.751 F3600.000
G1 X86.157 Y81.290
G1 X80.905 Y76.039 F720.000 E0.32903
G1 X80.517 Y76.279 E0.02021
G1 X85.447 Y81.208 E0.30884
G1 X84.891 Y81.280 E0.02483
G1 X80.154 Y76.543 E0.29680
G1 X79.790 Y76.807 E0.01992
G1 X84.426 Y81.443 E0.29044
G1 X84.026 Y81.672 E0.02039
G1 X79.462 Y77.107 E0.28596
G1 X79.138 Y77.411 E0.01968
G1 X83.682 Y81.955 E0.28467
G1 X83.389 Y82.291 E0.01972
G1 X78.828 Y77.729 E0.28578
G1 X78.544 Y78.073 E0.01976
G1 X83.160 Y82.689 E0.28919
G1 X82.998 Y83.155 E0.02186
G1 X78.260 Y78.417 E0.29687
G1 X78.008 Y78.793 E0.02006
G1 X82.921 Y83.706 E0.30778
G1 X82.999 Y84.412 E0.03150
G1 X77.764 Y79.177 E0.32799
G1 X77.534 Y79.575 E0.02036
G1 X89.700 Y91.741 E0.76223
G1 X89.290 Y91.959 E0.02057
G1 X77.334 Y80.002 E0.74913
G1 X77.133 Y80.429 E0.02091
G1 X88.840 Y92.137 E0.73353
G1 X88.390 Y92.315 E0.02143
G1 X76.975 Y80.899 E0.71523
G1 X76.821 Y81.373 E0.02208
G1 X87.902 Y92.455 E0.69429
G1 X87.403 Y92.583 E0.02285
G1 X76.702 Y81.882 E0.67046
G1 X76.601 Y82.409 E0.02378
G1 X86.870 Y92.678 E0.64338
G1 X86.312 Y92.749 E0.02489
G1 X76.535 Y82.971 E0.61261
G1 X76.498 Y83.562 E0.02622
G1 X85.716 Y92.780 E0.57754
G1 X85.088 Y92.780 E0.02782
G1 X76.510 Y84.202 E0.53741
G1 X76.553 Y84.872 E0.02975
G1 X84.391 Y92.711 E0.49113
G1 X83.648 Y92.596 E0.03331
G1 X76.694 Y85.642 E0.43570
G1 X76.921 Y86.497 E0.03916
G1 X82.804 Y92.379 E0.36858
G1 X81.785 Y91.988 E0.04835
G1 X77.313 Y87.516 E0.28019
G1 X78.130 Y88.962 E0.07356
G1 X80.279 Y91.111 E0.13465
G1 X90.105 Y91.518 F3600.000
G1 X84.864 Y86.277 F720.000 E0.32838
G1 X85.570 Y86.355 E0.03145
G1 X90.492 Y91.277 E0.30841
G1 X90.856 Y91.013 E0.01992
G1 X86.123 Y86.280 E0.29655
G1 X86.586 Y86.115 E0.02177
G1 X91.219 Y90.749 E0.29033
G1 X91.546 Y90.447 E0.01969
G1 X86.983 Y85.884 E0.28590
G1 X87.326 Y85.599 E0.01975
G1 X91.870 Y90.143 E0.28472
G1 X92.179 Y89.824 E0.01967
G1 X87.617 Y85.262 E0.28587
G1 X87.846 Y84.864 E0.02036
G1 X92.463 Y89.481 E0.28928
G1 X92.748 Y89.137 E0.01976
G1 X88.006 Y84.395 E0.29708
G1 X88.081 Y83.842 E0.02473
G1 X92.998 Y88.760 E0.30808
G1 X93.242 Y88.375 E0.02016
G1 X87.993 Y83.126 E0.32888
G1 X90.781 Y76.496 F3600.000
G1 X92.841 Y78.556 F720.000 E0.12910
G1 X93.673 Y80.015 E0.07441
G1 X89.243 Y75.585 E0.27757
G1 X88.219 Y75.189 E0.04864
G1 X94.071 Y81.042 E0.36670
G1 X94.302 Y81.900 E0.03938
G1 X87.374 Y74.972 E0.43407
G1 X86.628 Y74.854 E0.03347
G1 X94.446 Y82.673 E0.48988
G1 X94.489 Y83.343 E0.02975
G1 X85.929 Y74.783 E0.53631
G1 X85.301 Y74.783 E0.02782
G1 X94.503 Y83.986 E0.57658
G1 X94.466 Y84.576 E0.02622
G1 X84.702 Y74.812 E0.61175
G1 X84.145 Y74.883 E0.02489
G1 X94.401 Y85.140 E0.64264
G1 X94.301 Y85.667 E0.02378
G1 X83.610 Y74.976 E0.66981
G1 X83.111 Y75.105 E0.02285
G1 X94.183 Y86.177 E0.69373
G1 X94.029 Y86.651 E0.02208
G1 X82.621 Y75.243 E0.71474
G1 X82.171 Y75.421 E0.02143
G1 X93.873 Y87.122 E0.73313
G1 X93.672 Y87.549 E0.02091
G1 X81.722 Y75.599 E0.74872
G1 X81.310 Y75.816 E0.02059
G1 X93.471 Y87.976 E0.76189
G1 F1800.000 E-1.00000
G1 X64.500 Y70.441 F3600.000
G1 F1800.000 E1.00000
G1 X58.024 Y144.460 F540.000 E3.27227
G1 X52.162 Y143.947 E0.25913
G1 X52.162 Y134.862 E0.40012
G1 X59.107 Y55.485 E3.50915
G1 X147.838 Y55.485 E3.90775
G1 X147.838 Y62.161 E0.29401
G1 X65.224 Y62.161 E3.63834
G1 X64.505 Y70.375 E0.36316
G1 X64.939 Y70.480 F3600.000
G1 X58.425 Y144.938 F378.000 E3.29170
G1 X51.721 Y144.352 E0.29638
G1 X51.721 Y134.843 E0.41878
G1 X58.702 Y55.043 E3.52781
G1 X148.279 Y55.043 E3.94500
G1 X148.279 Y62.602 E0.33288
G1 X65.628 Y62.602 E3.63997
G1 X64.945 Y70.414 E0.34535
G1 X64.539 Y70.666 F3600.000
G1 X52.551 Y143.660
G1 X52.482 Y143.592 F720.000 E0.00428
G1 X52.482 Y142.967 E0.02755
G1 X53.235 Y143.720 E0.04698
G1 X53.920 Y143.780 E0.03031
G1 X52.482 Y142.342 E0.08969
G1 X52.482 Y141.717 E0.02755
G1 X54.605 Y143.840 E0.13239
G1 X55.290 Y143.900 E0.03031
G1 X52.482 Y141.092 E0.17509
G1 X52.482 Y140.467 E0.02755
G1 X55.975 Y143.960 E0.21779
G1 X56.660 Y144.020 E0.03031
G1 X52.482 Y139.842 E0.26049
G1 X52.482 Y139.217 E0.02755
G1 X57.344 Y144.080 E0.30319
G1 X57.755 Y143.865 E0.02042
G1 X52.482 Y138.592 E0.32877
G1 X52.482 Y137.967 E0.02755
G1 X57.805 Y143.290 E0.33191
G1 X57.855 Y142.716 E0.02543
G1 X52.482 Y137.342 E0.33504
G1 X52.482 Y136.718 E0.02755
G1 X57.905 Y142.141 E0.33818
G1 X57.956 Y141.566 E0.02543
G1 X52.482 Y136.093 E0.34131
G1 X52.482 Y135.468 E0.02755
G1 X58.006 Y140.992 E0.34445
G1 X58.056 Y140.417 E0.02543
G1 X52.485 Y134.846 E0.34742
G1 X52.535 Y134.271 E0.02543
G1 X58.107 Y139.843 E0.34742
G1 X58.157 Y139.268 E0.02543
G1 X52.585 Y133.696 E0.34742
G1 X52.635 Y133.122 E0.02543
G1 X58.207 Y138.693 E0.34742
G1 X58.257 Y138.119 E0.02543
G1 X52.686 Y132.547 E0.34742
G1 X52.736 Y131.972 E0.02543
G1 X58.308 Y137.544 E0.34742
G1 X58.358 Y136.969 E0.02543
G1 X52.786 Y131.398 E0.34742
G1 X52.837 Y130.823 E0.02543
G1 X58.408 Y136.395 E0.34742
G1 X58.459 Y135.820 E0.02543
G1 X52.887 Y130.248 E0.34742
G1 X52.937 Y129.674 E0.02543
G1 X58.509 Y135.246 E0.34742
G1 X58.559 Y134.671 E0.02543
G1 X52.987 Y129.099 E0.34742
G1 X53.038 Y128.525 E0.02543
G1 X58.609 Y134.096 E0.34742
G1 X58.660 Y133.522 E0.02543
G1 X53.088 Y127.950 E0.34742
G1 X53.138 Y127.375 E0.02543
G1 X58.710 Y132.947 E0.34742
G1 X58.760 Y132.372 E0.02543
G1 X53.188 Y126.801 E0.34742
G1 X53.239 Y126.226 E0.02543
G1 X58.810 Y131.798 E0.34742
G1 X58.861 Y131.223 E0.02543
G1 X53.289 Y125.651 E0.34742
G1 X53.339 Y125.077 E0.02543
G1 X58.911 Y130.648 E0.34742
G1 X58.961 Y130.074 E0.02543
G1 X53.390 Y124.502 E0.34742
G1 X53.440 Y123.927 E0.02543
G1 X59.012 Y129.499 E0.34742
G1 X59.062 Y128.925 E0.02543
G1 X53.490 Y123.353 E0.34742
G1 X53.540 Y122.778 E0.02543
G1 X59.112 Y128.350 E0.34742
G1 X59.162 Y127.775 E0.02543
G1 X53.591 Y122.204 E0.34742
G1 X53.641 Y121.629 E0.02543
G1 X59.213 Y127.201 E0.34742
G1 X59.263 Y126.626 E0.02543
G1 X53.691 Y121.054 E0.34742
G1 X53.741 Y120.480 E0.02543
G1 X59.313 Y126.051 E0.34742
G1 X59.363 Y125.477 E0.02543
G1 X53.792 Y119.905 E0.34742
G1 X53.842 Y119.330 E0.02543
G1 X59.414 Y124.902 E0.34742
G1 X59.464 Y124.328 E0.02543
G1 X53.892 Y118.756 E0.34742
G1 X53.943 Y118.181 E0.02543
G1 X59.514 Y123.753 E0.34742
G1 X59.565 Y123.178 E0.02543
G1 X53.993 Y117.607 E0.34742
G1 X54.043 Y117.032 E0.02543
G1 X59.615 Y122.604 E0.34742
G1 X59.665 Y122.029 E0.02543
G1 X54.093 Y116.457 E0.34742
G1 X54.144 Y115.883 E0.02543
G1 X59.715 Y121.454 E0.34742
G1 X59.766 Y120.880 E0.02543
G1 X54.194 Y115.308 E0.34742
G1 X54.244 Y114.733 E0.02543
G1 X59.816 Y120.305 E0.34742
G1 X59.866 Y119.730 E0.02543
G1 X54.294 Y114.159 E0.34742
G1 X54.345 Y113.584 E0.02543
G1 X59.916 Y119.156 E0.34742
G1 X59.967 Y118.581 E0.02543
G1 X54.395 Y113.009 E0.34742
G1 X54.445 Y112.435 E0.02543
G1 X60.017 Y118.007 E0.34742
G1 X60.067 Y117.432 E0.02543
G1 X54.496 Y111.860 E0.34742
G1 X54.546 Y111.286 E0.02543
G1 X60.118 Y116.857 E0.34742
G1 X60.168 Y116.283 E0.02543
G1 X54.596 Y110.711 E0.34742
G1 X54.646 Y110.136 E0.02543
G1 X60.218 Y115.708 E0.34742
G1 X60.268 Y115.133 E0.02543
G1 X54.697 Y109.562 E0.34742
G1 X54.747 Y108.987 E0.02543
G1 X60.319 Y114.559 E0.34742
G1 X60.369 Y113.984 E0.02543
G1 X54.797 Y108.412 E0.34742
G1 X54.847 Y107.838 E0.02543
G1 X60.419 Y113.410 E0.34742
G1 X60.469 Y112.835 E0.02543
G1 X54.898 Y107.263 E0.34742
G1 X54.948 Y106.689 E0.02543
G1 X60.520 Y112.260 E0.34742
G1 X60.570 Y111.686 E0.02543
G1 X54.998 Y106.114 E0.34742
G1 X55.049 Y105.539 E0.02543
G1 X60.620 Y111.111 E0.34742
G1 X60.671 Y110.536 E0.02543
G1 X55.099 Y104.965 E0.34742
G1 X55.149 Y104.390 E0.02543
G1 X60.721 Y109.962 E0.34742
G1 X60.771 Y109.387 E0.02543
G1 X55.199 Y103.815 E0.34742
G1 X55.250 Y103.241 E0.02543
G1 X60.821 Y108.812 E0.34742
G1 X60.872 Y108.238 E0.02543
G1 X55.300 Y102.666 E0.34742
G1 X55.350 Y102.091 E0.02543
G1 X60.922 Y107.663 E0.34742
G1 X60.972 Y107.089 E0.02543
G1 X55.400 Y101.517 E0.34742
G1 X55.451 Y100.942 E0.02543
G1 X61.022 Y106.514 E0.34742
G1 X61.073 Y105.939 E0.02543
G1 X55.501 Y100.368 E0.34742
G1 X55.551 Y99.793 E0.02543
G1 X61.123 Y105.365 E0.34742
G1 X61.173 Y104.790 E0.02543
G1 X55.602 Y99.218 E0.34742
G1 X55.652 Y98.644 E0.02543
G1 X61.224 Y104.215 E0.34742
G1 X61.274 Y103.641 E0.02543
G1 X55.702 Y98.069 E0.34742
G1 X55.752 Y97.494 E0.02543
G1 X61.324 Y103.066 E0.34742
G1 X61.374 Y102.492 E0.02543
G1 X55.803 Y96.920 E0.34742
G1 X55.853 Y96.345 E0.02543
G1 X61.425 Y101.917 E0.34742
G1 X61.475 Y101.342 E0.02543
G1 X55.903 Y95.771 E0.34742
G1 X55.953 Y95.196 E0.02543
G1 X61.525 Y100.768 E0.34742
G1 X61.575 Y100.193 E0.02543
G1 X56.004 Y94.621 E0.34742
G1 X56.054 Y94.047 E0.02543
G1 X61.626 Y99.618 E0.34742
G1 X61.676 Y99.044 E0.02543
G1 X56.104 Y93.472 E0.34742
G1 X56.155 Y92.897 E0.02543
G1 X61.726 Y98.469 E0.34742
G1 X61.777 Y97.894 E0.02543
G1 X56.205 Y92.323 E0.34742
G1 X56.255 Y91.748 E0.02543
G1 X61.827 Y97.320 E0.34742
G1 X61.877 Y96.745 E0.02543
G1 X56.305 Y91.173 E0.34742
G1 X56.356 Y90.599 E0.02543
G1 X61.927 Y96.171 E0.34742
G1 X61.978 Y95.596 E0.02543
G1 X56.406 Y90.024 E0.34742
G1 X56.456 Y89.450 E0.02543
G1 X62.028 Y95.021 E0.34742
G1 X62.078 Y94.447 E0.02543
G1 X56.506 Y88.875 E0.34742
G1 X56.557 Y88.300 E0.02543
G1 X62.128 Y93.872 E0.34742
G1 X62.179 Y93.297 E0.02543
G1 X56.607 Y87.726 E0.34742
G1 X56.657 Y87.151 E0.02543
G1 X62.229 Y92.723 E0.34742
G1 X62.279 Y92.148 E0.02543
G1 X56.708 Y86.576 E0.34742
G1 X56.758 Y86.002 E0.02543
